; generated by Slic3r 1.1.7 on 2015-02-26 at 14:09:30

; perimeters extrusion width = 0.40mm
; infill extrusion width = 0.40mm
; solid infill extrusion width = 0.40mm
; top infill extrusion width = 0.40mm

G21 ; set units to millimeters
M107
M190 S60 ; wait for bed temperature to be reached
M104 S190 ; set temperature
G28 ; home all axes
G1 Z5 F5000 ; lift nozzle
M109 S190 ; wait for temperature to be reached
G90 ; use absolute coordinates
G92 E0
M82 ; use absolute distances for extrusion
G1 F1800.000 E-1.00000
G92 E0
G1 Z0.300 F7800.000
G1 X39.610 Y35.038 F7800.000
G1 E1.00000 F1800.000
G1 X40.042 Y34.549 E1.01849 F1080.000
G1 X40.539 Y34.077 E1.03791
G1 X41.228 Y33.508 E1.06323
G1 X41.778 Y33.114 E1.08241
G1 X42.423 Y32.706 E1.10403
G1 X43.018 Y32.377 E1.12331
G1 X43.759 Y32.025 E1.14657
G1 X44.392 Y31.772 E1.16587
G1 X45.205 Y31.508 E1.19009
G1 X45.865 Y31.340 E1.20939
G1 X46.641 Y31.192 E1.23178
G1 X47.317 Y31.105 E1.25109
G1 X48.148 Y31.052 E1.27470
G1 X110.657 Y31.104 E3.04616
G1 X112.109 Y31.338 E3.08784 F1080.000
G1 X113.592 Y31.773 E3.13164
G1 X114.957 Y32.372 E3.17388
G1 X116.199 Y33.108 E3.21478
G1 X117.428 Y34.062 E3.25888
G1 X118.066 Y34.668 E3.28381
G1 X148.960 Y65.565 E4.52204
G1 X149.971 Y66.720 E4.56553
G1 X150.783 Y67.926 E4.60674
G1 X151.476 Y69.291 E4.65012
G1 X151.968 Y70.669 E4.69158
G1 X152.245 Y71.803 E4.72468
G1 X159.393 Y111.079 E5.85600
G1 X159.446 Y111.996 E5.88203
G1 X159.425 Y118.524 E6.06702
G1 X159.235 Y119.898 E6.10634
G1 X158.826 Y121.251 E6.14639
G1 X158.226 Y122.492 E6.18546
G1 X157.440 Y123.632 E6.22470
G1 X156.450 Y124.672 E6.26539
G1 X155.324 Y125.526 E6.30545
G1 X154.097 Y126.185 E6.34492
G1 X152.776 Y126.647 E6.38458
G1 X151.377 Y126.899 E6.42485
G1 X150.492 Y126.948 E6.44997
G1 X74.627 Y126.892 E8.59993
G1 X73.979 Y126.806 E8.61846
G1 X72.353 Y126.369 E8.66618
G1 X71.751 Y126.119 E8.68466
G1 X70.306 Y125.286 E8.73191
G1 X36.175 Y98.940 E9.95379
G1 X34.804 Y97.740 E10.00543
G1 X33.612 Y96.396 E10.05632
G1 X32.581 Y94.893 E10.10801
G1 X31.745 Y93.264 E10.15988
G1 X31.383 Y92.342 E10.18795
G1 X31.137 Y91.589 E10.21041
G1 X30.889 Y90.633 E10.23839
G1 X30.727 Y89.790 E10.26271
G1 X30.554 Y87.996 E10.31379
G1 X30.603 Y86.196 E10.36482
G1 X36.694 Y41.109 E11.65417
G1 X36.820 Y40.440 E11.67344
G1 X37.024 Y39.637 E11.69693
G1 X37.235 Y38.987 E11.71629
G1 X37.546 Y38.203 E11.74021
G1 X37.836 Y37.592 E11.75938
G1 X38.223 Y36.889 E11.78211
G1 X38.590 Y36.311 E11.80150
G1 X39.078 Y35.639 E11.82504
G1 X39.570 Y35.083 E11.84610
G1 X39.780 Y35.188 F7800.000
G1 X40.199 Y34.714 E11.86402 F1080.000
G1 X40.696 Y34.242 E11.88344
G1 X41.360 Y33.693 E11.90787
G1 X41.910 Y33.298 E11.92705
G1 X42.533 Y32.904 E11.94793
G1 X43.128 Y32.575 E11.96720
G1 X43.843 Y32.236 E11.98965
G1 X44.476 Y31.983 E12.00895
G1 X45.260 Y31.728 E12.03233
G1 X45.921 Y31.561 E12.05163
G1 X46.670 Y31.417 E12.07325
G1 X47.346 Y31.331 E12.09256
G1 X48.148 Y31.279 E12.11534
G1 X110.628 Y31.329 E13.88599
G1 X112.053 Y31.558 E13.92689 F1080.000
G1 X113.508 Y31.984 E13.96984
G1 X114.847 Y32.570 E14.01128
G1 X116.066 Y33.293 E14.05143
G1 X117.272 Y34.227 E14.09466
G1 X117.905 Y34.829 E14.11941
G1 X148.795 Y65.720 E15.35743
G1 X149.786 Y66.853 E15.40010
G1 X150.584 Y68.036 E15.44053
G1 X151.264 Y69.374 E15.48308
G1 X151.748 Y70.726 E15.52376
G1 X152.022 Y71.844 E15.55638
G1 X159.167 Y111.098 E16.68707
G1 X159.219 Y111.996 E16.71257
G1 X159.198 Y118.505 E16.89703
G1 X159.014 Y119.845 E16.93536
G1 X158.616 Y121.163 E16.97439
G1 X158.032 Y122.374 E17.01248
G1 X157.267 Y123.485 E17.05072
G1 X156.302 Y124.499 E17.09038
G1 X155.206 Y125.333 E17.12941
G1 X154.010 Y125.975 E17.16789
G1 X152.722 Y126.426 E17.20654
G1 X151.360 Y126.673 E17.24579
G1 X150.492 Y126.721 E17.27042
G1 X74.657 Y126.667 E19.41953
G1 X74.009 Y126.581 E19.43805
G1 X72.440 Y126.159 E19.48410
G1 X71.838 Y125.909 E19.50257
G1 X70.444 Y125.105 E19.54816
G1 X36.320 Y98.765 E20.76979
G1 X34.970 Y97.584 E20.82062
G1 X33.796 Y96.262 E20.87072
G1 X32.780 Y94.783 E20.92159
G1 X31.957 Y93.181 E20.97263
G1 X31.594 Y92.259 E21.00071
G1 X31.357 Y91.532 E21.02239
G1 X31.109 Y90.576 E21.05037
G1 X30.952 Y89.762 E21.07384
G1 X30.781 Y87.996 E21.12414
G1 X30.828 Y86.224 E21.17437
G1 X36.917 Y41.151 E22.46331
G1 X37.043 Y40.483 E22.48258
G1 X37.240 Y39.707 E22.50525
G1 X37.451 Y39.057 E22.52462
G1 X37.751 Y38.300 E22.54771
G1 X38.041 Y37.689 E22.56687
G1 X38.415 Y37.011 E22.58882
G1 X38.781 Y36.433 E22.60821
G1 X39.253 Y35.784 E22.63093
G1 X39.740 Y35.233 E22.65178
G1 F1800.000 E21.65178
G92 E0
G1 X107.860 Y44.344 F7800.000
G1 E1.00000 F1800.000
G1 X107.707 Y44.132 E1.00742 F1620.000
G1 X107.575 Y43.898 E1.01502
G1 X107.478 Y43.650 E1.02256
G1 X107.409 Y43.391 E1.03017
G1 X107.379 Y43.126 E1.03772
G1 X107.379 Y42.862 E1.04522
G1 X107.410 Y42.596 E1.05279
G1 X107.478 Y42.341 E1.06027
G1 X107.575 Y42.091 E1.06787
G1 X107.707 Y41.860 E1.07543
G1 X107.860 Y41.649 E1.08280
G1 X108.042 Y41.451 E1.09042
G1 X108.248 Y41.282 E1.09799
G1 X108.471 Y41.142 E1.10543
G1 X108.714 Y41.026 E1.11306
G1 X108.967 Y40.946 E1.12060
G1 X109.226 Y40.895 E1.12806
G1 X109.521 Y40.878 E1.13645
G1 X109.758 Y40.895 E1.14319 F1620.000
G1 X110.017 Y40.946 E1.15065
G1 X110.270 Y41.026 E1.15819
G1 X110.513 Y41.141 E1.16579
G1 X110.738 Y41.282 E1.17332
G1 X110.943 Y41.451 E1.18086
G1 X111.124 Y41.649 E1.18845
G1 X111.277 Y41.860 E1.19583
G1 X111.409 Y42.091 E1.20339
G1 X111.506 Y42.341 E1.21099
G1 X111.574 Y42.596 E1.21846
G1 X111.605 Y42.862 E1.22604
G1 X111.605 Y43.126 E1.23354
G1 X111.576 Y43.386 E1.24094
G1 X111.506 Y43.650 E1.24869
G1 X111.420 Y43.870 E1.25538
G1 X111.355 Y44.141 E1.26327
G1 X111.101 Y44.368 E1.27294
G1 X110.943 Y44.538 E1.27951
G1 X110.739 Y44.709 E1.28705
G1 X110.511 Y44.852 E1.29468
G1 X110.269 Y44.962 E1.30220
G1 X110.017 Y45.044 E1.30972
G1 X109.757 Y45.093 E1.31721
G1 X109.492 Y45.112 E1.32474
G1 X109.227 Y45.093 E1.33226
G1 X108.967 Y45.044 E1.33976
G1 X108.715 Y44.962 E1.34728
G1 X108.473 Y44.852 E1.35482
G1 X108.247 Y44.709 E1.36237
G1 X108.042 Y44.539 E1.36994
G1 X107.901 Y44.388 E1.37579
G1 X108.036 Y44.199 F7800.000
G1 X107.898 Y44.009 E1.38246 F1620.000
G1 X107.781 Y43.801 E1.38923
G1 X107.694 Y43.580 E1.39595
G1 X107.633 Y43.349 E1.40273
G1 X107.606 Y43.113 E1.40945
G1 X107.606 Y42.875 E1.41620
G1 X107.633 Y42.639 E1.42293
G1 X107.694 Y42.412 E1.42959
G1 X107.780 Y42.189 E1.43636
G1 X107.898 Y41.983 E1.44309
G1 X108.036 Y41.793 E1.44974
G1 X108.198 Y41.616 E1.45653
G1 X108.381 Y41.467 E1.46324
G1 X108.581 Y41.341 E1.46991
G1 X108.797 Y41.238 E1.47671
G1 X109.024 Y41.167 E1.48344
G1 X109.256 Y41.121 E1.49015
G1 X109.479 Y41.105 E1.49648
G1 X109.728 Y41.121 E1.50356 F1620.000
G1 X109.960 Y41.167 E1.51027
G1 X110.187 Y41.238 E1.51701
G1 X110.403 Y41.341 E1.52379
G1 X110.605 Y41.467 E1.53052
G1 X110.786 Y41.617 E1.53719
G1 X110.948 Y41.793 E1.54397
G1 X111.086 Y41.983 E1.55063
G1 X111.204 Y42.189 E1.55736
G1 X111.290 Y42.412 E1.56413
G1 X111.351 Y42.639 E1.57079
G1 X111.378 Y42.875 E1.57751
G1 X111.378 Y43.113 E1.58427
G1 X111.351 Y43.347 E1.59095
G1 X111.150 Y44.019 E1.61080
G1 X110.786 Y44.373 E1.62521
G1 X110.605 Y44.525 E1.63191
G1 X110.403 Y44.651 E1.63867
G1 X110.187 Y44.750 E1.64540
G1 X109.960 Y44.823 E1.65214
G1 X109.728 Y44.867 E1.65885
G1 X109.492 Y44.884 E1.66555
G1 X109.256 Y44.867 E1.67224
G1 X109.024 Y44.823 E1.67895
G1 X108.797 Y44.750 E1.68570
G1 X108.581 Y44.651 E1.69243
G1 X108.381 Y44.525 E1.69914
G1 X108.198 Y44.374 E1.70587
G1 X108.077 Y44.243 E1.71091
G1 F1800.000 E0.71091
G92 E0
G1 X109.520 Y40.859 F7800.000
G1 X105.992 Y82.678 F7800.000
G1 E1.00000 F1800.000
G1 X106.066 Y82.683 E1.00211 F1620.000
G1 X106.593 Y82.715 E1.01707 F1620.000
G1 X107.190 Y82.828 E1.03427
G1 X107.767 Y83.019 E1.05151
G1 X108.313 Y83.273 E1.06856
G1 X108.823 Y83.597 E1.08568
G1 X109.291 Y83.984 E1.10291
G1 X109.705 Y84.424 E1.12003
G1 X110.058 Y84.916 E1.13718
G1 X110.351 Y85.440 E1.15421
G1 X110.573 Y86.005 E1.17140
G1 X110.722 Y86.594 E1.18864
G1 X110.799 Y87.192 E1.20570
G1 X110.799 Y87.796 E1.22283
G1 X110.722 Y88.398 E1.24001
G1 X110.573 Y88.986 E1.25721
G1 X110.351 Y89.548 E1.27433
G1 X110.058 Y90.074 E1.29141
G1 X109.706 Y90.565 E1.30854
G1 X109.292 Y91.010 E1.32575
G1 X108.822 Y91.396 E1.34298
G1 X108.313 Y91.717 E1.36004
G1 X107.767 Y91.974 E1.37714
G1 X107.189 Y92.160 E1.39434
G1 X106.593 Y92.275 E1.41154
G1 X105.992 Y92.310 E1.42861
G1 X105.386 Y92.275 E1.44580
G1 X104.794 Y92.160 E1.46289
G1 X104.219 Y91.974 E1.48002
G1 X103.672 Y91.717 E1.49717
G1 X103.162 Y91.396 E1.51423
G1 X102.692 Y91.010 E1.53146
G1 X102.278 Y90.565 E1.54868
G1 X101.926 Y90.074 E1.56581
G1 X101.633 Y89.548 E1.58288
G1 X101.412 Y88.987 E1.59998
G1 X101.258 Y88.397 E1.61723
G1 X101.185 Y87.795 E1.63443
G1 X101.185 Y87.193 E1.65150
G1 X101.258 Y86.594 E1.66858
G1 X101.412 Y86.004 E1.68588
G1 X101.633 Y85.440 E1.70303
G1 X101.926 Y84.916 E1.72006
G1 X102.279 Y84.424 E1.73721
G1 X102.693 Y83.984 E1.75433
G1 X103.161 Y83.597 E1.77156
G1 X103.672 Y83.273 E1.78868
G1 X104.219 Y83.019 E1.80579
G1 X104.794 Y82.828 E1.82296
G1 X105.386 Y82.715 E1.84005
G1 X105.932 Y82.682 E1.85555
G1 X105.992 Y82.906 F7800.000
G1 X106.565 Y82.940 E1.87182 F1620.000
G1 X107.133 Y83.049 E1.88819
G1 X107.683 Y83.230 E1.90462
G1 X108.203 Y83.473 E1.92088
G1 X108.689 Y83.781 E1.93718
G1 X109.136 Y84.150 E1.95361
G1 X109.530 Y84.569 E1.96989
G1 X109.866 Y85.038 E1.98625
G1 X110.146 Y85.537 E2.00248
G1 X110.356 Y86.074 E2.01882
G1 X110.499 Y86.637 E2.03527
G1 X110.572 Y87.206 E2.05153
G1 X110.572 Y87.782 E2.06784
G1 X110.499 Y88.355 E2.08422
G1 X110.356 Y88.916 E2.10062
G1 X110.146 Y89.451 E2.11690
G1 X109.866 Y89.952 E2.13318
G1 X109.530 Y90.421 E2.14953
G1 X109.136 Y90.844 E2.16591
G1 X108.689 Y91.211 E2.18230
G1 X108.203 Y91.517 E2.19857
G1 X107.683 Y91.762 E2.21486
G1 X107.132 Y91.939 E2.23125
G1 X106.565 Y92.050 E2.24763
G1 X105.992 Y92.082 E2.26390
G1 X105.415 Y92.050 E2.28028
G1 X104.851 Y91.939 E2.29655
G1 X104.303 Y91.762 E2.31289
G1 X103.781 Y91.517 E2.32923
G1 X103.295 Y91.211 E2.34550
G1 X102.848 Y90.844 E2.36189
G1 X102.454 Y90.421 E2.37827
G1 X102.118 Y89.952 E2.39462
G1 X101.838 Y89.451 E2.41090
G1 X101.628 Y88.916 E2.42717
G1 X101.481 Y88.355 E2.44361
G1 X101.412 Y87.781 E2.45998
G1 X101.412 Y87.207 E2.47627
G1 X101.481 Y86.637 E2.49253
G1 X101.628 Y86.074 E2.50902
G1 X101.838 Y85.537 E2.52535
G1 X102.118 Y85.038 E2.54158
G1 X102.454 Y84.569 E2.55793
G1 X102.848 Y84.150 E2.57422
G1 X103.295 Y83.781 E2.59065
G1 X103.781 Y83.473 E2.60695
G1 X104.303 Y83.230 E2.62326
G1 X104.851 Y83.049 E2.63963
G1 X105.415 Y82.940 E2.65590
G1 X105.932 Y82.909 E2.67058
G1 X106.199 Y82.564 F7800.000
G1 X108.715 Y75.966 F7800.000
G1 X108.472 Y75.853 E2.67819 F1620.000
G1 X108.247 Y75.711 E2.68570
G1 X108.042 Y75.541 E2.69327
G1 X107.860 Y75.346 E2.70082
G1 X107.706 Y75.133 E2.70826
G1 X107.575 Y74.898 E2.71591
G1 X107.478 Y74.650 E2.72345
G1 X107.409 Y74.389 E2.73110
G1 X107.379 Y74.126 E2.73858
G1 X107.379 Y73.861 E2.74609
G1 X107.451 Y73.375 E2.76002
G1 X107.575 Y73.092 E2.76878
G1 X107.707 Y72.858 E2.77639
G1 X107.860 Y72.646 E2.78381
G1 X108.043 Y72.449 E2.79143
G1 X108.247 Y72.285 E2.79886
G1 X108.468 Y72.141 E2.80634
G1 X108.712 Y72.025 E2.81399
G1 X108.967 Y71.942 E2.82159
G1 X109.230 Y71.892 E2.82916
G1 X109.516 Y71.880 E2.83726
G1 X109.754 Y71.892 E2.84403 F1620.000
G1 X110.017 Y71.942 E2.85160
G1 X110.272 Y72.025 E2.85920
G1 X110.515 Y72.140 E2.86683
G1 X110.739 Y72.285 E2.87439
G1 X110.941 Y72.450 E2.88179
G1 X111.124 Y72.646 E2.88938
G1 X111.277 Y72.858 E2.89680
G1 X111.410 Y73.092 E2.90441
G1 X111.506 Y73.342 E2.91200
G1 X111.574 Y73.598 E2.91953
G1 X111.605 Y73.861 E2.92703
G1 X111.605 Y74.127 E2.93455
G1 X111.575 Y74.389 E2.94203
G1 X111.506 Y74.650 E2.94968
G1 X111.410 Y74.898 E2.95722
G1 X111.278 Y75.133 E2.96486
G1 X111.124 Y75.346 E2.97231
G1 X110.943 Y75.540 E2.97983
G1 X110.739 Y75.711 E2.98738
G1 X110.512 Y75.853 E2.99497
G1 X110.269 Y75.966 E3.00255
G1 X110.017 Y76.046 E3.01005
G1 X109.754 Y76.098 E3.01763
G1 X109.230 Y76.098 E3.03249
G1 X108.967 Y76.046 E3.04008
G1 X108.772 Y75.984 E3.04587
G1 X108.797 Y75.754 F7800.000
G1 X108.581 Y75.653 E3.05265 F1620.000
G1 X108.381 Y75.527 E3.05934
G1 X108.198 Y75.376 E3.06607
G1 X108.036 Y75.201 E3.07281
G1 X107.898 Y75.011 E3.07949
G1 X107.780 Y74.801 E3.08631
G1 X107.694 Y74.580 E3.09302
G1 X107.633 Y74.347 E3.09985
G1 X107.606 Y74.113 E3.10651
G1 X107.606 Y73.875 E3.11327
G1 X107.673 Y73.425 E3.12616
G1 X107.898 Y72.981 E3.14026
G1 X108.036 Y72.791 E3.14693
G1 X108.198 Y72.616 E3.15368
G1 X108.381 Y72.469 E3.16033
G1 X108.580 Y72.339 E3.16705
G1 X108.797 Y72.236 E3.17386
G1 X109.024 Y72.163 E3.18062
G1 X109.257 Y72.118 E3.18735
G1 X109.480 Y72.106 E3.19369
G1 X109.727 Y72.118 E3.20068 F1620.000
G1 X109.960 Y72.163 E3.20742
G1 X110.187 Y72.236 E3.21418
G1 X110.404 Y72.339 E3.22097
G1 X110.605 Y72.469 E3.22776
G1 X110.786 Y72.616 E3.23436
G1 X110.948 Y72.791 E3.24111
G1 X111.086 Y72.981 E3.24778
G1 X111.204 Y73.189 E3.25456
G1 X111.290 Y73.412 E3.26132
G1 X111.351 Y73.641 E3.26804
G1 X111.378 Y73.875 E3.27471
G1 X111.378 Y74.113 E3.28146
G1 X111.351 Y74.347 E3.28813
G1 X111.290 Y74.580 E3.29495
G1 X111.204 Y74.801 E3.30167
G1 X111.086 Y75.011 E3.30849
G1 X110.948 Y75.201 E3.31517
G1 X110.786 Y75.375 E3.32190
G1 X110.605 Y75.527 E3.32859
G1 X110.403 Y75.653 E3.33534
G1 X110.187 Y75.754 E3.34211
G1 X109.960 Y75.825 E3.34883
G1 X109.727 Y75.872 E3.35558
G1 X109.257 Y75.872 E3.36888
G1 X108.855 Y75.772 E3.38064
G1 F1800.000 E2.38064
G92 E0
G1 X109.493 Y71.860 F7800.000
G1 X138.377 Y74.131 F7800.000
G1 E1.00000 F1800.000
G1 X138.377 Y73.857 E1.00775 F1620.000
G1 X138.414 Y73.597 E1.01520
G1 X138.477 Y73.344 E1.02258
G1 X138.575 Y73.092 E1.03025
G1 X138.707 Y72.858 E1.03786
G1 X138.860 Y72.646 E1.04528
G1 X139.043 Y72.449 E1.05289
G1 X139.247 Y72.285 E1.06032
G1 X139.468 Y72.141 E1.06780
G1 X139.712 Y72.025 E1.07546
G1 X139.967 Y71.942 E1.08304
G1 X140.228 Y71.892 E1.09056
G1 X140.516 Y71.880 E1.09873
G1 X140.754 Y71.892 E1.10549 F1620.000
G1 X141.019 Y71.942 E1.11313
G1 X141.272 Y72.025 E1.12069
G1 X141.514 Y72.141 E1.12829
G1 X141.942 Y72.449 E1.14324
G1 X142.123 Y72.646 E1.15083
G1 X142.279 Y72.858 E1.15829
G1 X142.411 Y73.094 E1.16594
G1 X142.504 Y73.343 E1.17347
G1 X142.572 Y73.597 E1.18093
G1 X142.605 Y73.860 E1.18844
G1 X142.605 Y74.128 E1.19603
G1 X142.572 Y74.390 E1.20352
G1 X142.505 Y74.649 E1.21109
G1 X142.411 Y74.896 E1.21858
G1 X142.280 Y75.133 E1.22626
G1 X142.123 Y75.346 E1.23374
G1 X141.944 Y75.542 E1.24127
G1 X141.733 Y75.712 E1.24896
G1 X141.511 Y75.853 E1.25641
G1 X141.270 Y75.966 E1.26395
G1 X141.019 Y76.046 E1.27142
G1 X140.754 Y76.098 E1.27907
G1 X140.228 Y76.098 E1.29398
G1 X139.967 Y76.046 E1.30152
G1 X139.715 Y75.966 E1.30901
G1 X139.472 Y75.853 E1.31661
G1 X139.247 Y75.711 E1.32413
G1 X139.042 Y75.541 E1.33170
G1 X138.860 Y75.346 E1.33925
G1 X138.706 Y75.133 E1.34669
G1 X138.574 Y74.898 E1.35433
G1 X138.477 Y74.648 E1.36195
G1 X138.385 Y74.190 E1.37517
G1 X138.604 Y74.114 F7800.000
G1 X138.604 Y73.874 E1.38199 F1620.000
G1 X138.638 Y73.641 E1.38866
G1 X138.694 Y73.413 E1.39531
G1 X138.780 Y73.189 E1.40210
G1 X138.898 Y72.981 E1.40888
G1 X139.036 Y72.791 E1.41555
G1 X139.198 Y72.616 E1.42230
G1 X139.580 Y72.339 E1.43566
G1 X139.797 Y72.236 E1.44246
G1 X140.024 Y72.163 E1.44922
G1 X140.255 Y72.118 E1.45590
G1 X140.480 Y72.106 E1.46229
G1 X140.727 Y72.118 E1.46928 F1620.000
G1 X140.962 Y72.163 E1.47608
G1 X141.188 Y72.236 E1.48279
G1 X141.402 Y72.339 E1.48954
G1 X141.787 Y72.616 E1.50298
G1 X141.948 Y72.791 E1.50970
G1 X142.088 Y72.981 E1.51640
G1 X142.204 Y73.190 E1.52317
G1 X142.349 Y73.641 E1.53658
G1 X142.378 Y73.874 E1.54326
G1 X142.378 Y74.114 E1.55004
G1 X142.349 Y74.347 E1.55671
G1 X142.288 Y74.579 E1.56351
G1 X142.204 Y74.800 E1.57020
G1 X142.088 Y75.011 E1.57701
G1 X141.948 Y75.201 E1.58372
G1 X141.788 Y75.376 E1.59043
G1 X141.600 Y75.527 E1.59726
G1 X141.401 Y75.653 E1.60393
G1 X141.187 Y75.754 E1.61065
G1 X140.962 Y75.825 E1.61732
G1 X140.727 Y75.872 E1.62413
G1 X140.255 Y75.872 E1.63749
G1 X140.024 Y75.825 E1.64419
