; generated by Slic3r 1.1.7 on 2015-02-26 at 12:42:47

; perimeters extrusion width = 0.40mm
; infill extrusion width = 0.40mm
; solid infill extrusion width = 0.40mm
; top infill extrusion width = 0.40mm

G21 ; set units to millimeters
M107
M190 S60 ; wait for bed temperature to be reached
M104 S190 ; set temperature
G28 ; home all axes
G1 Z5 F5000 ; lift nozzle
M109 S190 ; wait for temperature to be reached
G90 ; use absolute coordinates
G92 E0
M82 ; use absolute distances for extrusion
G1 F1800.000 E-1.00000
G92 E0
G1 Z0.300 F7800.000
G1 X47.720 Y47.785 F7800.000
G1 E1.00000 F1800.000
G1 X49.576 Y46.490 E1.06415 F1080.000
G1 X52.284 Y45.895 E1.14271
G1 X139.716 Y45.895 E3.62046
G1 X141.944 Y46.291 E3.68461
G1 X144.280 Y47.785 E3.76317 F1080.000
G1 X149.280 Y52.785 E3.96356
G1 X150.575 Y54.641 E4.02771
G1 X151.170 Y57.349 E4.10627
G1 X151.170 Y125.601 E6.04047
G1 X150.774 Y127.829 E6.10462
G1 X150.063 Y129.216 E6.14878
G1 X149.926 Y129.419 E6.15572
G1 X148.305 Y131.074 E6.22136
G1 X137.206 Y138.921 E6.60657
G1 X135.157 Y139.884 E6.67072
G1 X133.480 Y140.105 E6.71867
G1 X58.520 Y140.105 E8.84297
G1 X56.292 Y139.709 E8.90712
G1 X54.794 Y138.921 E8.95507
G1 X43.695 Y131.074 E9.34029
G1 X42.074 Y129.419 E9.40593
G1 X41.937 Y129.216 E9.41287
G1 X41.018 Y127.148 E9.47701
G1 X40.830 Y125.601 E9.52117
G1 X40.830 Y57.349 E11.45538
G1 X41.226 Y55.121 E11.51952
G1 X42.720 Y52.785 E11.59809
G1 X47.678 Y47.827 E11.79677
G1 X47.881 Y47.946 F7800.000
G1 X49.708 Y46.680 E11.85977 F1080.000
G1 X52.284 Y46.122 E11.93447
G1 X139.716 Y46.122 E14.41222
G1 X141.903 Y46.519 E14.47522
G1 X144.119 Y47.946 E14.54991 F1080.000
G1 X149.119 Y52.946 E14.75030
G1 X150.385 Y54.773 E14.81330
G1 X150.943 Y57.349 E14.88799
G1 X150.943 Y125.601 E16.82220
G1 X150.546 Y127.788 E16.88520
G1 X149.875 Y129.089 E16.92668
G1 X149.738 Y129.292 E16.93362
G1 X148.174 Y130.889 E16.99696
G1 X137.075 Y138.736 E17.38216
G1 X135.060 Y139.674 E17.44516
G1 X133.480 Y139.878 E17.49031
G1 X58.520 Y139.878 E19.61461
G1 X56.333 Y139.481 E19.67761
G1 X54.925 Y138.736 E19.72275
G1 X43.826 Y130.888 E20.10797
G1 X42.262 Y129.292 E20.17130
G1 X42.125 Y129.089 E20.17824
G1 X41.229 Y127.055 E20.24124
G1 X41.057 Y125.601 E20.28272
G1 X41.057 Y57.349 E22.21693
G1 X41.454 Y55.162 E22.27992
G1 X42.881 Y52.946 E22.35462
G1 X47.838 Y47.988 E22.55331
G1 F1800.000 E21.55331
G92 E0
G1 X127.033 Y125.968 F7800.000
G1 E1.00000 F1800.000
G1 X127.033 Y121.166 E1.13608 F1620.000
G1 X135.533 Y121.166 E1.37697
G1 X135.541 Y108.512 E1.73558
G1 X136.074 Y108.300 E1.75184
G1 X136.556 Y108.037 E1.76741
G1 X137.000 Y107.716 E1.78294
G1 X137.400 Y107.338 E1.79852
G1 X137.748 Y106.918 E1.81397
G1 X138.045 Y106.453 E1.82962
G1 X138.277 Y105.958 E1.84509
G1 X138.370 Y105.698 E1.85292
G1 X138.506 Y105.169 E1.86842
G1 X138.575 Y104.623 E1.88401
G1 X138.575 Y104.075 E1.89954
G1 X138.549 Y103.803 E1.90728
G1 X138.506 Y103.531 E1.91508
G1 X138.370 Y103.002 E1.93057
G1 X138.277 Y102.742 E1.93839
G1 X138.044 Y102.247 E1.95389
G1 X137.748 Y101.782 E1.96952
G1 X137.400 Y101.360 E1.98502
G1 X137.205 Y101.166 E1.99281
G1 X136.782 Y100.816 E2.00838
G1 X136.321 Y100.523 E2.02384
G1 X136.074 Y100.397 E2.03169
G1 X135.567 Y100.195 E2.04718
G1 X135.034 Y100.059 E2.06277
G1 X134.764 Y100.016 E2.07051
G1 X134.230 Y99.982 E2.08567
G1 X133.942 Y99.990 E2.09384
G1 X133.396 Y100.059 E2.10943
G1 X132.865 Y100.195 E2.12496
G1 X132.358 Y100.397 E2.14045
G1 X132.111 Y100.523 E2.14830
G1 X131.650 Y100.816 E2.16377
G1 X131.432 Y100.984 E2.17158
G1 X131.032 Y101.360 E2.18712
G1 X130.851 Y101.567 E2.19491
G1 X130.528 Y102.008 E2.21041
G1 X130.388 Y102.246 E2.21822
G1 X130.263 Y102.490 E2.22601
G1 X130.062 Y103.002 E2.24158
G1 X129.926 Y103.531 E2.25707
G1 X129.857 Y104.075 E2.27260
G1 X129.857 Y104.623 E2.28813
G1 X129.883 Y104.897 E2.29593
G1 X129.926 Y105.169 E2.30374
G1 X130.062 Y105.698 E2.31923
G1 X130.263 Y106.208 E2.33475
G1 X130.528 Y106.692 E2.35039
G1 X130.852 Y107.134 E2.36591
G1 X131.226 Y107.534 E2.38143
G1 X131.432 Y107.716 E2.38922
G1 X131.876 Y108.037 E2.40475
G1 X132.358 Y108.300 E2.42031
G1 X132.899 Y108.515 E2.43681
G1 X132.899 Y118.532 E2.72068
G1 X127.033 Y118.532 E2.88691
G1 X127.033 Y101.480 E3.37013
G1 X131.847 Y96.666 E3.56307
G1 X139.585 Y96.666 E3.78234
G1 X144.399 Y101.480 E3.97528
G1 X144.399 Y125.504 E4.65608
G1 X144.349 Y125.578 E4.65862
G1 X133.379 Y133.334 E5.03934
G1 X99.460 Y133.334 E6.00059
G1 X98.778 Y132.651 E6.02792
G1 X105.461 Y125.968 E6.29576
G1 X126.973 Y125.968 E6.90539
G1 X126.806 Y125.741 F7800.000
G1 X126.806 Y120.939 E7.04147 F1620.000
G1 X135.306 Y120.939 E7.28236
G1 X135.314 Y108.340 E7.63939
G1 X135.739 Y108.199 E7.65210
G1 X135.978 Y108.095 E7.65949
G1 X136.434 Y107.845 E7.67422
G1 X136.855 Y107.540 E7.68895
G1 X137.234 Y107.183 E7.70371
G1 X137.565 Y106.784 E7.71838
G1 X137.845 Y106.344 E7.73317
G1 X138.066 Y105.874 E7.74788
G1 X138.154 Y105.629 E7.75528
G1 X138.282 Y105.126 E7.76998
G1 X138.348 Y104.609 E7.78476
G1 X138.348 Y104.089 E7.79947
G1 X138.323 Y103.832 E7.80681
G1 X138.282 Y103.574 E7.81420
G1 X138.154 Y103.071 E7.82891
G1 X138.066 Y102.826 E7.83630
G1 X137.845 Y102.356 E7.85101
G1 X137.565 Y101.916 E7.86580
G1 X137.234 Y101.515 E7.88052
G1 X137.050 Y101.331 E7.88790
G1 X136.649 Y101.000 E7.90264
G1 X136.211 Y100.722 E7.91732
G1 X135.978 Y100.603 E7.92474
G1 X135.496 Y100.411 E7.93944
G1 X134.991 Y100.283 E7.95422
G1 X134.735 Y100.242 E7.96155
G1 X134.209 Y100.209 E7.97650
G1 X133.697 Y100.242 E7.99104
G1 X133.439 Y100.283 E7.99844
G1 X132.936 Y100.411 E8.01315
G1 X132.454 Y100.603 E8.02786
G1 X132.220 Y100.722 E8.03528
G1 X131.783 Y101.000 E8.04996
G1 X131.577 Y101.160 E8.05736
G1 X131.198 Y101.515 E8.07208
G1 X131.027 Y101.712 E8.07947
G1 X130.720 Y102.131 E8.09418
G1 X130.587 Y102.356 E8.10158
G1 X130.468 Y102.587 E8.10895
G1 X130.278 Y103.071 E8.12370
G1 X130.150 Y103.574 E8.13841
G1 X130.084 Y104.089 E8.15313
G1 X130.084 Y104.609 E8.16784
G1 X130.109 Y104.868 E8.17524
G1 X130.150 Y105.126 E8.18263
G1 X130.278 Y105.629 E8.19733
G1 X130.468 Y106.111 E8.21203
G1 X130.720 Y106.569 E8.22685
G1 X131.027 Y106.989 E8.24156
G1 X131.382 Y107.368 E8.25631
G1 X131.577 Y107.540 E8.26366
G1 X131.998 Y107.845 E8.27839
G1 X132.454 Y108.095 E8.29313
G1 X132.693 Y108.199 E8.30051
G1 X133.126 Y108.342 E8.31345
G1 X133.126 Y118.759 E8.60864
G1 X126.806 Y118.759 E8.78775
G1 X126.806 Y101.386 E9.28008
G1 X131.753 Y96.439 E9.47835
G1 X139.679 Y96.439 E9.70295
G1 X144.626 Y101.386 E9.90123
G1 X144.626 Y125.573 E10.58667
G1 X144.514 Y125.740 E10.59236
G1 X133.451 Y133.561 E10.97630
G1 X99.365 Y133.561 E11.94227
G1 X98.457 Y132.651 E11.97870
G1 X105.367 Y125.741 E12.25564
G1 X126.746 Y125.741 E12.86149
G1 X127.206 Y125.741 F7800.000
G1 F1800.000 E11.86149
G92 E0
G1 X127.178 Y118.308 F7800.000
G1 E1.00000 F1800.000
G1 X127.257 Y118.387 E1.00317 F1980.000
G1 X127.579 Y118.387 E1.01229
G1 X127.178 Y117.986 E1.02837
G1 X127.178 Y117.664 E1.03750
G1 X127.901 Y118.387 E1.06648
G1 X128.223 Y118.387 E1.07560
G1 X127.178 Y117.342 E1.11749
G1 X127.178 Y117.020 E1.12662
G1 X128.545 Y118.387 E1.18141
G1 X128.867 Y118.387 E1.19054
G1 X127.178 Y116.698 E1.25824
G1 X127.178 Y116.376 E1.26737
G1 X129.189 Y118.387 E1.34798
G1 X129.511 Y118.387 E1.35711
G1 X127.178 Y116.054 E1.45063
G1 X127.178 Y115.732 E1.45975
G1 X129.833 Y118.387 E1.56618
G1 X130.155 Y118.387 E1.57530
G1 X127.178 Y115.410 E1.69464
G1 X127.178 Y115.088 E1.70376
G1 X130.477 Y118.387 E1.83600
G1 X130.800 Y118.387 E1.84513
G1 X127.178 Y114.765 E1.99027
G1 X127.178 Y114.443 E1.99940
G1 X131.122 Y118.387 E2.15745
G1 X131.444 Y118.387 E2.16658
G1 X127.178 Y114.121 E2.33754
G1 X127.178 Y113.799 E2.34667
G1 X131.766 Y118.387 E2.53053
G1 X132.088 Y118.387 E2.53966
G1 X127.178 Y113.477 E2.73644
G1 X127.178 Y113.155 E2.74556
G1 X132.410 Y118.387 E2.95524
G1 X132.732 Y118.387 E2.96437
G1 X127.178 Y112.833 E3.18696
G1 X127.178 Y112.511 E3.19609
G1 X132.754 Y118.087 E3.41957
G1 X132.754 Y117.765 E3.42869
G1 X127.178 Y112.189 E3.65217
G1 X127.178 Y111.867 E3.66130
G1 X132.754 Y117.443 E3.88478
G1 X132.754 Y117.121 E3.89390
G1 X127.178 Y111.545 E4.11738
G1 X127.178 Y111.223 E4.12651
G1 X132.754 Y116.799 E4.34999
G1 X132.754 Y116.477 E4.35912
G1 X127.178 Y110.901 E4.58260
G1 X127.178 Y110.579 E4.59172
G1 X132.754 Y116.155 E4.81520
G1 X132.754 Y115.833 E4.82433
G1 X127.178 Y110.257 E5.04781
G1 X127.178 Y109.935 E5.05694
G1 X132.754 Y115.511 E5.28041
G1 X132.754 Y115.189 E5.28954
G1 X127.178 Y109.613 E5.51302
G1 X127.178 Y109.291 E5.52215
G1 X132.754 Y114.867 E5.74563
G1 X132.754 Y114.545 E5.75475
G1 X127.178 Y108.968 E5.97823
G1 X127.178 Y108.646 E5.98736
G1 X132.754 Y114.223 E6.21084
G1 X132.754 Y113.901 E6.21997
G1 X127.178 Y108.324 E6.44344
G1 X127.178 Y108.002 E6.45257
G1 X132.754 Y113.578 E6.67605
G1 X132.754 Y113.256 E6.68518
G1 X127.178 Y107.680 E6.90866
G1 X127.178 Y107.358 E6.91778
G1 X132.754 Y112.934 E7.14126
G1 X132.754 Y112.612 E7.15039
G1 X127.178 Y107.036 E7.37387
G1 X127.178 Y106.714 E7.38300
G1 X132.754 Y112.290 E7.60648
G1 X132.754 Y111.968 E7.61560
G1 X127.178 Y106.392 E7.83908
G1 X127.178 Y106.070 E7.84821
G1 X132.754 Y111.646 E8.07169
G1 X132.754 Y111.324 E8.08081
G1 X127.178 Y105.748 E8.30429
G1 X127.178 Y105.426 E8.31342
G1 X132.754 Y111.002 E8.53690
G1 X132.754 Y110.680 E8.54603
G1 X127.178 Y105.104 E8.76951
G1 X127.178 Y104.782 E8.77863
G1 X132.754 Y110.358 E9.00211
G1 X132.754 Y110.036 E9.01124
G1 X127.178 Y104.460 E9.23472
G1 X127.178 Y104.138 E9.24384
G1 X132.754 Y109.714 E9.46732
G1 X132.754 Y109.392 E9.47645
G1 X127.178 Y103.816 E9.69993
G1 X127.178 Y103.494 E9.70906
G1 X130.348 Y106.664 E9.83610
G1 X130.038 Y106.031 F7800.000
G1 X127.178 Y103.172 E9.95071 F1980.000
G1 X127.178 Y102.849 E9.95983
G1 X129.873 Y105.545 E10.06786
G1 X129.775 Y105.124 E10.08009
G1 X127.178 Y102.527 E10.18417
G1 X127.178 Y102.205 E10.19330
G1 X129.728 Y104.756 E10.29551
G1 X129.713 Y104.418 E10.30509
G1 X127.178 Y101.883 E10.40667
G1 X127.182 Y101.565 E10.41569
G1 X129.713 Y104.096 E10.51713
G1 X129.745 Y103.807 E10.52538
G1 X127.343 Y101.404 E10.62167
G1 X127.504 Y101.243 E10.62813
G1 X129.781 Y103.521 E10.71941
G1 X129.846 Y103.263 E10.72693
G1 X127.665 Y101.082 E10.81436
G1 X127.826 Y100.921 E10.82081
G1 X129.911 Y103.007 E10.90440
G1 X129.997 Y102.770 E10.91152
G1 X127.987 Y100.760 E10.99210
G1 X128.148 Y100.599 E10.99856
G1 X130.088 Y102.539 E11.07632
G1 X130.191 Y102.320 E11.08318
G1 X128.309 Y100.438 E11.15862
G1 X128.470 Y100.277 E11.16507
G1 X130.306 Y102.113 E11.23865
G1 X130.422 Y101.907 E11.24534
G1 X128.631 Y100.116 E11.31714
G1 X128.792 Y99.955 E11.32359
G1 X130.553 Y101.716 E11.39419
G1 X130.697 Y101.538 E11.40068
G1 X128.953 Y99.794 E11.47059
G1 X129.114 Y99.633 E11.47705
G1 X130.843 Y101.362 E11.54635
G1 X130.997 Y101.194 E11.55281
G1 X129.275 Y99.472 E11.62185
G1 X129.436 Y99.311 E11.62830
G1 X131.163 Y101.038 E11.69753
G1 X131.329 Y100.882 E11.70399
G1 X129.597 Y99.150 E11.77342
G1 X129.758 Y98.989 E11.77988
G1 X131.515 Y100.746 E11.85029
G1 X131.702 Y100.610 E11.85683
G1 X129.919 Y98.827 E11.92828
G1 X130.080 Y98.666 E11.93474
G1 X131.899 Y100.485 E12.00763
G1 X132.106 Y100.371 E12.01435
G1 X130.241 Y98.505 E12.08910
G1 X130.402 Y98.344 E12.09556
G1 X132.316 Y100.258 E12.17226
G1 X132.546 Y100.167 E12.17929
G1 X130.563 Y98.183 E12.25877
G1 X130.724 Y98.022 E12.26522
G1 X132.777 Y100.075 E12.34748
G1 X133.028 Y100.004 E12.35488
G1 X130.885 Y97.861 E12.44076
G1 X131.046 Y97.700 E12.44722
G1 X133.284 Y99.939 E12.53692
G1 X133.555 Y99.888 E12.54474
G1 X131.207 Y97.539 E12.63885
G1 X131.368 Y97.378 E12.64530
G1 X133.850 Y99.860 E12.74475
G1 X134.153 Y99.841 E12.75335
G1 X131.529 Y97.217 E12.85849
G1 X131.690 Y97.056 E12.86495
G1 X134.488 Y99.854 E12.97707
G1 X134.838 Y99.881 E12.98701
G1 X131.851 Y96.895 E13.10669
G1 X132.089 Y96.811 E13.11384
G1 X135.241 Y99.963 E13.24016
G1 X135.688 Y100.088 E13.25332
G1 X132.411 Y96.811 E13.38465
G1 X132.733 Y96.811 E13.39378
G1 X136.253 Y100.331 E13.53485
G1 X138.236 Y102.313 F7800.000
G1 X144.254 Y108.332 E13.77606 F1980.000
G1 X144.254 Y108.010 E13.78518
G1 X133.055 Y96.811 E14.23400
G1 X133.377 Y96.811 E14.24313
G1 X144.254 Y107.688 E14.67904
G1 X144.254 Y107.366 E14.68817
G1 X133.699 Y96.811 E15.11118
G1 X134.021 Y96.811 E15.12030
G1 X144.254 Y107.044 E15.53040
G1 X144.254 Y106.721 E15.53953
G1 X134.344 Y96.811 E15.93672
G1 X134.666 Y96.811 E15.94585
G1 X144.254 Y106.399 E16.33013
G1 X144.254 Y106.077 E16.33926
G1 X134.988 Y96.811 E16.71063
G1 X135.310 Y96.811 E16.71976
G1 X144.254 Y105.755 E17.07823
G1 X144.254 Y105.433 E17.08736
G1 X135.632 Y96.811 E17.43292
G1 X135.954 Y96.811 E17.44205
G1 X144.254 Y105.111 E17.77470
G1 X144.254 Y104.789 E17.78383
G1 X136.276 Y96.811 E18.10358
G1 X136.598 Y96.811 E18.11271
G1 X144.254 Y104.467 E18.41955
G1 X144.254 Y104.145 E18.42867
G1 X136.920 Y96.811 E18.72261
G1 X137.242 Y96.811 E18.73174
G1 X144.254 Y103.823 E19.01276
G1 X144.254 Y103.501 E19.02189
G1 X137.564 Y96.811 E19.29001
G1 X137.886 Y96.811 E19.29914
G1 X144.254 Y103.179 E19.55435
G1 X144.254 Y102.857 E19.56348
G1 X138.208 Y96.811 E19.80578
G1 X138.530 Y96.811 E19.81491
G1 X144.254 Y102.535 E20.04431
G1 X144.254 Y102.213 E20.05343
G1 X138.852 Y96.811 E20.26993
G1 X139.174 Y96.811 E20.27905
G1 X144.254 Y101.891 E20.48264
G1 X144.254 Y101.569 E20.49176
G1 X139.496 Y96.811 E20.68244
G1 X138.470 Y102.870 F7800.000
G1 X144.254 Y108.654 E20.91424 F1980.000
G1 X144.254 Y108.976 E20.92337
G1 X138.605 Y103.326 E21.14978
G1 X138.681 Y103.725 E21.16128
G1 X144.254 Y109.298 E21.38463
G1 X144.254 Y109.620 E21.39375
G1 X138.719 Y104.085 E21.61557
G1 X138.719 Y104.407 E21.62470
G1 X144.254 Y109.942 E21.84651
G1 X144.254 Y110.264 E21.85564
G1 X138.709 Y104.718 E22.07789
G1 X138.672 Y105.004 E22.08606
G1 X144.254 Y110.586 E22.30976
G1 X144.254 Y110.908 E22.31889
G1 X138.628 Y105.282 E22.54435
G1 X138.564 Y105.540 E22.55188
G1 X144.254 Y111.230 E22.77993
G1 X144.254 Y111.552 E22.78905
G1 X138.485 Y105.784 E23.02025
G1 X138.405 Y106.026 E23.02748
G1 X144.254 Y111.874 E23.26188
G1 X144.254 Y112.196 E23.27101
G1 X138.307 Y106.249 E23.50935
G1 X138.201 Y106.465 E23.51616
G1 X144.254 Y112.518 E23.75878
G1 X144.254 Y112.840 E23.76790
G1 X138.080 Y106.667 E24.01534
G1 X137.955 Y106.863 E24.02195
G1 X144.254 Y113.163 E24.27441
G1 X144.254 Y113.485 E24.28354
G1 X137.824 Y107.054 E24.54126
G1 X137.677 Y107.230 E24.54774
G1 X144.254 Y113.807 E24.81132
G1 X144.254 Y114.129 E24.82044
G1 X137.531 Y107.406 E25.08988
G1 X137.369 Y107.566 E25.09633
G1 X144.254 Y114.451 E25.37226
G1 X144.254 Y114.773 E25.38139
G1 X137.204 Y107.722 E25.66395
G1 X137.033 Y107.873 E25.67042
G1 X144.254 Y115.095 E25.95984
G1 X144.254 Y115.417 E25.96896
G1 X136.850 Y108.013 E26.26571
G1 X136.653 Y108.138 E26.27232
G1 X144.254 Y115.739 E26.57697
G1 X144.254 Y116.061 E26.58609
G1 X136.456 Y108.263 E26.89863
G1 X136.244 Y108.373 E26.90539
G1 X144.254 Y116.383 E27.22642
G1 X144.254 Y116.705 E27.23555
G1 X136.025 Y108.476 E27.56537
G1 X135.799 Y108.572 E27.57232
G1 X144.254 Y117.027 E27.91116
G1 X144.254 Y117.349 E27.92029
G1 X135.685 Y108.781 E28.26370
G1 X135.685 Y109.102 E28.27283
G1 X144.254 Y117.671 E28.61625
G1 X144.254 Y117.993 E28.62537
G1 X135.685 Y109.424 E28.96880
G1 X135.685 Y109.746 E28.97792
G1 X144.254 Y118.315 E29.32136
G1 X144.254 Y118.637 E29.33049
G1 X135.685 Y110.068 E29.67393
G1 X135.684 Y110.390 E29.68305
G1 X144.254 Y118.959 E30.02651
G1 X144.254 Y119.282 E30.03563
G1 X135.684 Y110.712 E30.37909
G1 X135.684 Y111.034 E30.38822
G1 X144.254 Y119.604 E30.73168
G1 X144.254 Y119.926 E30.74081
G1 X135.684 Y111.355 E31.08429
G1 X135.684 Y111.677 E31.09341
G1 X144.254 Y120.248 E31.43689
G1 X144.254 Y120.570 E31.44602
G1 X135.683 Y111.999 E31.78951
G1 X135.683 Y112.321 E31.79863
G1 X144.254 Y120.892 E32.14213
G1 X144.254 Y121.214 E32.15126
G1 X135.683 Y112.643 E32.49476
G1 X135.683 Y112.965 E32.50388
G1 X144.254 Y121.536 E32.84740
G1 X144.254 Y121.858 E32.85653
G1 X135.683 Y113.287 E33.20005
G1 X135.682 Y113.608 E33.20917
G1 X144.254 Y122.180 E33.55270
G1 X144.254 Y122.502 E33.56183
G1 X135.682 Y113.930 E33.90536
