; generated by Slic3r 1.1.7 on 2015-02-26 at 12:41:31

; perimeters extrusion width = 0.40mm
; infill extrusion width = 0.40mm
; solid infill extrusion width = 0.40mm
; top infill extrusion width = 0.40mm

G21 ; set units to millimeters
M107
M190 S60 ; wait for bed temperature to be reached
M104 S190 ; set temperature
G28 ; home all axes
G1 Z5 F5000 ; lift nozzle
M109 S190 ; wait for temperature to be reached
G90 ; use absolute coordinates
G92 E0
M82 ; use absolute distances for extrusion
G1 F1800.000 E-1.00000
G92 E0
G1 Z0.300 F7800.000
G1 X40.918 Y40.935 F7800.000
G1 E1.00000 F1800.000
G1 X43.419 Y38.435 E1.10020 F1080.000
G1 X45.276 Y37.140 E1.16434
G1 X47.982 Y36.546 E1.24287
G1 X146.016 Y36.546 E4.02107
G1 X148.244 Y36.942 E4.08522
G1 X150.578 Y38.434 E4.16371 F1080.000
G1 X155.580 Y43.432 E4.36410
G1 X156.876 Y45.288 E4.42825
G1 X157.472 Y47.998 E4.50688
G1 X157.472 Y146.000 E7.28418
G1 X157.076 Y148.228 E7.34833
G1 X155.580 Y150.565 E7.42695
G1 X152.578 Y153.565 E7.54722
G1 X150.722 Y154.860 E7.61137
G1 X148.016 Y155.454 E7.68987
G1 X45.982 Y155.454 E10.58143
G1 X43.754 Y155.058 E10.64558
G1 X41.418 Y153.564 E10.72414
G1 X38.418 Y150.564 E10.84437
G1 X37.123 Y148.708 E10.90852
G1 X36.528 Y146.000 E10.98708
G1 X36.528 Y47.998 E13.76438
G1 X36.924 Y45.770 E13.82853
G1 X38.419 Y43.433 E13.90713
G1 X40.876 Y40.977 E14.00558
G1 X41.079 Y41.095 F7800.000
G1 X43.580 Y38.596 E14.10577 F1080.000
G1 X45.407 Y37.330 E14.16877
G1 X47.982 Y36.773 E14.24343
G1 X146.016 Y36.773 E17.02164
G1 X148.203 Y37.170 E17.08463
G1 X150.418 Y38.595 E17.15926 F1080.000
G1 X155.420 Y43.593 E17.35965
G1 X156.686 Y45.420 E17.42265
G1 X157.245 Y47.998 E17.49741
G1 X157.245 Y146.000 E20.27471
G1 X156.848 Y148.187 E20.33771
G1 X155.420 Y150.405 E20.41246
G1 X152.418 Y153.405 E20.53273
G1 X150.590 Y154.670 E20.59573
G1 X148.016 Y155.227 E20.67037
G1 X45.982 Y155.227 E23.56193
G1 X43.795 Y154.830 E23.62493
G1 X41.579 Y153.403 E23.69963
G1 X38.579 Y150.403 E23.81986
G1 X37.313 Y148.576 E23.88286
G1 X36.755 Y146.000 E23.95755
G1 X36.755 Y47.998 E26.73485
G1 X37.152 Y45.811 E26.79785
G1 X38.580 Y43.594 E26.87258
G1 X41.037 Y41.138 E26.97103
G1 F1800.000 E25.97103
G92 E0
G1 X108.654 Y133.265 F7800.000
G1 E1.00000 F1800.000
G1 X109.076 Y133.126 E1.01259 F1620.000
G1 X109.559 Y133.086 E1.02634
G1 X109.956 Y133.126 E1.03766 F1620.000
G1 X110.378 Y133.265 E1.05024
G1 X110.761 Y133.486 E1.06277
G1 X111.091 Y133.783 E1.07535
G1 X111.350 Y134.141 E1.08787
G1 X111.531 Y134.545 E1.10043
G1 X111.623 Y134.979 E1.11299
G1 X111.623 Y135.421 E1.12553
G1 X111.531 Y135.855 E1.13809
G1 X111.350 Y136.259 E1.15066
G1 X111.091 Y136.617 E1.16317
G1 X110.761 Y136.914 E1.17575
G1 X110.378 Y137.135 E1.18830
G1 X109.956 Y137.272 E1.20085
G1 X109.516 Y137.319 E1.21340
G1 X109.076 Y137.272 E1.22595
G1 X108.654 Y137.135 E1.23850
G1 X108.271 Y136.914 E1.25106
G1 X107.941 Y136.618 E1.26361
G1 X107.680 Y136.259 E1.27618
G1 X107.501 Y135.854 E1.28875
G1 X107.409 Y135.421 E1.30128
G1 X107.409 Y134.979 E1.31382
G1 X107.501 Y134.546 E1.32636
G1 X107.680 Y134.141 E1.33892
G1 X107.941 Y133.782 E1.35149
G1 X108.271 Y133.486 E1.36405
G1 X108.602 Y133.295 E1.37488
G1 X108.747 Y133.473 F7800.000
G1 X109.123 Y133.349 E1.38611 F1620.000
G1 X109.496 Y133.312 E1.39672
G1 X109.909 Y133.349 E1.40848 F1620.000
G1 X110.285 Y133.473 E1.41970
G1 X110.627 Y133.671 E1.43089
G1 X110.921 Y133.935 E1.44211
G1 X111.152 Y134.255 E1.45327
G1 X111.314 Y134.616 E1.46449
G1 X111.396 Y135.003 E1.47569
G1 X111.396 Y135.397 E1.48688
G1 X111.314 Y135.784 E1.49808
G1 X111.152 Y136.145 E1.50930
G1 X110.921 Y136.465 E1.52046
G1 X110.627 Y136.729 E1.53168
G1 X110.285 Y136.927 E1.54288
G1 X109.909 Y137.049 E1.55408
G1 X109.516 Y137.091 E1.56527
G1 X109.123 Y137.049 E1.57647
G1 X108.747 Y136.927 E1.58767
G1 X108.405 Y136.729 E1.59887
G1 X108.111 Y136.465 E1.61008
G1 X107.878 Y136.145 E1.62129
G1 X107.718 Y135.784 E1.63249
G1 X107.636 Y135.397 E1.64368
G1 X107.636 Y135.003 E1.65487
G1 X107.718 Y134.616 E1.66606
G1 X107.878 Y134.255 E1.67726
G1 X108.111 Y133.935 E1.68847
G1 X108.405 Y133.671 E1.69968
G1 X108.695 Y133.503 E1.70917
G1 X109.680 Y132.957 F7800.000
G1 F1800.000 E0.70917
G92 E0
G1 X139.126 Y105.830 F7800.000
G1 E1.00000 F1800.000
G1 X139.126 Y105.784 E1.00133 F1620.000
G1 X138.941 Y105.617 E1.00838
G1 X138.682 Y105.259 E1.02090
G1 X138.501 Y104.853 E1.03351
G1 X138.409 Y104.421 E1.04601
G1 X138.409 Y103.979 E1.05855
G1 X138.501 Y103.543 E1.07117
G1 X138.682 Y103.140 E1.08369
G1 X138.941 Y102.783 E1.09620
G1 X139.270 Y102.486 E1.10875
G1 X139.654 Y102.263 E1.12134
G1 X140.076 Y102.126 E1.13393
G1 X140.559 Y102.086 E1.14766
G1 X140.956 Y102.126 E1.15895 F1620.000
G1 X141.378 Y102.263 E1.17154
G1 X141.762 Y102.486 E1.18412
G1 X142.091 Y102.783 E1.19668
G1 X142.350 Y103.140 E1.20918
G1 X142.531 Y103.543 E1.22170
G1 X142.623 Y103.979 E1.23433
G1 X142.623 Y104.421 E1.24687
G1 X142.531 Y104.853 E1.25936
G1 X142.350 Y105.259 E1.27197
G1 X142.091 Y105.617 E1.28450
G1 X141.761 Y105.914 E1.29708
G1 X141.378 Y106.135 E1.30963
G1 X140.956 Y106.272 E1.32218
G1 X140.516 Y106.319 E1.33473
G1 X140.076 Y106.272 E1.34728
G1 X139.654 Y106.135 E1.35983
G1 X139.178 Y105.860 E1.37543
G1 X139.301 Y105.636 F7800.000
G1 X139.111 Y105.465 E1.38268 F1620.000
G1 X138.880 Y105.145 E1.39385
G1 X138.718 Y104.782 E1.40512
G1 X138.636 Y104.397 E1.41626
G1 X138.636 Y104.003 E1.42745
G1 X138.718 Y103.614 E1.43870
G1 X138.880 Y103.255 E1.44987
G1 X139.111 Y102.935 E1.46103
G1 X139.405 Y102.671 E1.47224
G1 X139.747 Y102.471 E1.48347
G1 X140.123 Y102.349 E1.49469
G1 X140.496 Y102.312 E1.50529
G1 X140.909 Y102.349 E1.51704 F1620.000
G1 X141.285 Y102.471 E1.52825
G1 X141.627 Y102.671 E1.53948
G1 X141.921 Y102.935 E1.55069
G1 X142.152 Y103.255 E1.56186
G1 X142.314 Y103.614 E1.57302
G1 X142.396 Y104.003 E1.58428
G1 X142.396 Y104.397 E1.59547
G1 X142.314 Y104.782 E1.60661
G1 X142.152 Y105.145 E1.61788
G1 X141.921 Y105.465 E1.62905
G1 X141.627 Y105.729 E1.64026
G1 X141.285 Y105.927 E1.65146
G1 X140.909 Y106.049 E1.66266
G1 X140.516 Y106.091 E1.67386
G1 X140.123 Y106.049 E1.68505
G1 X139.747 Y105.927 E1.69625
G1 X139.353 Y105.699 E1.70916
G1 X139.345 Y105.676 E1.70985
G1 F1800.000 E0.70985
G92 E0
G1 X140.563 Y101.917 F7800.000
G1 X141.369 Y115.371 F7800.000
G1 E1.00000 F1800.000
G1 X141.816 Y115.276 E1.01294 F1620.000
G1 X141.932 Y115.300 E1.01629
G1 X143.616 Y115.658 E1.06508 F1620.000
G1 X145.103 Y116.739 E1.11718
G1 X146.024 Y118.332 E1.16933
G1 X146.216 Y120.162 E1.22148
G1 X145.649 Y121.912 E1.27363
G1 X144.417 Y123.278 E1.32577
G1 X142.735 Y124.027 E1.37792
G1 X140.897 Y124.027 E1.43003
G1 X139.215 Y123.278 E1.48219
G1 X137.985 Y121.912 E1.53429
G1 X137.415 Y120.162 E1.58646
G1 X137.610 Y118.331 E1.63864
G1 X138.529 Y116.739 E1.69073
G1 X140.018 Y115.658 E1.74288
G1 X141.311 Y115.383 E1.78033
G1 X141.417 Y115.593 F7800.000
G1 X141.747 Y115.523 E1.78990 F1620.000
G1 X141.816 Y115.508 E1.79189 F1620.000
G1 X143.521 Y115.870 E1.84130
G1 X144.930 Y116.894 E1.89067
G1 X145.804 Y118.404 E1.94008
G1 X145.985 Y120.138 E1.98949
G1 X145.448 Y121.796 E2.03890
G1 X144.280 Y123.090 E2.08830
G1 X142.687 Y123.800 E2.13772
G1 X140.945 Y123.800 E2.18709
G1 X139.352 Y123.090 E2.23651
G1 X138.186 Y121.796 E2.28587
G1 X137.646 Y120.138 E2.33530
G1 X137.831 Y118.403 E2.38473
G1 X138.702 Y116.894 E2.43410
G1 X140.113 Y115.870 E2.48351
G1 X141.358 Y115.605 E2.51959
G1 X141.769 Y115.456 F7800.000
G1 F1800.000 E1.51959
G92 E0
G1 X140.516 Y133.081 F7800.000
G1 E1.00000 F1800.000
G1 X140.559 Y133.086 E1.00123 F1620.000
G1 X140.956 Y133.126 E1.01255 F1620.000
G1 X141.378 Y133.265 E1.02513
G1 X141.761 Y133.486 E1.03767
G1 X142.091 Y133.783 E1.05024
G1 X142.350 Y134.141 E1.06276
G1 X142.531 Y134.545 E1.07532
G1 X142.623 Y134.979 E1.08788
G1 X142.623 Y135.421 E1.10042
G1 X142.531 Y135.855 E1.11298
G1 X142.350 Y136.259 E1.12555
G1 X142.091 Y136.617 E1.13806
G1 X141.761 Y136.914 E1.15064
G1 X141.378 Y137.135 E1.16320
G1 X140.956 Y137.272 E1.17574
G1 X140.516 Y137.319 E1.18829
G1 X140.076 Y137.272 E1.20085
G1 X139.654 Y137.135 E1.21339
G1 X139.271 Y136.914 E1.22595
G1 X138.941 Y136.617 E1.23852
G1 X138.682 Y136.259 E1.25104
G1 X138.501 Y135.855 E1.26360
G1 X138.409 Y135.421 E1.27616
G1 X138.409 Y134.979 E1.28870
G1 X138.501 Y134.545 E1.30126
G1 X138.682 Y134.141 E1.31383
G1 X138.941 Y133.783 E1.32634
G1 X139.271 Y133.486 E1.33892
G1 X139.654 Y133.265 E1.35145
G1 X140.076 Y133.126 E1.36404
G1 X140.456 Y133.087 E1.37489
G1 X140.516 Y133.310 F7800.000
G1 X140.909 Y133.349 E1.38608 F1620.000
G1 X141.285 Y133.473 E1.39730
G1 X141.627 Y133.671 E1.40849
G1 X141.921 Y133.935 E1.41971
G1 X142.152 Y134.255 E1.43088
G1 X142.314 Y134.616 E1.44209
G1 X142.396 Y135.003 E1.45329
G1 X142.396 Y135.397 E1.46448
G1 X142.314 Y135.784 E1.47568
G1 X142.152 Y136.145 E1.48690
G1 X141.921 Y136.465 E1.49806
G1 X141.627 Y136.729 E1.50928
G1 X141.285 Y136.927 E1.52048
G1 X140.909 Y137.049 E1.53168
G1 X140.516 Y137.091 E1.54288
G1 X140.123 Y137.049 E1.55407
G1 X139.747 Y136.927 E1.56527
G1 X139.405 Y136.729 E1.57647
G1 X139.111 Y136.465 E1.58769
G1 X138.880 Y136.145 E1.59885
G1 X138.718 Y135.784 E1.61007
G1 X138.636 Y135.397 E1.62127
G1 X138.636 Y135.003 E1.63246
G1 X138.718 Y134.616 E1.64366
G1 X138.880 Y134.255 E1.65487
G1 X139.111 Y133.935 E1.66604
G1 X139.405 Y133.671 E1.67726
G1 X139.747 Y133.473 E1.68845
G1 X140.123 Y133.349 E1.69968
G1 X140.456 Y133.316 E1.70916
G1 X140.725 Y132.974 F7800.000
G1 X136.333 Y131.317 F7800.000
G1 X136.333 Y102.131 E2.53627 F1620.000
G1 X139.147 Y99.317 E2.64905
G1 X145.885 Y99.317 E2.83998
G1 X150.701 Y104.129 E3.03292
G1 X150.701 Y145.869 E4.21577
G1 X147.885 Y148.683 E4.32860
G1 X107.147 Y148.683 E5.48306
G1 X101.333 Y142.869 E5.71608
G1 X101.333 Y137.131 E5.87867
G1 X107.147 Y131.317 E6.11169
G1 X136.273 Y131.317 E6.93709
G1 X136.106 Y131.090 F7800.000
G1 X136.106 Y102.037 E7.76042 F1620.000
G1 X139.053 Y99.090 E7.87854
G1 X145.979 Y99.090 E8.07480
G1 X150.928 Y104.035 E8.27308
G1 X150.928 Y145.963 E9.46127
G1 X147.979 Y148.910 E9.57943
G1 X107.053 Y148.910 E10.73922
G1 X101.106 Y142.963 E10.97757
G1 X101.106 Y137.037 E11.14550
G1 X107.053 Y131.090 E11.38385
G1 X136.046 Y131.090 E12.20548
G1 X136.506 Y131.090 F7800.000
G1 X140.978 Y132.983 F7800.000
G1 X136.478 Y128.482 E12.38584 F1980.000
G1 X136.478 Y128.805 E12.39497
G1 X140.620 Y132.946 E12.56095
G1 X140.308 Y132.957 E12.56979
G1 X136.478 Y129.127 E12.72329
G1 X136.478 Y129.449 E12.73242
G1 X140.021 Y132.992 E12.87440
G1 X139.778 Y133.072 E12.88163
G1 X136.478 Y129.771 E13.01390
G1 X136.478 Y130.093 E13.02303
G1 X139.545 Y133.161 E13.14595
G1 X139.341 Y133.278 E13.15264
G1 X136.478 Y130.416 E13.26737
G1 X136.478 Y130.738 E13.27650
G1 X139.145 Y133.405 E13.38338
G1 X138.975 Y133.557 E13.38984
G1 X136.478 Y131.060 E13.48992
G1 X136.478 Y131.382 E13.49905
G1 X138.811 Y133.715 E13.59255
G1 X138.676 Y133.902 E13.59909
G1 X136.235 Y131.462 E13.69690
G1 X135.913 Y131.462 E13.70603
G1 X138.544 Y134.093 E13.81148
G1 X138.445 Y134.316 E13.81840
G1 X135.591 Y131.462 E13.93277
G1 X135.269 Y131.462 E13.94190
G1 X138.353 Y134.546 E14.06550
G1 X138.296 Y134.812 E14.07320
G1 X134.946 Y131.462 E14.20746
G1 X134.624 Y131.462 E14.21659
G1 X138.264 Y135.102 E14.36246
G1 X138.264 Y135.424 E14.37159
G1 X134.302 Y131.462 E14.53038
G1 X133.980 Y131.462 E14.53951
G1 X138.347 Y135.829 E14.71455
G1 X138.629 Y136.433 F7800.000
G1 X133.658 Y131.462 E14.91379 F1980.000
G1 X133.335 Y131.462 E14.92292
G1 X149.105 Y147.231 E15.55493
G1 X149.266 Y147.070 E15.56138
G1 X139.285 Y137.090 E15.96138
G1 X139.878 Y137.360 F7800.000
G1 X149.427 Y146.909 E16.34409 F1980.000
G1 X149.588 Y146.748 E16.35055
G1 X140.279 Y137.439 E16.72363
G1 X140.616 Y137.454 E16.73318
G1 X149.749 Y146.587 E17.09922
G1 X149.910 Y146.426 E17.10567
G1 X140.907 Y137.423 E17.46650
G1 X141.164 Y137.357 E17.47400
G1 X150.072 Y146.265 E17.83101
G1 X150.233 Y146.104 E17.83746
G1 X141.407 Y137.278 E18.19118
G1 X141.616 Y137.165 E18.19791
G1 X150.394 Y145.943 E18.54970
G1 X150.555 Y145.781 E18.55616
G1 X141.820 Y137.047 E18.90621
G1 X141.995 Y136.899 E18.91269
G1 X150.556 Y145.460 E19.25582
G1 X150.556 Y145.138 E19.26495
G1 X142.164 Y136.746 E19.60128
G1 X142.307 Y136.567 E19.60778
G1 X150.556 Y144.816 E19.93840
G1 X150.556 Y144.494 E19.94753
G1 X142.442 Y136.380 E20.27273
G1 X142.551 Y136.166 E20.27952
G1 X150.556 Y144.172 E20.60036
G1 X150.556 Y143.849 E20.60949
G1 X142.650 Y135.944 E20.92635
G1 X142.715 Y135.686 E20.93387
G1 X150.556 Y143.527 E21.24812
G1 X150.556 Y143.205 E21.25725
G1 X142.768 Y135.417 E21.56938
G1 X142.768 Y135.095 E21.57851
G1 X150.556 Y142.883 E21.89064
G1 X150.556 Y142.561 E21.89977
G1 X142.717 Y134.721 E22.21396
G1 X142.550 Y134.232 F7800.000
G1 X150.556 Y142.238 E22.53484 F1980.000
G1 X148.944 Y147.393 F7800.000
G1 X133.013 Y131.462 E23.17330 F1980.000
G1 X132.691 Y131.462 E23.18244
G1 X148.783 Y147.554 E23.82735
G1 X148.622 Y147.715 E23.83381
G1 X132.369 Y131.462 E24.48519
G1 X132.047 Y131.462 E24.49432
G1 X148.461 Y147.876 E25.15215
G1 X148.299 Y148.037 E25.15860
G1 X131.724 Y131.462 E25.82289
G1 X131.402 Y131.462 E25.83202
G1 X148.138 Y148.198 E26.50277
G1 X147.977 Y148.359 E26.50923
G1 X131.080 Y131.462 E27.18643
G1 X130.758 Y131.462 E27.19556
G1 X147.816 Y148.520 E27.87922
G1 X147.512 Y148.538 E27.88786
G1 X130.436 Y131.462 E28.57223
G1 X130.113 Y131.462 E28.58136
G1 X147.190 Y148.538 E29.26573
G1 X146.867 Y148.538 E29.27486
G1 X129.791 Y131.462 E29.95924
G1 X129.469 Y131.462 E29.96837
G1 X146.545 Y148.538 E30.65274
G1 X146.223 Y148.538 E30.66187
G1 X129.147 Y131.462 E31.34624
G1 X128.825 Y131.462 E31.35538
G1 X145.901 Y148.538 E32.03975
G1 X145.578 Y148.538 E32.04888
G1 X128.502 Y131.462 E32.73325
G1 X128.180 Y131.462 E32.74238
G1 X145.256 Y148.538 E33.42676
G1 X144.934 Y148.538 E33.43589
G1 X127.858 Y131.462 E34.12026
G1 X127.536 Y131.462 E34.12939
G1 X144.612 Y148.538 E34.81376
G1 X144.290 Y148.538 E34.82289
G1 X127.213 Y131.462 E35.50727
G1 X126.891 Y131.462 E35.51640
G1 X143.967 Y148.538 E36.20077
G1 X143.645 Y148.538 E36.20990
G1 X126.569 Y131.462 E36.89427
G1 X126.247 Y131.462 E36.90340
G1 X143.323 Y148.538 E37.58778
G1 X143.001 Y148.538 E37.59691
G1 X125.925 Y131.462 E38.28128
G1 X125.602 Y131.462 E38.29041
G1 X142.679 Y148.538 E38.97478
G1 X142.356 Y148.538 E38.98392
G1 X125.280 Y131.462 E39.66829
G1 X124.958 Y131.462 E39.67742
G1 X142.034 Y148.538 E40.36179
G1 X141.712 Y148.538 E40.37092
G1 X124.636 Y131.462 E41.05529
G1 X124.314 Y131.462 E41.06443
G1 X141.390 Y148.538 E41.74880
G1 X141.068 Y148.538 E41.75793
G1 X123.991 Y131.462 E42.44230
G1 X123.669 Y131.462 E42.45143
G1 X140.745 Y148.538 E43.13581
G1 X140.423 Y148.538 E43.14494
G1 X123.347 Y131.462 E43.82931
G1 X123.025 Y131.462 E43.83844
G1 X140.101 Y148.538 E44.52281
G1 X139.779 Y148.538 E44.53194
G1 X122.703 Y131.462 E45.21632
G1 X122.380 Y131.462 E45.22545
G1 X139.456 Y148.538 E45.90982
G1 X139.134 Y148.538 E45.91895
G1 X122.058 Y131.462 E46.60332
G1 X121.736 Y131.462 E46.61245
G1 X138.812 Y148.538 E47.29683
G1 X138.490 Y148.538 E47.30596
G1 X121.414 Y131.462 E47.99033
G1 X121.092 Y131.462 E47.99946
G1 X138.168 Y148.538 E48.68383
G1 X137.845 Y148.538 E48.69297
G1 X120.769 Y131.462 E49.37734
G1 X120.447 Y131.462 E49.38647
G1 X137.523 Y148.538 E50.07084
G1 X137.201 Y148.538 E50.07997
G1 X120.125 Y131.462 E50.76435
G1 X119.803 Y131.462 E50.77348
G1 X136.879 Y148.538 E51.45785
G1 X136.557 Y148.538 E51.46698
G1 X119.480 Y131.462 E52.15135
G1 X119.158 Y131.462 E52.16048
G1 X136.234 Y148.538 E52.84486
G1 X135.912 Y148.538 E52.85399
G1 X118.836 Y131.462 E53.53836
G1 X118.514 Y131.462 E53.54749
G1 X135.590 Y148.538 E54.23186
G1 X135.268 Y148.538 E54.24099
G1 X118.192 Y131.462 E54.92537
G1 X117.869 Y131.462 E54.93450
G1 X134.946 Y148.538 E55.61887
G1 X134.623 Y148.538 E55.62800
G1 X117.547 Y131.462 E56.31237
G1 X117.225 Y131.462 E56.32151
G1 X134.301 Y148.538 E57.00588
G1 X133.979 Y148.538 E57.01501
G1 X116.903 Y131.462 E57.69938
G1 X116.581 Y131.462 E57.70851
G1 X133.657 Y148.538 E58.39289
G1 X133.335 Y148.538 E58.40202
G1 X116.258 Y131.462 E59.08639
