; generated by Slic3r 1.1.7 on 2015-02-25 at 19:55:04

; perimeters extrusion width = 0.40mm
; infill extrusion width = 0.40mm
; solid infill extrusion width = 0.40mm
; top infill extrusion width = 0.40mm

G21 ; set units to millimeters
M107
M190 S60 ; wait for bed temperature to be reached
M104 S190 ; set temperature
G28 ; home all axes
G1 Z5 F5000 ; lift nozzle
M109 S190 ; wait for temperature to be reached
G90 ; use absolute coordinates
G92 E0
M82 ; use absolute distances for extrusion
G1 F1800.000 E-1.00000
G92 E0
G1 Z0.300 F7800.000
G1 X42.450 Y48.914 F7800.000
G1 E1.00000 F1800.000
G1 X44.197 Y47.474 E1.06415 F1080.000
G1 X47.366 Y46.642 E1.15700
G1 X118.764 Y46.642 E3.18036
G1 X120.992 Y47.039 E3.24451
G1 X123.299 Y48.504 E3.32196 F1080.000
G1 X145.073 Y70.008 E4.18918
G1 X146.379 Y71.856 E4.25333
G1 X146.992 Y74.600 E4.33301
G1 X146.992 Y144.998 E6.32803
G1 X146.595 Y147.226 E6.39218
G1 X145.453 Y149.181 E6.45632
G1 X143.706 Y150.621 E6.52047
G1 X140.537 Y151.452 E6.61332
G1 X47.366 Y151.452 E9.25372
G1 X45.138 Y151.056 E9.31787
G1 X43.183 Y149.914 E9.38201
G1 X41.743 Y148.167 E9.44616
G1 X40.912 Y144.998 E9.53901
G1 X40.912 Y53.097 E12.14342
G1 X41.308 Y50.868 E12.20757
G1 X42.420 Y48.966 E12.27001
G1 X42.655 Y49.036 F7800.000
G1 X42.675 Y49.001 E12.27117 F1080.000
G1 X44.413 Y47.614 E12.33417
G1 X47.366 Y46.869 E12.42047
G1 X118.764 Y46.869 E14.44383
G1 X120.951 Y47.266 E14.50683
G1 X123.140 Y48.666 E14.58045 F1080.000
G1 X144.913 Y70.169 E15.44768
G1 X146.191 Y71.989 E15.51068
G1 X146.765 Y74.600 E15.58645
G1 X146.765 Y144.998 E17.58147
G1 X146.368 Y147.185 E17.64447
G1 X145.228 Y149.094 E17.70747
G1 X143.490 Y150.480 E17.77047
G1 X140.537 Y151.225 E17.85678
G1 X47.366 Y151.225 E20.49717
G1 X45.179 Y150.828 E20.56017
G1 X43.270 Y149.689 E20.62317
G1 X41.884 Y147.951 E20.68617
G1 X41.139 Y144.998 E20.77248
G1 X41.139 Y53.097 E23.37689
G1 X41.536 Y50.909 E23.43988
G1 X42.624 Y49.087 E23.50003
G1 F1800.000 E22.50003
G92 E0
G1 X102.547 Y114.317 F7800.000
G1 E1.00000 F1800.000
G1 X116.583 Y114.317 E1.39778 F1620.000
G1 X116.583 Y105.414 E1.65009
G1 X118.447 Y105.414 E1.70291
G1 X118.447 Y126.917 E2.31229
G1 X140.220 Y126.917 E2.92933
G1 X140.220 Y128.781 E2.98214
G1 X131.315 Y128.781 E3.23451
G1 X131.315 Y142.817 E3.63229
G1 X140.220 Y142.817 E3.88466
G1 X140.220 Y144.681 E3.93747
G1 X100.683 Y144.681 E5.05792
G1 X100.683 Y105.414 E6.17071
G1 X102.547 Y105.414 E6.22352
G1 X102.547 Y114.257 E6.47413
G1 X102.774 Y114.090 F7800.000
G1 X116.356 Y114.090 E6.85903 F1620.000
G1 X116.356 Y105.187 E7.11135
G1 X118.674 Y105.187 E7.17704
G1 X118.674 Y126.690 E7.78642
G1 X140.447 Y126.690 E8.40346
G1 X140.447 Y129.008 E8.46915
G1 X131.542 Y129.008 E8.72152
G1 X131.542 Y142.590 E9.10642
G1 X140.447 Y142.590 E9.35879
G1 X140.447 Y144.908 E9.42448
G1 X100.456 Y144.908 E10.55780
G1 X100.456 Y105.187 E11.68347
G1 X102.774 Y105.187 E11.74916
G1 X102.774 Y114.030 E11.99978
G1 X102.774 Y114.490 F7800.000
G1 X102.655 Y114.462 F7800.000
G1 X132.729 Y144.536 E13.20508 F1980.000
G1 X131.477 Y142.962 F7800.000
G1 X133.051 Y144.536 E13.26817 F1980.000
G1 X133.372 Y144.536 E13.27729
G1 X131.798 Y142.962 E13.34037
G1 X132.120 Y142.962 E13.34950
G1 X133.694 Y144.536 E13.41258
G1 X134.016 Y144.536 E13.42170
G1 X132.442 Y142.962 E13.48479
G1 X132.764 Y142.962 E13.49391
G1 X134.338 Y144.536 E13.55700
G1 X134.660 Y144.536 E13.56612
G1 X133.086 Y142.962 E13.62921
G1 X133.407 Y142.962 E13.63833
G1 X134.982 Y144.536 E13.70142
G1 X135.303 Y144.536 E13.71054
G1 X133.729 Y142.962 E13.77363
G1 X134.051 Y142.962 E13.78275
G1 X135.625 Y144.536 E13.84584
G1 X135.947 Y144.536 E13.85496
G1 X134.373 Y142.962 E13.91805
G1 X134.695 Y142.962 E13.92717
G1 X136.269 Y144.536 E13.99025
G1 X136.591 Y144.536 E13.99938
G1 X135.017 Y142.962 E14.06246
G1 X135.338 Y142.962 E14.07158
G1 X136.913 Y144.536 E14.13467
G1 X137.234 Y144.536 E14.14379
G1 X135.660 Y142.962 E14.20688
G1 X135.982 Y142.962 E14.21600
G1 X137.556 Y144.536 E14.27909
G1 X137.878 Y144.536 E14.28821
G1 X136.304 Y142.962 E14.35130
G1 X136.626 Y142.962 E14.36042
G1 X138.200 Y144.536 E14.42351
G1 X138.522 Y144.536 E14.43263
G1 X136.948 Y142.962 E14.49572
G1 X137.269 Y142.962 E14.50484
G1 X138.844 Y144.536 E14.56793
G1 X139.165 Y144.536 E14.57705
G1 X137.591 Y142.962 E14.64013
G1 X137.913 Y142.962 E14.64926
G1 X139.487 Y144.536 E14.71234
G1 X139.809 Y144.536 E14.72146
G1 X138.235 Y142.962 E14.78455
G1 X138.557 Y142.962 E14.79367
G1 X140.075 Y144.481 E14.85454
G1 X140.075 Y144.159 E14.86366
G1 X138.879 Y142.962 E14.91163
G1 X139.200 Y142.962 E14.92075
G1 X140.075 Y143.837 E14.95581
G1 X140.075 Y143.515 E14.96493
G1 X139.522 Y142.962 E14.98711
G1 X139.844 Y142.962 E14.99623
G1 X140.075 Y143.193 E15.00550
G1 X131.170 Y142.655 F7800.000
G1 X102.977 Y114.462 E16.13543 F1980.000
G1 X103.298 Y114.462 E16.14455
G1 X131.170 Y142.334 E17.26159
G1 X131.170 Y142.012 E17.27071
G1 X103.620 Y114.462 E18.37484
G1 X103.942 Y114.462 E18.38396
G1 X131.170 Y141.690 E19.47520
G1 X131.170 Y141.368 E19.48432
G1 X104.264 Y114.462 E20.56266
G1 X104.586 Y114.462 E20.57178
G1 X131.170 Y141.046 E21.63723
G1 X131.170 Y140.725 E21.64635
G1 X104.907 Y114.462 E22.69889
G1 X105.229 Y114.462 E22.70801
G1 X131.170 Y140.403 E23.74766
G1 X131.170 Y140.081 E23.75678
G1 X105.551 Y114.462 E24.78352
G1 X102.402 Y114.209 F7800.000
G1 X100.828 Y112.635 E24.84661 F1980.000
G1 X100.828 Y112.957 E24.85573
G1 X132.407 Y144.536 E26.12135
G1 X132.085 Y144.536 E26.13047
G1 X100.828 Y113.279 E27.38319
G1 X100.828 Y113.601 E27.39231
G1 X131.763 Y144.536 E28.63213
G1 X131.442 Y144.536 E28.64125
G1 X100.828 Y113.922 E29.86817
G1 X100.828 Y114.244 E29.87729
G1 X131.120 Y144.536 E31.09131
G1 X130.798 Y144.536 E31.10043
G1 X100.828 Y114.566 E32.30156
G1 X100.828 Y114.888 E32.31068
G1 X130.476 Y144.536 E33.49891
G1 X130.154 Y144.536 E33.50803
G1 X100.828 Y115.210 E34.68336
G1 X100.828 Y115.532 E34.69248
G1 X129.832 Y144.536 E35.85491
G1 X129.511 Y144.536 E35.86403
G1 X100.828 Y115.853 E37.01356
G1 X100.828 Y116.175 E37.02268
G1 X129.189 Y144.536 E38.15932
G1 X128.867 Y144.536 E38.16844
G1 X100.828 Y116.497 E39.29217
G1 X100.828 Y116.819 E39.30129
G1 X128.545 Y144.536 E40.41213
G1 X128.223 Y144.536 E40.42125
G1 X100.828 Y117.141 E41.51919
G1 X100.828 Y117.463 E41.52831
G1 X127.901 Y144.536 E42.61336
G1 X127.580 Y144.536 E42.62248
G1 X100.828 Y117.784 E43.69462
G1 X100.828 Y118.106 E43.70374
G1 X127.258 Y144.536 E44.76299
G1 X126.936 Y144.536 E44.77211
G1 X100.828 Y118.428 E45.81846
G1 X100.828 Y118.750 E45.82758
G1 X126.614 Y144.536 E46.86103
G1 X126.292 Y144.536 E46.87015
G1 X100.828 Y119.072 E47.89070
G1 X100.828 Y119.394 E47.89982
G1 X125.970 Y144.536 E48.90747
G1 X125.649 Y144.536 E48.91659
G1 X100.828 Y119.715 E49.91135
G1 X100.828 Y120.037 E49.92047
G1 X125.327 Y144.536 E50.90233
G1 X125.005 Y144.536 E50.91145
G1 X100.828 Y120.359 E51.88041
G1 X100.828 Y120.681 E51.88953
G1 X124.683 Y144.536 E52.84559
G1 X124.361 Y144.536 E52.85471
G1 X100.828 Y121.003 E53.79787
G1 X100.828 Y121.325 E53.80700
G1 X124.039 Y144.536 E54.73726
G1 X123.718 Y144.536 E54.74638
G1 X100.828 Y121.646 E55.66375
G1 X100.828 Y121.968 E55.67287
G1 X123.396 Y144.536 E56.57734
G1 X123.074 Y144.536 E56.58646
G1 X100.828 Y122.290 E57.47803
G1 X100.828 Y122.612 E57.48715
G1 X122.752 Y144.536 E58.36582
G1 X122.430 Y144.536 E58.37494
G1 X100.828 Y122.934 E59.24072
G1 X100.828 Y123.255 E59.24984
G1 X122.109 Y144.536 E60.10272
G1 X121.787 Y144.536 E60.11184
G1 X100.828 Y123.577 E60.95182
G1 X100.828 Y123.899 E60.96094
G1 X121.465 Y144.536 E61.78802
G1 X121.143 Y144.536 E61.79714
G1 X100.828 Y124.221 E62.61132
G1 X100.828 Y124.543 E62.62044
G1 X120.821 Y144.536 E63.42172
G1 X120.499 Y144.536 E63.43084
G1 X100.828 Y124.865 E64.21923
G1 X100.828 Y125.186 E64.22835
G1 X120.178 Y144.536 E65.00384
G1 X119.856 Y144.536 E65.01296
G1 X100.828 Y125.508 E65.77555
G1 X100.828 Y125.830 E65.78467
G1 X119.534 Y144.536 E66.53436
G1 X119.212 Y144.536 E66.54348
G1 X100.828 Y126.152 E67.28028
G1 X100.828 Y126.474 E67.28940
G1 X118.890 Y144.536 E68.01329
G1 X118.568 Y144.536 E68.02241
G1 X100.828 Y126.796 E68.73341
G1 X100.828 Y127.117 E68.74253
G1 X118.247 Y144.536 E69.44063
G1 X117.925 Y144.536 E69.44975
G1 X100.828 Y127.439 E70.13496
G1 X100.828 Y127.761 E70.14408
G1 X117.603 Y144.536 E70.81638
G1 X117.281 Y144.536 E70.82550
G1 X100.828 Y128.083 E71.48491
G1 X100.828 Y128.405 E71.49403
G1 X116.959 Y144.536 E72.14053
G1 X116.637 Y144.536 E72.14965
G1 X100.828 Y128.727 E72.78326
G1 X100.828 Y129.048 E72.79238
G1 X116.316 Y144.536 E73.41309
G1 X115.994 Y144.536 E73.42221
G1 X100.828 Y129.370 E74.03003
G1 X100.828 Y129.692 E74.03915
G1 X115.672 Y144.536 E74.63406
G1 X115.350 Y144.536 E74.64318
G1 X100.828 Y130.014 E75.22520
G1 X100.828 Y130.336 E75.23432
G1 X115.028 Y144.536 E75.80344
G1 X114.706 Y144.536 E75.81256
G1 X100.828 Y130.657 E76.36878
G1 X100.828 Y130.979 E76.37790
G1 X114.385 Y144.536 E76.92122
G1 X114.063 Y144.536 E76.93035
G1 X100.828 Y131.301 E77.46077
G1 X100.828 Y131.623 E77.46989
G1 X113.741 Y144.536 E77.98742
G1 X113.419 Y144.536 E77.99654
G1 X100.828 Y131.945 E78.50117
G1 X100.828 Y132.267 E78.51029
G1 X113.097 Y144.536 E79.00202
G1 X112.776 Y144.536 E79.01114
G1 X100.828 Y132.588 E79.48997
G1 X100.828 Y132.910 E79.49909
G1 X112.454 Y144.536 E79.96502
G1 X112.132 Y144.536 E79.97414
G1 X100.828 Y133.232 E80.42718
G1 X100.828 Y133.554 E80.43630
G1 X111.810 Y144.536 E80.87644
G1 X111.488 Y144.536 E80.88556
G1 X100.828 Y133.876 E81.31280
G1 X100.828 Y134.198 E81.32192
G1 X111.166 Y144.536 E81.73626
G1 X110.845 Y144.536 E81.74538
G1 X100.828 Y134.519 E82.14683
G1 X100.828 Y134.841 E82.15595
G1 X110.523 Y144.536 E82.54449
G1 X110.201 Y144.536 E82.55361
G1 X100.828 Y135.163 E82.92926
G1 X100.828 Y135.485 E82.93838
G1 X109.879 Y144.536 E83.30113
G1 X109.557 Y144.536 E83.31025
G1 X100.828 Y135.807 E83.66010
G1 X100.828 Y136.129 E83.66922
G1 X109.235 Y144.536 E84.00618
G1 X108.914 Y144.536 E84.01530
G1 X100.828 Y136.450 E84.33935
G1 X100.828 Y136.772 E84.34847
G1 X108.592 Y144.536 E84.65963
G1 X108.270 Y144.536 E84.66875
G1 X100.828 Y137.094 E84.96701
G1 X100.828 Y137.416 E84.97613
G1 X107.948 Y144.536 E85.26149
G1 X107.626 Y144.536 E85.27061
G1 X100.828 Y137.738 E85.54307
G1 X100.828 Y138.060 E85.55219
G1 X107.304 Y144.536 E85.81176
G1 X106.983 Y144.536 E85.82088
G1 X100.828 Y138.381 E86.06754
G1 X100.828 Y138.703 E86.07667
G1 X106.661 Y144.536 E86.31043
G1 X106.339 Y144.536 E86.31955
G1 X100.828 Y139.025 E86.54042
G1 X100.828 Y139.347 E86.54954
G1 X106.017 Y144.536 E86.75752
G1 X105.695 Y144.536 E86.76664
G1 X100.828 Y139.669 E86.96171
G1 X100.828 Y139.990 E86.97083
G1 X105.374 Y144.536 E87.15301
G1 X105.052 Y144.536 E87.16213
G1 X100.828 Y140.312 E87.33141
G1 X100.828 Y140.634 E87.34053
G1 X104.730 Y144.536 E87.49691
G1 X104.408 Y144.536 E87.50603
G1 X100.828 Y140.956 E87.64951
G1 X100.828 Y141.278 E87.65863
G1 X104.086 Y144.536 E87.78921
G1 X103.764 Y144.536 E87.79833
G1 X100.828 Y141.600 E87.91602
G1 X100.828 Y141.921 E87.92514
G1 X103.443 Y144.536 E88.02993
G1 X103.121 Y144.536 E88.03905
G1 X100.828 Y142.243 E88.13094
G1 X100.828 Y142.565 E88.14006
G1 X102.799 Y144.536 E88.21905
G1 X102.477 Y144.536 E88.22817
G1 X100.828 Y142.887 E88.29426
G1 X100.828 Y143.209 E88.30339
G1 X102.155 Y144.536 E88.35658
G1 X101.833 Y144.536 E88.36570
G1 X100.828 Y143.531 E88.40600
G1 X100.828 Y143.852 E88.41512
G1 X101.512 Y144.536 E88.44252
G1 X101.190 Y144.536 E88.45164
G1 X100.828 Y144.174 E88.46614
G1 X100.828 Y144.496 E88.47526
G1 X100.868 Y144.536 E88.47686
G1 X102.402 Y113.887 F7800.000
G1 X100.828 Y112.313 E88.53995 F1980.000
G1 X100.828 Y111.992 E88.54907
G1 X102.402 Y113.566 E88.61216
G1 X102.402 Y113.244 E88.62128
G1 X100.828 Y111.670 E88.68437
G1 X100.828 Y111.348 E88.69349
G1 X102.402 Y112.922 E88.75658
G1 X102.402 Y112.600 E88.76570
G1 X100.828 Y111.026 E88.82879
G1 X100.828 Y110.704 E88.83791
G1 X102.402 Y112.278 E88.90100
G1 X102.402 Y111.957 E88.91012
G1 X100.828 Y110.382 E88.97320
G1 X100.828 Y110.061 E88.98233
G1 X102.402 Y111.635 E89.04541
G1 X102.402 Y111.313 E89.05453
G1 X100.828 Y109.739 E89.11762
G1 X100.828 Y109.417 E89.12674
G1 X102.402 Y110.991 E89.18983
G1 X102.402 Y110.669 E89.19895
G1 X100.828 Y109.095 E89.26204
G1 X100.828 Y108.773 E89.27116
G1 X102.402 Y110.347 E89.33425
G1 X102.402 Y110.026 E89.34337
G1 X100.828 Y108.451 E89.40646
G1 X100.828 Y108.130 E89.41558
G1 X102.402 Y109.704 E89.47867
G1 X102.402 Y109.382 E89.48779
G1 X100.828 Y107.808 E89.55088
G1 X100.828 Y107.486 E89.56000
G1 X102.402 Y109.060 E89.62309
G1 X102.402 Y108.738 E89.63221
G1 X100.828 Y107.164 E89.69529
G1 X100.828 Y106.842 E89.70441
G1 X102.402 Y108.416 E89.76750
G1 X102.402 Y108.095 E89.77662
G1 X100.828 Y106.520 E89.83971
G1 X100.828 Y106.199 E89.84883
G1 X102.402 Y107.773 E89.91192
G1 X102.402 Y107.451 E89.92104
G1 X100.828 Y105.877 E89.98413
G1 X100.850 Y105.577 E89.99265
G1 X102.402 Y107.129 E90.05487
G1 X102.402 Y106.807 E90.06399
G1 X101.153 Y105.559 E90.11403
G1 X101.475 Y105.559 E90.12315
G1 X102.402 Y106.485 E90.16030
G1 X102.402 Y106.164 E90.16942
G1 X101.797 Y105.559 E90.19367
G1 X102.119 Y105.559 E90.20279
G1 X102.402 Y105.842 E90.21414
G1 F1800.000 E89.21414
G92 E0
G1 X118.210 Y105.559 F7800.000
G1 E1.00000 F1800.000
G1 X118.302 Y105.650 E1.00368 F1980.000
G1 X118.302 Y105.972 E1.01280
G1 X117.888 Y105.559 E1.02938
G1 X117.567 Y105.559 E1.03850
G1 X118.302 Y106.294 E1.06798
G1 X118.302 Y106.616 E1.07710
G1 X117.245 Y105.559 E1.11947
G1 X116.923 Y105.559 E1.12859
G1 X118.302 Y106.938 E1.18386
G1 X118.302 Y107.260 E1.19298
G1 X116.728 Y105.685 E1.25607
G1 X116.728 Y106.007 E1.26519
G1 X118.302 Y107.581 E1.32828
G1 X118.302 Y107.903 E1.33740
G1 X116.728 Y106.329 E1.40049
G1 X116.728 Y106.651 E1.40961
G1 X118.302 Y108.225 E1.47270
G1 X118.302 Y108.547 E1.48182
G1 X116.728 Y106.973 E1.54491
G1 X116.728 Y107.295 E1.55403
G1 X118.302 Y108.869 E1.61712
G1 X118.302 Y109.191 E1.62624
G1 X116.728 Y107.616 E1.68933
G1 X116.728 Y107.938 E1.69845
G1 X118.302 Y109.512 E1.76153
G1 X118.302 Y109.834 E1.77066
G1 X116.728 Y108.260 E1.83374
G1 X116.728 Y108.582 E1.84286
G1 X118.302 Y110.156 E1.90595
G1 X118.302 Y110.478 E1.91507
G1 X116.728 Y108.904 E1.97816
G1 X116.728 Y109.226 E1.98728
G1 X118.302 Y110.800 E2.05037
G1 X118.302 Y111.122 E2.05949
G1 X116.728 Y109.547 E2.12258
G1 X116.728 Y109.869 E2.13170
G1 X118.302 Y111.443 E2.19479
G1 X118.302 Y111.765 E2.20391
G1 X116.728 Y110.191 E2.26700
G1 X116.728 Y110.513 E2.27612
G1 X118.302 Y112.087 E2.33921
G1 X118.302 Y112.409 E2.34833
G1 X116.728 Y110.835 E2.41141
G1 X116.728 Y111.156 E2.42053
G1 X118.302 Y112.731 E2.48362
G1 X118.302 Y113.052 E2.49274
G1 X116.728 Y111.478 E2.55583
G1 X116.728 Y111.800 E2.56495
G1 X118.302 Y113.374 E2.62804
G1 X118.302 Y113.696 E2.63716
G1 X116.728 Y112.122 E2.70025
G1 X116.728 Y112.444 E2.70937
G1 X118.302 Y114.018 E2.77246
G1 X118.302 Y114.340 E2.78158
G1 X116.728 Y112.766 E2.84467
G1 X116.728 Y113.087 E2.85379
G1 X118.302 Y114.662 E2.91688
G1 X118.302 Y114.983 E2.92600
G1 X116.728 Y113.409 E2.98909
G1 X116.728 Y113.731 E2.99821
G1 X118.302 Y115.305 E3.06129
G1 X118.302 Y115.627 E3.07041
G1 X116.728 Y114.053 E3.13350
G1 X116.728 Y114.375 E3.14262
G1 X118.302 Y115.949 E3.20571
G1 X118.302 Y116.271 E3.21483
G1 X116.493 Y114.462 E3.28733
G1 X116.171 Y114.462 E3.29645
G1 X118.302 Y116.593 E3.38184
G1 X118.302 Y116.914 E3.39096
G1 X115.850 Y114.462 E3.48925
G1 X115.528 Y114.462 E3.49837
G1 X118.302 Y117.236 E3.60956
G1 X118.302 Y117.558 E3.61868
G1 X115.206 Y114.462 E3.74276
G1 X114.884 Y114.462 E3.75188
G1 X118.302 Y117.880 E3.88887
G1 X118.302 Y118.202 E3.89799
G1 X114.562 Y114.462 E4.04787
G1 X114.240 Y114.462 E4.05699
G1 X118.302 Y118.524 E4.21977
G1 X118.302 Y118.845 E4.22889
G1 X113.919 Y114.462 E4.40457
G1 X113.597 Y114.462 E4.41369
G1 X118.302 Y119.167 E4.60226
G1 X118.302 Y119.489 E4.61139
G1 X113.275 Y114.462 E4.81286
G1 X112.953 Y114.462 E4.82198
G1 X118.302 Y119.811 E5.03635
G1 X118.302 Y120.133 E5.04547
G1 X112.631 Y114.462 E5.27274
G1 X112.309 Y114.462 E5.28186
G1 X118.302 Y120.455 E5.52203
