; generated by Slic3r 1.1.7 on 2015-02-26 at 14:50:28

; perimeters extrusion width = 0.40mm
; infill extrusion width = 0.40mm
; solid infill extrusion width = 0.40mm
; top infill extrusion width = 0.40mm

G21 ; set units to millimeters
M107
M190 S60 ; wait for bed temperature to be reached
M104 S190 ; set temperature
G28 ; home all axes
G1 Z5 F5000 ; lift nozzle
M109 S190 ; wait for temperature to be reached
G90 ; use absolute coordinates
G92 E0
M82 ; use absolute distances for extrusion
G1 F1800.000 E-1.00000
G92 E0
G1 Z0.300 F7800.000
G1 X62.437 Y57.925 F7800.000
G1 E1.00000 F1800.000
G1 X64.184 Y56.485 E1.06415 F1080.000
G1 X67.353 Y55.654 E1.15700
G1 X100.353 Y55.654 E2.09219
G1 X103.580 Y56.519 E2.18687
G1 X122.783 Y67.626 E2.81555 F1080.000
G1 X123.149 Y67.876 E2.82811
G1 X123.908 Y68.480 E2.85560
G1 X124.232 Y68.782 E2.86815
G1 X124.893 Y69.492 E2.89565
G1 X125.169 Y69.839 E2.90819
G1 X125.716 Y70.640 E2.93569
G1 X126.358 Y71.897 E2.97570
G1 X126.806 Y73.237 E3.01573
G1 X127.050 Y74.628 E3.05575
G1 X127.102 Y75.557 E3.08213
G1 X127.080 Y131.920 E4.67941
G1 X126.901 Y133.042 E4.71162
G1 X126.543 Y134.121 E4.74382
G1 X126.012 Y135.126 E4.77604
G1 X125.326 Y136.032 E4.80824
G1 X124.502 Y136.813 E4.84042
G1 X123.561 Y137.450 E4.87262
G1 X122.527 Y137.926 E4.90487
G1 X121.432 Y138.226 E4.93706
G1 X120.302 Y138.344 E4.96924
G1 X89.167 Y138.276 E5.85160
G1 X88.060 Y138.025 E5.88377
G1 X87.007 Y137.596 E5.91598
G1 X86.191 Y137.112 E5.94286
G1 X63.661 Y121.403 E6.72123
G1 X62.060 Y119.803 E6.78537
G1 X61.110 Y117.748 E6.84952
G1 X60.898 Y116.108 E6.89638
G1 X60.898 Y62.108 E8.42669
G1 X61.295 Y59.880 E8.49084
G1 X62.407 Y57.977 E8.55329
G1 X62.641 Y58.047 F7800.000
G1 X62.662 Y58.012 E8.55444 F1080.000
G1 X64.400 Y56.626 E8.61744
G1 X67.353 Y55.881 E8.70375
G1 X100.353 Y55.881 E9.63894
G1 X103.466 Y56.715 E9.73029
G1 X122.655 Y67.814 E10.35848 F1080.000
G1 X123.021 Y68.064 E10.37104
G1 X123.753 Y68.647 E10.39757
G1 X124.078 Y68.948 E10.41012
G1 X124.715 Y69.634 E10.43665
G1 X124.991 Y69.980 E10.44920
G1 X125.519 Y70.754 E10.47573
G1 X126.147 Y71.980 E10.51479
G1 X126.585 Y73.287 E10.55385
G1 X126.823 Y74.645 E10.59291
G1 X126.874 Y75.557 E10.61881
G1 X126.854 Y131.902 E12.21556
G1 X126.681 Y132.987 E12.24672
G1 X126.334 Y134.030 E12.27787
G1 X125.822 Y135.003 E12.30903
G1 X125.158 Y135.879 E12.34018
G1 X124.361 Y136.635 E12.37131
G1 X123.450 Y137.251 E12.40246
G1 X122.450 Y137.712 E12.43366
G1 X121.391 Y138.002 E12.46479
G1 X120.299 Y138.117 E12.49592
G1 X89.200 Y138.051 E13.37723
G1 X88.129 Y137.809 E13.40835
G1 X87.111 Y137.394 E13.43951
G1 X86.321 Y136.926 E13.46552
G1 X63.791 Y121.216 E14.24389
G1 X62.224 Y119.640 E14.30689
G1 X61.310 Y117.613 E14.36989
G1 X61.126 Y116.108 E14.41286
G1 X61.126 Y62.108 E15.94317
G1 X61.522 Y59.921 E16.00617
G1 X62.611 Y58.099 E16.06631
G1 F1800.000 E15.06631
G92 E0
G1 X78.263 Y111.175 F7800.000
G1 E1.00000 F1800.000
G1 X70.268 Y115.791 E1.26163 F1620.000
G1 X67.670 Y115.791 E1.33525
G1 X67.670 Y100.425 E1.77070
G1 X70.268 Y100.425 E1.84432
G1 X88.978 Y111.228 E2.45658
G1 X89.319 Y111.460 E2.46828
G1 X89.613 Y111.733 E2.47964
G1 X89.863 Y112.046 E2.49100
G1 X90.063 Y112.394 E2.50236
G1 X90.210 Y112.767 E2.51372
G1 X90.299 Y113.157 E2.52508
G1 X90.330 Y113.569 E2.53677
G1 X90.330 Y131.380 E3.04152
G1 X90.307 Y131.479 E3.04439
G1 X90.222 Y131.558 E3.04770
G1 X90.135 Y131.574 E3.05020
G1 X90.078 Y131.561 E3.05188
G1 X89.982 Y131.473 E3.05555
G1 X78.293 Y111.227 E3.71807
G1 X78.180 Y111.485 F7800.000
G1 X70.329 Y116.018 E3.97499 F1620.000
G1 X67.443 Y116.018 E4.05677
G1 X67.443 Y100.198 E4.50510
G1 X70.329 Y100.198 E4.58688
G1 X89.099 Y111.035 E5.20111
G1 X89.461 Y111.282 E5.21353
G1 X89.780 Y111.578 E5.22585
G1 X90.051 Y111.918 E5.23818
G1 X90.269 Y112.295 E5.25050
G1 X90.428 Y112.699 E5.26283
G1 X90.524 Y113.123 E5.27515
G1 X90.557 Y113.561 E5.28757
G1 X90.557 Y131.389 E5.79282
G1 X90.508 Y131.586 E5.79857
G1 X90.427 Y131.692 E5.80235
G1 X90.316 Y131.766 E5.80613
G1 X90.120 Y131.802 E5.81177
G1 X89.990 Y131.771 E5.81556
G1 X89.877 Y131.701 E5.81934
G1 X89.790 Y131.595 E5.82323
G1 X78.210 Y111.537 E6.47957
G1 X77.980 Y111.139 F7800.000
G1 X78.114 Y111.094 F7800.000
G1 X67.815 Y100.794 E6.89235 F1980.000
G1 X67.815 Y101.116 E6.90148
G1 X77.910 Y111.212 E7.30608
G1 X77.706 Y111.329 E7.31276
G1 X67.815 Y101.438 E7.70918
G1 X67.815 Y101.760 E7.71830
G1 X77.502 Y111.447 E8.10654
G1 X77.298 Y111.565 E8.11322
G1 X67.815 Y102.082 E8.49327
G1 X67.815 Y102.404 E8.50240
G1 X77.094 Y111.683 E8.87427
G1 X76.890 Y111.801 E8.88095
G1 X67.815 Y102.726 E9.24465
G1 X67.815 Y103.048 E9.25377
G1 X76.685 Y111.919 E9.60928
G1 X76.481 Y112.037 E9.61596
G1 X67.815 Y103.370 E9.96329
G1 X67.815 Y103.692 E9.97242
G1 X76.277 Y112.155 E10.31157
G1 X76.073 Y112.272 E10.31825
G1 X67.815 Y104.014 E10.64921
G1 X67.815 Y104.336 E10.65834
G1 X75.869 Y112.390 E10.98112
G1 X75.665 Y112.508 E10.98780
G1 X67.815 Y104.658 E11.30241
G1 X67.815 Y104.980 E11.31153
G1 X75.461 Y112.626 E11.61796
G1 X75.256 Y112.744 E11.62464
G1 X67.815 Y105.302 E11.92288
G1 X67.815 Y105.624 E11.93200
G1 X75.052 Y112.862 E12.22206
G1 X74.848 Y112.980 E12.22874
G1 X67.815 Y105.946 E12.51062
G1 X67.815 Y106.268 E12.51974
G1 X74.644 Y113.097 E12.79344
G1 X74.440 Y113.215 E12.80012
G1 X67.815 Y106.590 E13.06564
G1 X67.815 Y106.912 E13.07476
G1 X74.236 Y113.333 E13.33209
G1 X74.032 Y113.451 E13.33877
G1 X67.815 Y107.234 E13.58793
G1 X67.815 Y107.556 E13.59705
G1 X73.827 Y113.569 E13.83802
G1 X73.623 Y113.687 E13.84470
G1 X67.815 Y107.878 E14.07749
G1 X67.815 Y108.200 E14.08662
G1 X73.419 Y113.805 E14.31122
G1 X73.215 Y113.922 E14.31790
G1 X67.815 Y108.522 E14.53433
G1 X67.815 Y108.844 E14.54345
G1 X73.011 Y114.040 E14.75170
G1 X72.807 Y114.158 E14.75838
G1 X67.815 Y109.166 E14.95844
G1 X67.815 Y109.488 E14.96757
G1 X72.603 Y114.276 E15.15945
G1 X72.398 Y114.394 E15.16613
G1 X67.815 Y109.810 E15.34983
G1 X67.815 Y110.132 E15.35895
G1 X72.194 Y114.512 E15.53447
G1 X71.990 Y114.630 E15.54115
G1 X67.815 Y110.454 E15.70849
G1 X67.815 Y110.776 E15.71761
G1 X71.786 Y114.747 E15.87677
G1 X71.582 Y114.865 E15.88345
G1 X67.815 Y111.098 E16.03442
G1 X67.815 Y111.420 E16.04355
G1 X71.378 Y114.983 E16.18634
G1 X71.174 Y115.101 E16.19302
G1 X67.815 Y111.742 E16.32763
G1 X67.815 Y112.064 E16.33676
G1 X70.969 Y115.219 E16.46319
G1 X70.765 Y115.337 E16.46987
G1 X67.815 Y112.386 E16.58811
G1 X67.815 Y112.708 E16.59724
G1 X70.561 Y115.455 E16.70731
G1 X70.357 Y115.572 E16.71399
G1 X67.815 Y113.030 E16.81587
G1 X67.815 Y113.352 E16.82500
G1 X70.109 Y115.646 E16.91693
G1 X69.787 Y115.646 E16.92606
G1 X67.815 Y113.674 E17.00509
G1 X67.815 Y113.996 E17.01422
G1 X69.465 Y115.646 E17.08035
G1 X69.143 Y115.646 E17.08947
G1 X67.815 Y114.318 E17.14270
G1 X67.815 Y114.640 E17.15182
G1 X68.821 Y115.646 E17.19214
G1 X68.499 Y115.646 E17.20126
G1 X67.815 Y114.962 E17.22868
G1 X67.815 Y115.284 E17.23780
G1 X68.177 Y115.646 E17.25231
G1 X67.855 Y115.646 E17.26144
G1 X67.815 Y115.606 E17.26304
G1 F1800.000 E16.26304
G92 E0
G1 X78.751 Y111.730 F7800.000
G1 E1.00000 F1800.000
G1 X90.185 Y123.165 E1.45825 F1980.000
G1 X90.185 Y122.843 E1.46738
G1 X67.913 Y100.570 E2.36001
G1 X68.235 Y100.570 E2.36913
G1 X90.185 Y122.521 E3.24885
G1 X90.185 Y122.199 E3.25798
G1 X68.557 Y100.570 E4.12480
G1 X68.879 Y100.570 E4.13392
G1 X90.185 Y121.877 E4.98783
G1 X90.185 Y121.555 E4.99696
G1 X69.201 Y100.570 E5.83797
G1 X69.523 Y100.570 E5.84709
G1 X90.185 Y121.233 E6.67519
G1 X90.185 Y120.911 E6.68432
G1 X69.845 Y100.570 E7.49952
G1 X70.167 Y100.570 E7.50864
G1 X90.185 Y120.589 E8.31093
G1 X90.185 Y120.267 E8.32006
G1 X70.843 Y100.925 E9.09523
G1 X71.605 Y101.365 F7800.000
G1 X90.185 Y119.945 E9.83987 F1980.000
G1 X90.185 Y119.623 E9.84899
G1 X72.367 Y101.805 E10.56310
G1 X73.129 Y102.244 F7800.000
G1 X90.185 Y119.301 E11.24667 F1980.000
G1 X90.185 Y118.979 E11.25580
G1 X73.891 Y102.684 E11.90883
G1 X74.653 Y103.124 F7800.000
G1 X90.185 Y118.657 E12.53134 F1980.000
G1 X90.185 Y118.335 E12.54046
G1 X75.415 Y103.564 E13.13243
G1 X76.176 Y104.004 F7800.000
G1 X90.185 Y118.013 E13.69387 F1980.000
G1 X90.185 Y117.691 E13.70299
G1 X76.938 Y104.444 E14.23389
G1 X77.700 Y104.884 F7800.000
G1 X90.185 Y117.369 E14.73426 F1980.000
G1 X90.185 Y117.047 E14.74339
G1 X78.462 Y105.323 E15.21322
G1 X79.224 Y105.763 F7800.000
G1 X90.185 Y116.725 E15.65252 F1980.000
G1 X90.185 Y116.403 E15.66165
G1 X79.986 Y106.203 E16.07042
G1 X80.748 Y106.643 F7800.000
G1 X90.185 Y116.081 E16.44865 F1980.000
G1 X90.185 Y115.759 E16.45777
G1 X81.510 Y107.083 E16.80547
G1 X82.271 Y107.523 F7800.000
G1 X90.185 Y115.437 E17.12264 F1980.000
G1 X90.185 Y115.115 E17.13176
G1 X83.033 Y107.963 E17.41840
G1 X83.795 Y108.403 F7800.000
G1 X90.185 Y114.793 E17.67449 F1980.000
G1 X90.185 Y114.471 E17.68362
G1 X84.557 Y108.842 E17.90918
G1 X85.319 Y109.282 F7800.000
G1 X90.185 Y114.149 E18.10421 F1980.000
G1 X90.185 Y113.827 E18.11334
G1 X86.081 Y109.722 E18.27784
G1 X86.843 Y110.162 F7800.000
G1 X90.180 Y113.499 E18.41157 F1980.000
G1 X90.148 Y113.145 E18.42164
G1 X87.604 Y110.602 E18.52357
G1 X88.366 Y111.042 F7800.000
G1 X90.031 Y112.706 E18.59027 F1980.000
G1 X89.618 Y111.972 F7800.000
G1 X89.203 Y111.556 E18.60692 F1980.000
G1 X81.390 Y116.302 F7800.000
G1 X90.185 Y125.097 E18.95940 F1980.000
G1 X90.185 Y124.775 E18.96853
G1 X80.950 Y115.540 E19.33864
G1 X80.511 Y114.778 F7800.000
G1 X90.185 Y124.453 E19.72638 F1980.000
G1 X90.185 Y124.131 E19.73550
G1 X80.071 Y114.016 E20.14087
G1 X79.631 Y113.254 F7800.000
G1 X90.185 Y123.809 E20.56386 F1980.000
G1 X90.185 Y123.487 E20.57299
G1 X79.191 Y112.492 E21.01361
G1 X81.830 Y117.064 F7800.000
G1 X90.185 Y125.419 E21.34846 F1980.000
G1 X90.185 Y125.741 E21.35759
G1 X82.270 Y117.825 E21.67481
G1 X82.710 Y118.587 F7800.000
G1 X90.185 Y126.063 E21.97441 F1980.000
G1 X90.185 Y126.385 E21.98353
G1 X83.150 Y119.349 E22.26550
G1 X83.590 Y120.111 F7800.000
G1 X90.185 Y126.707 E22.52983 F1980.000
G1 X90.185 Y127.029 E22.53896
G1 X84.029 Y120.873 E22.78567
G1 X84.469 Y121.635 F7800.000
G1 X90.185 Y127.351 E23.01475 F1980.000
G1 X90.185 Y127.673 E23.02387
G1 X84.909 Y122.397 E23.23532
G1 X85.349 Y123.158 F7800.000
G1 X90.185 Y127.995 E23.42915 F1980.000
G1 X90.185 Y128.317 E23.43827
G1 X85.789 Y123.920 E23.61446
G1 X86.229 Y124.682 F7800.000
G1 X90.185 Y128.639 E23.77303 F1980.000
G1 X90.185 Y128.961 E23.78215
G1 X86.669 Y125.444 E23.92309
G1 X87.108 Y126.206 F7800.000
G1 X90.185 Y129.283 E24.04640 F1980.000
G1 X90.185 Y129.605 E24.05552
G1 X87.548 Y126.968 E24.16120
G1 X87.988 Y127.730 F7800.000
G1 X90.185 Y129.927 E24.24925 F1980.000
G1 X90.185 Y130.249 E24.25838
G1 X88.428 Y128.492 E24.32880
G1 X88.868 Y129.253 F7800.000
G1 X90.185 Y130.571 E24.38159 F1980.000
G1 X90.185 Y130.893 E24.39072
G1 X89.308 Y130.015 E24.42588
G1 X89.748 Y130.777 F7800.000
G1 X90.185 Y131.215 E24.44342 F1980.000
G1 F1800.000 E23.44342
G92 E0
G1 X108.263 Y111.175 F7800.000
G1 E1.00000 F1800.000
G1 X100.268 Y115.791 E1.26163 F1620.000
G1 X97.670 Y115.791 E1.33525
G1 X97.670 Y100.425 E1.77070
G1 X100.268 Y100.425 E1.84432
G1 X118.978 Y111.228 E2.45658
G1 X119.319 Y111.460 E2.46828
G1 X119.613 Y111.733 E2.47964
G1 X119.863 Y112.046 E2.49100
G1 X120.063 Y112.394 E2.50236
G1 X120.210 Y112.767 E2.51372
G1 X120.299 Y113.157 E2.52508
G1 X120.330 Y113.569 E2.53677
G1 X120.330 Y131.380 E3.04152
G1 X120.307 Y131.479 E3.04439
G1 X120.222 Y131.558 E3.04770
G1 X120.135 Y131.574 E3.05020
G1 X120.078 Y131.561 E3.05188
G1 X119.982 Y131.473 E3.05555
G1 X108.293 Y111.227 E3.71807
G1 X108.180 Y111.485 F7800.000
G1 X100.329 Y116.018 E3.97499 F1620.000
G1 X97.443 Y116.018 E4.05677
G1 X97.443 Y100.198 E4.50510
G1 X100.329 Y100.198 E4.58688
G1 X119.099 Y111.035 E5.20111
G1 X119.461 Y111.282 E5.21353
G1 X119.780 Y111.578 E5.22585
G1 X120.051 Y111.918 E5.23818
G1 X120.269 Y112.295 E5.25050
G1 X120.428 Y112.700 E5.26283
G1 X120.524 Y113.123 E5.27515
G1 X120.557 Y113.561 E5.28757
G1 X120.557 Y131.389 E5.79282
G1 X120.508 Y131.586 E5.79857
G1 X120.427 Y131.692 E5.80235
G1 X120.316 Y131.766 E5.80613
G1 X120.120 Y131.802 E5.81177
G1 X119.990 Y131.771 E5.81556
G1 X119.877 Y131.701 E5.81934
G1 X119.790 Y131.595 E5.82323
G1 X108.210 Y111.537 E6.47957
G1 X107.980 Y111.139 F7800.000
G1 X108.114 Y111.094 F7800.000
G1 X97.815 Y100.794 E6.89235 F1980.000
G1 X97.815 Y101.116 E6.90148
G1 X107.910 Y111.212 E7.30608
G1 X107.706 Y111.329 E7.31276
G1 X97.815 Y101.438 E7.70918
G1 X97.815 Y101.760 E7.71830
G1 X107.502 Y111.447 E8.10654
G1 X107.298 Y111.565 E8.11322
G1 X97.815 Y102.082 E8.49327
G1 X97.815 Y102.404 E8.50240
G1 X107.094 Y111.683 E8.87427
G1 X106.890 Y111.801 E8.88095
G1 X97.815 Y102.726 E9.24465
G1 X97.815 Y103.048 E9.25377
G1 X106.685 Y111.919 E9.60928
G1 X106.481 Y112.037 E9.61596
G1 X97.815 Y103.370 E9.96329
G1 X97.815 Y103.692 E9.97242
G1 X106.277 Y112.155 E10.31157
G1 X106.073 Y112.272 E10.31825
G1 X97.815 Y104.014 E10.64921
G1 X97.815 Y104.336 E10.65834
G1 X105.869 Y112.390 E10.98112
G1 X105.665 Y112.508 E10.98780
G1 X97.815 Y104.658 E11.30241
G1 X97.815 Y104.980 E11.31153
G1 X105.461 Y112.626 E11.61795
G1 X105.256 Y112.744 E11.62463
G1 X97.815 Y105.302 E11.92287
G1 X97.815 Y105.624 E11.93200
G1 X105.052 Y112.862 E12.22206
G1 X104.848 Y112.980 E12.22874
G1 X97.815 Y105.946 E12.51062
G1 X97.815 Y106.268 E12.51974
G1 X104.644 Y113.097 E12.79344
G1 X104.440 Y113.215 E12.80012
G1 X97.815 Y106.590 E13.06563
G1 X97.815 Y106.912 E13.07476
G1 X104.236 Y113.333 E13.33209
G1 X104.032 Y113.451 E13.33877
G1 X97.815 Y107.234 E13.58792
G1 X97.815 Y107.556 E13.59705
G1 X103.827 Y113.569 E13.83802
G1 X103.623 Y113.687 E13.84470
G1 X97.815 Y107.878 E14.07749
G1 X97.815 Y108.200 E14.08661
G1 X103.419 Y113.805 E14.31122
G1 X103.215 Y113.922 E14.31790
G1 X97.815 Y108.522 E14.53433
G1 X97.815 Y108.844 E14.54345
G1 X103.011 Y114.040 E14.75170
G1 X102.807 Y114.158 E14.75838
G1 X97.815 Y109.166 E14.95844
G1 X97.815 Y109.488 E14.96756
G1 X102.603 Y114.276 E15.15945
G1 X102.398 Y114.394 E15.16613
G1 X97.815 Y109.810 E15.34983
G1 X97.815 Y110.132 E15.35895
G1 X102.194 Y114.512 E15.53447
G1 X101.990 Y114.630 E15.54115
G1 X97.815 Y110.454 E15.70849
G1 X97.815 Y110.776 E15.71761
G1 X101.786 Y114.747 E15.87677
G1 X101.582 Y114.865 E15.88345
G1 X97.815 Y111.098 E16.03442
G1 X97.815 Y111.420 E16.04355
G1 X101.378 Y114.983 E16.18634
G1 X101.174 Y115.101 E16.19302
G1 X97.815 Y111.742 E16.32763
G1 X97.815 Y112.064 E16.33675
G1 X100.969 Y115.219 E16.46318
G1 X100.765 Y115.337 E16.46986
G1 X97.815 Y112.386 E16.58811
G1 X97.815 Y112.708 E16.59724
G1 X100.561 Y115.455 E16.70730
G1 X100.357 Y115.572 E16.71398
G1 X97.815 Y113.030 E16.81587
G1 X97.815 Y113.352 E16.82499
G1 X100.109 Y115.646 E16.91693
G1 X99.787 Y115.646 E16.92606
G1 X97.815 Y113.674 E17.00509
G1 X97.815 Y113.996 E17.01422
G1 X99.465 Y115.646 E17.08034
G1 X99.143 Y115.646 E17.08947
G1 X97.815 Y114.318 E17.14269
G1 X97.815 Y114.640 E17.15182
G1 X98.821 Y115.646 E17.19214
G1 X98.499 Y115.646 E17.20126
G1 X97.815 Y114.962 E17.22867
G1 X97.815 Y115.284 E17.23780
G1 X98.177 Y115.646 E17.25231
G1 X97.855 Y115.646 E17.26143
G1 X97.815 Y115.606 E17.26304
G1 F1800.000 E16.26304
G92 E0
G1 X108.751 Y111.730 F7800.000
G1 E1.00000 F1800.000
G1 X120.185 Y123.165 E1.45825 F1980.000
G1 X120.185 Y122.843 E1.46738
G1 X97.913 Y100.570 E2.36001
G1 X98.235 Y100.570 E2.36913
G1 X120.185 Y122.521 E3.24885
G1 X120.185 Y122.199 E3.25798
G1 X98.557 Y100.570 E4.12480
G1 X98.879 Y100.570 E4.13392
G1 X120.185 Y121.877 E4.98783
G1 X120.185 Y121.555 E4.99696
G1 X99.201 Y100.570 E5.83797
G1 X99.523 Y100.570 E5.84709
G1 X120.185 Y121.233 E6.67519
G1 X120.185 Y120.911 E6.68432
G1 X99.845 Y100.570 E7.49952
G1 X100.167 Y100.570 E7.50864
G1 X120.185 Y120.589 E8.31093
G1 X120.185 Y120.267 E8.32006
G1 X100.843 Y100.925 E9.09523
G1 X101.605 Y101.365 F7800.000
G1 X120.185 Y119.945 E9.83987 F1980.000
G1 X120.185 Y119.623 E9.84899
G1 X102.367 Y101.805 E10.56310
G1 X103.129 Y102.244 F7800.000
G1 X120.185 Y119.301 E11.24667 F1980.000
G1 X120.185 Y118.979 E11.25580
G1 X103.891 Y102.684 E11.90883
G1 X104.653 Y103.124 F7800.000
