; generated by Slic3r 1.1.7 on 2015-02-26 at 12:09:28

; perimeters extrusion width = 0.40mm
; infill extrusion width = 0.40mm
; solid infill extrusion width = 0.40mm
; top infill extrusion width = 0.40mm

G21 ; set units to millimeters
M107
M190 S60 ; wait for bed temperature to be reached
M104 S190 ; set temperature
G28 ; home all axes
G1 Z5 F5000 ; lift nozzle
M109 S190 ; wait for temperature to be reached
G90 ; use absolute coordinates
G92 E0
M82 ; use absolute distances for extrusion
G1 F1800.000 E-1.00000
G92 E0
G1 Z0.300 F7800.000
G1 X48.084 Y53.317 F7800.000
G1 E1.00000 F1800.000
G1 X49.831 Y51.877 E1.06415 F1080.000
G1 X53.000 Y51.046 E1.15700
G1 X143.000 Y51.046 E3.70753
G1 X145.228 Y51.442 E3.77167
G1 X147.183 Y52.584 E3.83582 F1080.000
G1 X148.623 Y54.331 E3.89997
G1 X149.454 Y57.500 E3.99282
G1 X149.454 Y102.500 E5.26808
G1 X149.058 Y104.728 E5.33223
G1 X147.564 Y107.064 E5.41079
G1 X145.564 Y109.064 E5.49095
G1 X143.708 Y110.359 E5.55509
G1 X141.000 Y110.954 E5.63366
G1 X55.000 Y110.954 E8.07083
G1 X52.772 Y110.558 E8.13497
G1 X50.436 Y109.064 E8.21354
G1 X48.436 Y107.064 E8.29369
G1 X47.141 Y105.208 E8.35784
G1 X46.546 Y102.500 E8.43640
G1 X46.546 Y57.500 E9.71166
G1 X46.942 Y55.272 E9.77581
G1 X48.054 Y53.369 E9.83826
G1 X48.289 Y53.439 F7800.000
G1 X48.309 Y53.404 E9.83941 F1080.000
G1 X50.047 Y52.018 E9.90241
G1 X53.000 Y51.273 E9.98872
G1 X143.000 Y51.273 E12.53924
G1 X145.187 Y51.670 E12.60224
G1 X147.096 Y52.809 E12.66524 F1080.000
G1 X148.482 Y54.547 E12.72824
G1 X149.227 Y57.500 E12.81454
G1 X149.227 Y102.500 E14.08981
G1 X148.830 Y104.687 E14.15281
G1 X147.403 Y106.903 E14.22750
G1 X145.403 Y108.903 E14.30766
G1 X143.576 Y110.169 E14.37066
G1 X141.000 Y110.727 E14.44535
G1 X55.000 Y110.727 E16.88252
G1 X52.813 Y110.330 E16.94552
G1 X50.597 Y108.903 E17.02021
G1 X48.597 Y106.903 E17.10037
G1 X47.331 Y105.076 E17.16337
G1 X46.773 Y102.500 E17.23806
G1 X46.773 Y57.500 E18.51333
G1 X47.170 Y55.313 E18.57633
G1 X48.258 Y53.491 E18.63647
G1 F1800.000 E17.63647
G92 E0
G1 X129.527 Y81.527 F7800.000
G1 E1.00000 F1800.000
G1 X128.787 Y80.509 E1.03566 F1620.000
G1 X128.276 Y79.360 E1.07132
G1 X128.014 Y78.129 E1.10698
G1 X128.014 Y76.871 E1.14264
G1 X128.276 Y75.640 E1.17830
G1 X128.787 Y74.491 E1.21395
G1 X129.527 Y73.473 E1.24961
G1 X130.462 Y72.631 E1.28527
G1 X131.552 Y72.001 E1.32093
G1 X132.749 Y71.613 E1.35659
G1 X134.052 Y71.486 E1.39370
G1 X135.251 Y71.613 E1.42788 F1620.000
G1 X136.448 Y72.001 E1.46354
G1 X137.538 Y72.631 E1.49920
G1 X138.473 Y73.473 E1.53486
G1 X139.213 Y74.491 E1.57052
G1 X139.724 Y75.640 E1.60618
G1 X139.986 Y76.871 E1.64184
G1 X139.986 Y78.129 E1.67749
G1 X139.724 Y79.360 E1.71315
G1 X139.213 Y80.509 E1.74881
G1 X138.473 Y81.527 E1.78447
G1 X137.538 Y82.369 E1.82013
G1 X136.448 Y82.999 E1.85579
G1 X135.251 Y83.387 E1.89145
G1 X134.000 Y83.519 E1.92711
G1 X132.749 Y83.387 E1.96277
G1 X131.552 Y82.999 E1.99843
G1 X130.462 Y82.369 E2.03409
G1 X129.572 Y81.568 E2.06805
G1 X129.697 Y81.375 F7800.000
G1 X128.985 Y80.395 E2.10235 F1620.000
G1 X128.493 Y79.289 E2.13666
G1 X128.241 Y78.105 E2.17096
G1 X128.241 Y76.895 E2.20527
G1 X128.493 Y75.711 E2.23958
G1 X128.996 Y74.590 E2.27439
G1 X129.697 Y73.625 E2.30817
G1 X130.596 Y72.815 E2.34248
G1 X131.645 Y72.210 E2.37679
G1 X132.825 Y71.833 E2.41190
G1 X134.000 Y71.710 E2.44538 F1620.000
G1 X135.204 Y71.836 E2.47969
G1 X136.355 Y72.210 E2.51399
G1 X137.404 Y72.815 E2.54830
G1 X138.303 Y73.625 E2.58260
G1 X139.015 Y74.605 E2.61691
G1 X139.511 Y75.729 E2.65173
G1 X139.759 Y76.895 E2.68551
G1 X139.759 Y78.105 E2.71982
G1 X139.507 Y79.289 E2.75412
G1 X139.015 Y80.395 E2.78843
G1 X138.303 Y81.375 E2.82273
G1 X137.404 Y82.185 E2.85704
G1 X136.355 Y82.790 E2.89134
G1 X135.204 Y83.164 E2.92565
G1 X134.000 Y83.290 E2.95996
G1 X132.796 Y83.164 E2.99426
G1 X131.645 Y82.790 E3.02857
G1 X130.596 Y82.185 E3.06287
G1 X129.741 Y81.415 E3.09548
G1 F1800.000 E2.09548
G92 E0
G1 X132.825 Y71.433 F7800.000
G1 X129.721 Y104.183 F7800.000
G1 E1.00000 F1800.000
G1 X127.131 Y104.183 E1.07338 F1620.000
G1 X125.317 Y102.369 E1.14609
G1 X125.317 Y57.817 E2.40864
G1 X142.683 Y57.817 E2.90077
G1 X142.683 Y102.369 E4.16332
G1 X140.869 Y104.183 E4.23603
G1 X138.279 Y104.183 E4.30941
G1 X138.393 Y103.927 E4.31733
G1 X138.594 Y102.983 E4.34470
G1 X138.594 Y102.017 E4.37206
G1 X138.393 Y101.073 E4.39943
G1 X138.000 Y100.191 E4.42679
G1 X137.433 Y99.409 E4.45416
G1 X136.715 Y98.763 E4.48152
G1 X135.879 Y98.280 E4.50889
G1 X135.002 Y97.996 E4.53501
G1 X134.000 Y97.881 E4.56359
G1 X133.040 Y97.982 E4.59096
G1 X132.121 Y98.280 E4.61832
G1 X131.285 Y98.763 E4.64569
G1 X130.567 Y99.409 E4.67305
G1 X130.000 Y100.191 E4.70042
G1 X129.607 Y101.073 E4.72778
G1 X129.406 Y102.017 E4.75515
G1 X129.406 Y102.983 E4.78251
G1 X129.607 Y103.927 E4.80988
G1 X129.696 Y104.128 E4.81610
G1 X130.071 Y104.410 F7800.000
G1 X127.037 Y104.410 E4.90207 F1620.000
G1 X125.090 Y102.463 E4.98011
G1 X125.090 Y57.590 E6.25176
G1 X142.910 Y57.590 E6.75677
G1 X142.910 Y102.463 E8.02843
G1 X140.963 Y104.410 E8.10647
G1 X137.929 Y104.410 E8.19243
G1 X138.176 Y103.857 E8.20960
G1 X138.366 Y102.959 E8.23561
G1 X138.366 Y102.041 E8.26162
G1 X138.176 Y101.143 E8.28763
G1 X137.802 Y100.305 E8.31364
G1 X137.263 Y99.562 E8.33965
G1 X136.581 Y98.948 E8.36567
G1 X135.786 Y98.489 E8.39168
G1 X134.932 Y98.212 E8.41712
G1 X134.000 Y98.109 E8.44369
G1 X133.087 Y98.205 E8.46970
G1 X132.214 Y98.489 E8.49571
G1 X131.419 Y98.948 E8.52172
G1 X130.737 Y99.562 E8.54773
G1 X130.198 Y100.305 E8.57374
G1 X129.824 Y101.143 E8.59976
G1 X129.634 Y102.041 E8.62577
G1 X129.634 Y102.959 E8.65178
G1 X129.824 Y103.857 E8.67779
G1 X130.046 Y104.355 E8.69325
G1 X129.700 Y104.260 F7800.000
G1 X127.220 Y104.038 F7800.000
G1 X125.462 Y102.280 E8.76370 F1980.000
G1 X125.462 Y101.957 E8.77285
G1 X127.543 Y104.038 E8.85623
G1 X127.865 Y104.038 E8.86539
G1 X125.462 Y101.635 E8.96171
G1 X125.462 Y101.312 E8.97086
G1 X128.188 Y104.038 E9.08013
G1 X128.511 Y104.038 E9.08929
G1 X125.462 Y100.989 E9.21150
G1 X125.462 Y100.666 E9.22065
G1 X128.834 Y104.038 E9.35580
G1 X129.157 Y104.038 E9.36495
G1 X125.462 Y100.343 E9.51305
G1 X125.462 Y100.020 E9.52220
G1 X129.480 Y104.038 E9.68324
G1 X129.396 Y103.631 E9.69500
G1 X125.462 Y99.697 E9.85268
G1 X125.462 Y99.374 E9.86184
G1 X129.309 Y103.221 E10.01602
G1 X129.262 Y102.851 E10.02660
G1 X125.462 Y99.051 E10.17889
G1 X125.462 Y98.728 E10.18804
G1 X129.262 Y102.528 E10.34032
G1 X129.262 Y102.205 E10.34947
G1 X125.462 Y98.405 E10.50176
G1 X125.462 Y98.082 E10.51091
G1 X129.283 Y101.903 E10.66403
G1 X129.339 Y101.637 E10.67175
G1 X125.462 Y97.760 E10.82714
G1 X125.462 Y97.437 E10.83630
G1 X129.396 Y101.371 E10.99396
G1 X129.452 Y101.104 E11.00167
G1 X125.462 Y97.114 E11.16161
G1 X125.462 Y96.791 E11.17076
G1 X129.540 Y100.868 E11.33418
G1 X129.639 Y100.645 E11.34111
G1 X125.462 Y96.468 E11.50852
G1 X125.462 Y96.145 E11.51768
G1 X129.739 Y100.422 E11.68907
G1 X129.838 Y100.198 E11.69600
G1 X125.462 Y95.822 E11.87139
G1 X125.462 Y95.499 E11.88054
G1 X129.961 Y99.998 E12.06085
G1 X130.097 Y99.811 E12.06740
G1 X125.462 Y95.176 E12.25315
G1 X125.462 Y94.853 E12.26230
G1 X130.233 Y99.624 E12.45350
G1 X130.368 Y99.437 E12.46005
G1 X125.462 Y94.530 E12.65670
G1 X125.462 Y94.207 E12.66585
G1 X130.516 Y99.262 E12.86841
G1 X130.687 Y99.110 E12.87489
G1 X125.462 Y93.884 E13.08431
G1 X125.462 Y93.562 E13.09346
G1 X130.859 Y98.958 E13.30975
G1 X131.030 Y98.807 E13.31623
G1 X125.462 Y93.239 E13.53938
G1 X125.462 Y92.916 E13.54853
G1 X131.201 Y98.655 E13.77854
G1 X131.399 Y98.530 E13.78518
G1 X125.462 Y92.593 E14.02313
G1 X125.462 Y92.270 E14.03228
G1 X131.604 Y98.412 E14.27844
G1 X131.809 Y98.294 E14.28514
G1 X125.462 Y91.947 E14.53951
G1 X125.462 Y91.624 E14.54866
G1 X132.013 Y98.176 E14.81123
G1 X132.248 Y98.087 E14.81833
G1 X125.462 Y91.301 E15.09029
G1 X125.462 Y90.978 E15.09945
G1 X132.492 Y98.008 E15.38118
G1 X132.735 Y97.929 E15.38844
G1 X125.462 Y90.655 E15.67994
G1 X125.462 Y90.332 E15.68910
G1 X132.979 Y97.850 E15.99037
G1 X133.265 Y97.813 E15.99854
G1 X125.462 Y90.009 E16.31128
G1 X125.462 Y89.687 E16.32043
G1 X133.557 Y97.782 E16.64488
G1 X133.850 Y97.751 E16.65321
G1 X125.462 Y89.364 E16.98937
G1 X125.462 Y89.041 E16.99852
G1 X134.177 Y97.756 E17.34779
G1 X134.541 Y97.797 E17.35819
G1 X125.462 Y88.718 E17.72208
G1 X125.462 Y88.395 E17.73123
G1 X134.906 Y97.839 E18.10972
G1 X135.345 Y97.955 E18.12258
G1 X125.462 Y88.072 E18.51866
G1 X125.462 Y87.749 E18.52781
G1 X135.823 Y98.110 E18.94306
G1 X136.518 Y98.483 F7800.000
G1 X125.462 Y87.426 E19.38618 F1980.000
G1 X125.462 Y87.103 E19.39533
G1 X141.589 Y103.230 E20.04165
G1 X141.750 Y103.068 E20.04813
G1 X125.462 Y86.780 E20.70092
G1 X125.462 Y86.457 E20.71007
G1 X141.912 Y102.907 E21.36933
G1 X142.073 Y102.745 E21.37580
G1 X125.462 Y86.134 E22.04153
G1 X125.462 Y85.812 E22.05068
G1 X142.234 Y102.584 E22.72288
G1 X142.396 Y102.423 E22.72936
G1 X125.462 Y85.489 E23.40803
G1 X125.462 Y85.166 E23.41718
G1 X142.538 Y102.242 E24.10155
G1 X142.538 Y101.919 E24.11070
G1 X125.462 Y84.843 E24.79508
G1 X125.462 Y84.520 E24.80423
G1 X142.538 Y101.596 E25.48860
G1 X142.538 Y101.273 E25.49775
G1 X125.462 Y84.197 E26.18212
G1 X125.462 Y83.874 E26.19128
G1 X142.538 Y100.950 E26.87565
G1 X142.538 Y100.627 E26.88480
G1 X125.462 Y83.551 E27.56917
G1 X125.462 Y83.228 E27.57832
G1 X142.538 Y100.304 E28.26270
G1 X142.538 Y99.981 E28.27185
G1 X125.462 Y82.905 E28.95622
G1 X125.462 Y82.582 E28.96537
G1 X142.538 Y99.658 E29.64974
G1 X142.538 Y99.336 E29.65889
G1 X125.462 Y82.259 E30.34327
G1 X125.462 Y81.936 E30.35242
G1 X142.538 Y99.013 E31.03679
G1 X142.538 Y98.690 E31.04594
G1 X125.462 Y81.614 E31.73031
G1 X125.462 Y81.291 E31.73946
G1 X142.538 Y98.367 E32.42384
G1 X142.538 Y98.044 E32.43299
G1 X125.462 Y80.968 E33.11736
G1 X125.462 Y80.645 E33.12651
G1 X142.538 Y97.721 E33.81088
G1 X142.538 Y97.398 E33.82004
G1 X125.462 Y80.322 E34.50441
G1 X125.462 Y79.999 E34.51356
G1 X142.538 Y97.075 E35.19793
G1 X142.538 Y96.752 E35.20708
G1 X125.462 Y79.676 E35.89146
G1 X125.462 Y79.353 E35.90061
G1 X142.538 Y96.429 E36.58498
G1 X142.538 Y96.106 E36.59413
G1 X125.462 Y79.030 E37.27850
G1 X125.462 Y78.707 E37.28765
G1 X142.538 Y95.783 E37.97203
G1 X142.538 Y95.461 E37.98118
G1 X125.462 Y78.384 E38.66555
G1 X125.462 Y78.061 E38.67470
G1 X142.538 Y95.138 E39.35907
G1 X142.538 Y94.815 E39.36823
G1 X125.462 Y77.739 E40.05260
G1 X125.462 Y77.416 E40.06175
G1 X128.749 Y80.702 E40.19348
G1 X128.429 Y80.059 F7800.000
G1 X125.462 Y77.093 E40.31238 F1980.000
G1 X125.462 Y76.770 E40.32153
G1 X128.169 Y79.477 E40.43004
G1 X128.061 Y79.046 E40.44265
G1 X125.462 Y76.447 E40.54681
G1 X125.462 Y76.124 E40.55596
G1 X127.974 Y78.636 E40.65663
G1 X127.887 Y78.226 E40.66851
G1 X125.462 Y75.801 E40.76569
G1 X125.462 Y75.478 E40.77484
G1 X127.869 Y77.885 E40.87132
G1 X127.869 Y77.563 E40.88047
G1 X125.462 Y75.155 E40.97696
G1 X125.462 Y74.832 E40.98611
G1 X127.869 Y77.240 E41.08259
G1 X127.869 Y76.917 E41.09174
G1 X125.462 Y74.509 E41.18823
G1 X125.462 Y74.186 E41.19738
G1 X127.915 Y76.640 E41.29570
G1 X127.972 Y76.373 E41.30341
G1 X125.462 Y73.864 E41.40400
G1 X125.462 Y73.541 E41.41316
G1 X128.028 Y76.107 E41.51602
G1 X128.085 Y75.841 E41.52373
G1 X125.462 Y73.218 E41.62886
G1 X125.462 Y72.895 E41.63801
G1 X128.145 Y75.578 E41.74554
G1 X128.244 Y75.354 E41.75247
G1 X125.462 Y72.572 E41.86399
G1 X125.462 Y72.249 E41.87314
G1 X128.344 Y75.131 E41.98864
G1 X128.443 Y74.907 E41.99557
G1 X125.462 Y71.926 E42.11506
G1 X125.462 Y71.603 E42.12421
G1 X128.543 Y74.684 E42.24769
G1 X128.642 Y74.461 E42.25462
G1 X125.462 Y71.280 E42.38209
G1 X125.462 Y70.957 E42.39124
G1 X128.771 Y74.267 E42.52387
G1 X128.907 Y74.080 E42.53042
G1 X125.462 Y70.634 E42.66850
G1 X125.462 Y70.311 E42.67765
G1 X129.043 Y73.893 E42.82117
G1 X129.179 Y73.705 E42.82772
G1 X125.462 Y69.988 E42.97669
G1 X125.462 Y69.666 E42.98584
G1 X129.315 Y73.518 E43.14026
G1 X129.459 Y73.339 E43.14677
G1 X125.462 Y69.343 E43.30695
G1 X125.462 Y69.020 E43.31610
G1 X129.629 Y73.186 E43.48309
G1 X129.799 Y73.033 E43.48957
G1 X125.462 Y68.697 E43.66337
G1 X125.462 Y68.374 E43.67252
G1 X129.968 Y72.880 E43.85313
G1 X130.138 Y72.727 E43.85961
G1 X125.462 Y68.051 E44.04703
G1 X125.462 Y67.728 E44.05618
G1 X130.308 Y72.574 E44.25041
G1 X130.499 Y72.442 E44.25699
G1 X125.462 Y67.405 E44.45886
G1 X125.462 Y67.082 E44.46802
G1 X130.704 Y72.324 E44.67809
G1 X130.908 Y72.206 E44.68479
G1 X125.462 Y66.759 E44.90308
G1 X125.462 Y66.436 E44.91223
G1 X131.113 Y72.088 E45.13872
G1 X131.318 Y71.969 E45.14542
G1 X125.462 Y66.113 E45.38011
G1 X125.462 Y65.791 E45.38926
G1 X131.528 Y71.857 E45.63239
G1 X131.774 Y71.780 E45.63969
G1 X125.462 Y65.468 E45.89265
G1 X125.462 Y65.145 E45.90181
G1 X132.019 Y71.702 E46.16461
G1 X132.265 Y71.625 E46.17191
G1 X125.462 Y64.822 E46.44455
G1 X125.462 Y64.499 E46.45370
G1 X132.510 Y71.547 E46.73618
G1 X132.756 Y71.470 E46.74348
G1 X125.462 Y64.176 E47.03579
G1 X125.462 Y63.853 E47.04494
G1 X133.045 Y71.436 E47.34885
G1 X133.337 Y71.405 E47.35718
G1 X125.462 Y63.530 E47.67279
G1 X125.462 Y63.207 E47.68194
G1 X133.629 Y71.375 E48.00927
G1 X133.921 Y71.344 E48.01760
G1 X125.462 Y62.884 E48.35664
G1 X125.462 Y62.561 E48.36579
G1 X134.264 Y71.363 E48.71855
G1 X134.625 Y71.401 E48.72883
G1 X125.462 Y62.238 E49.09606
G1 X125.462 Y61.916 E49.10521
G1 X134.986 Y71.439 E49.48689
G1 X135.368 Y71.498 E49.49784
G1 X125.462 Y61.593 E49.89484
G1 X125.462 Y61.270 E49.90399
G1 X135.846 Y71.654 E50.32015
G1 X136.324 Y71.809 E50.33440
G1 X125.462 Y60.947 E50.76974
G1 X125.462 Y60.624 E50.77889
G1 X136.979 Y72.141 E51.24046
G1 X138.130 Y72.969 F7800.000
G1 X125.462 Y60.301 E51.74818 F1980.000
G1 X125.462 Y59.978 E51.75733
G1 X142.538 Y77.054 E52.44170
G1 X142.538 Y76.731 E52.45085
G1 X125.462 Y59.655 E53.13523
G1 X125.462 Y59.332 E53.14438
G1 X142.538 Y76.408 E53.82875
G1 X142.538 Y76.085 E53.83790
G1 X125.462 Y59.009 E54.52227
G1 X125.462 Y58.686 E54.53142
G1 X142.538 Y75.762 E55.21580
G1 X142.538 Y75.440 E55.22495
G1 X125.462 Y58.363 E55.90932
G1 X125.462 Y58.040 E55.91847
G1 X142.538 Y75.117 E56.60284
G1 X142.538 Y74.794 E56.61200
G1 X125.706 Y57.962 E57.28657
G1 X126.029 Y57.962 E57.29573
G1 X142.538 Y74.471 E57.95736
G1 X142.538 Y74.148 E57.96651
G1 X126.352 Y57.962 E58.61521
G1 X126.675 Y57.962 E58.62436
G1 X142.538 Y73.825 E59.26011
G1 X142.538 Y73.502 E59.26926
G1 X126.998 Y57.962 E59.89208
G1 X127.321 Y57.962 E59.90123
G1 X142.538 Y73.179 E60.51110
G1 X142.538 Y72.856 E60.52025
G1 X127.644 Y57.962 E61.11718
G1 X127.967 Y57.962 E61.12633
G1 X142.538 Y72.533 E61.71031
G1 X142.538 Y72.210 E61.71946
G1 X128.290 Y57.962 E62.29051
G1 X128.613 Y57.962 E62.29966
G1 X142.538 Y71.887 E62.85776
G1 X142.538 Y71.565 E62.86691
G1 X128.935 Y57.962 E63.41207
G1 X129.258 Y57.962 E63.42123
G1 X142.538 Y71.242 E63.95344
G1 X142.538 Y70.919 E63.96260
G1 X129.581 Y57.962 E64.48187
G1 X129.904 Y57.962 E64.49102
G1 X142.538 Y70.596 E64.99736
G1 X142.538 Y70.273 E65.00651
G1 X130.227 Y57.962 E65.49990
G1 X130.550 Y57.962 E65.50905
G1 X142.538 Y69.950 E65.98950
G1 X142.538 Y69.627 E65.99866
G1 X130.873 Y57.962 E66.46617
G1 X131.196 Y57.962 E66.47532
G1 X142.538 Y69.304 E66.92988
G1 X142.538 Y68.981 E66.93904
G1 X131.519 Y57.962 E67.38066
G1 X131.842 Y57.962 E67.38981
G1 X142.538 Y68.658 E67.81850
G1 X142.538 Y68.335 E67.82765
G1 X132.165 Y57.962 E68.24339
G1 X132.488 Y57.962 E68.25254
G1 X142.538 Y68.012 E68.65534
G1 X142.538 Y67.689 E68.66449
G1 X132.811 Y57.962 E69.05435
G1 X133.133 Y57.962 E69.06350
G1 X142.538 Y67.367 E69.44042
G1 X142.538 Y67.044 E69.44957
G1 X133.456 Y57.962 E69.81354
G1 X133.779 Y57.962 E69.82270
G1 X142.538 Y66.721 E70.17373
G1 X142.538 Y66.398 E70.18288
G1 X134.102 Y57.962 E70.52097
G1 X134.425 Y57.962 E70.53012
G1 X142.538 Y66.075 E70.85527
G1 X142.538 Y65.752 E70.86442
G1 X134.748 Y57.962 E71.17663
G1 X135.071 Y57.962 E71.18578
G1 X142.538 Y65.429 E71.48505
G1 X142.538 Y65.106 E71.49420
G1 X135.394 Y57.962 E71.78052
G1 X135.717 Y57.962 E71.78967
G1 X142.538 Y64.783 E72.06305
G1 X142.538 Y64.460 E72.07221
G1 X136.040 Y57.962 E72.33265
