; generated by Slic3r 1.1.7 on 2015-02-27 at 16:20:09

; perimeters extrusion width = 0.40mm
; infill extrusion width = 0.40mm
; solid infill extrusion width = 0.40mm
; top infill extrusion width = 0.40mm

G21 ; set units to millimeters
M107
M190 S60 ; wait for bed temperature to be reached
M104 S190 ; set temperature
G28 ; home all axes
G1 Z5 F5000 ; lift nozzle
M109 S190 ; wait for temperature to be reached
G90 ; use absolute coordinates
G92 E0
M82 ; use absolute distances for extrusion
G1 F1800.000 E-1.00000
G92 E0
G1 Z0.300 F7800.000
G1 X34.241 Y47.550 F7800.000
G1 E1.00000 F1800.000
G1 X61.980 Y27.574 E1.96872 F1080.000
G1 X64.021 Y26.594 E2.03287
G1 X65.752 Y26.358 E2.08239
G1 X128.982 Y26.358 E3.87428
G1 X131.210 Y26.754 E3.93842
G1 X133.546 Y28.248 E4.01699 F1080.000
G1 X136.546 Y31.248 E4.13722
G1 X137.841 Y33.104 E4.20137
G1 X138.436 Y35.812 E4.27993
G1 X138.436 Y129.810 E6.94375
G1 X138.134 Y131.764 E6.99979
G1 X131.656 Y152.160 E7.60624
G1 X130.603 Y154.164 E7.67039
G1 X128.988 Y155.639 E7.73237
G1 X111.864 Y166.621 E8.30887
G1 X109.774 Y167.490 E8.37302
G1 X108.380 Y167.642 E8.41277
G1 X33.460 Y167.642 E10.53593
G1 X31.232 Y167.246 E10.60008
G1 X29.278 Y166.104 E10.66422
G1 X27.838 Y164.357 E10.72837
G1 X27.006 Y161.188 E10.82122
G1 X27.006 Y57.662 E13.75506
G1 X27.219 Y56.019 E13.80202
G1 X27.733 Y54.064 E13.85932
G1 X29.414 Y51.140 E13.95486
G1 X30.246 Y50.426 E13.98595
G1 X34.192 Y47.585 E14.12376
G1 X34.374 Y47.734 F7800.000
G1 X62.113 Y27.759 E15.09248 F1080.000
G1 X64.120 Y26.802 E15.15548
G1 X65.752 Y26.585 E15.20214
G1 X128.982 Y26.585 E16.99403
G1 X131.169 Y26.982 E17.05702
G1 X133.385 Y28.409 E17.13172 F1080.000
G1 X136.385 Y31.409 E17.25195
G1 X137.651 Y33.236 E17.31495
G1 X138.209 Y35.812 E17.38965
G1 X138.209 Y129.810 E20.05347
G1 X137.917 Y131.695 E20.10753
G1 X131.439 Y152.091 E20.71399
G1 X130.399 Y154.056 E20.77699
G1 X128.866 Y155.448 E20.83568
G1 X111.742 Y166.430 E21.41218
G1 X109.686 Y167.277 E21.47518
G1 X108.380 Y167.415 E21.51240
G1 X33.460 Y167.415 E23.63556
G1 X31.273 Y167.018 E23.69856
G1 X29.365 Y165.879 E23.76156
G1 X27.978 Y164.141 E23.82456
G1 X27.233 Y161.188 E23.91087
G1 X27.233 Y57.662 E26.84471
G1 X27.438 Y56.077 E26.89001
G1 X27.953 Y54.121 E26.94731
G1 X29.574 Y51.301 E27.03949
G1 X30.379 Y50.611 E27.06955
G1 X34.325 Y47.769 E27.20735
G1 F1800.000 E26.20735
G92 E0
G1 X126.982 Y124.194 F7800.000
G1 E1.00000 F1800.000
G1 X130.115 Y126.003 E1.10253 F1620.000
G1 X130.115 Y129.619 E1.20502
G1 X126.982 Y131.428 E1.30755
G1 X123.851 Y129.619 E1.41003
G1 X123.851 Y126.003 E1.51251
G1 X126.930 Y124.224 E1.61329
G1 X126.982 Y124.456 F7800.000
G1 X129.888 Y126.134 E1.70839 F1620.000
G1 X129.888 Y129.488 E1.80344
G1 X126.982 Y131.166 E1.89853
G1 X124.078 Y129.488 E1.99358
G1 X124.078 Y126.134 E2.08863
G1 X126.930 Y124.486 E2.18197
G1 X127.239 Y124.150 F7800.000
G1 X119.006 Y123.129 F7800.000
G1 X128.851 Y123.129 E2.46096 F1620.000
G1 X131.665 Y125.943 E2.57374
G1 X131.665 Y129.679 E2.67960
G1 X128.690 Y132.654 E2.79883
G1 X125.219 Y150.012 E3.30048
G1 X108.287 Y160.871 E3.87053
G1 X86.778 Y160.871 E4.48009
G1 X86.778 Y147.703 E4.85325
G1 X87.231 Y145.981 E4.90371
G1 X106.311 Y145.981 E5.44442
G1 X115.167 Y140.301 E5.74259
G1 X118.993 Y123.188 E6.23952
G1 X118.824 Y122.902 F7800.000
G1 X128.945 Y122.902 E6.52634 F1620.000
G1 X131.892 Y125.849 E6.64446
G1 X131.892 Y129.773 E6.75564
G1 X128.899 Y132.766 E6.87559
G1 X125.423 Y150.151 E7.37803
G1 X108.354 Y161.098 E7.95270
G1 X86.550 Y161.098 E8.57058
G1 X86.550 Y147.674 E8.95102
G1 X87.056 Y145.754 E9.00727
G1 X106.244 Y145.754 E9.55106
G1 X114.966 Y140.160 E9.84469
G1 X118.811 Y122.961 E10.34414
G1 X119.155 Y123.127 F7800.000
G1 X118.764 Y124.874 F7800.000
G1 X128.209 Y134.319 E10.72267 F1980.000
G1 X128.156 Y134.587 E10.73043
G1 X118.706 Y125.137 E11.10917
G1 X118.647 Y125.400 E11.11681
G1 X128.102 Y134.856 E11.49576
G1 X128.048 Y135.124 E11.50352
G1 X118.588 Y125.664 E11.88267
G1 X118.529 Y125.927 E11.89032
G1 X127.995 Y135.393 E12.26968
G1 X127.941 Y135.661 E12.27744
G1 X118.470 Y126.190 E12.65701
G1 X118.411 Y126.454 E12.66466
G1 X127.887 Y135.930 E13.04443
G1 X127.834 Y136.198 E13.05219
G1 X118.352 Y126.717 E13.43218
G1 X118.293 Y126.980 E13.43982
G1 X127.780 Y136.467 E13.82002
G1 X127.726 Y136.735 E13.82778
G1 X118.235 Y127.243 E14.20818
G1 X118.176 Y127.507 E14.21583
G1 X127.673 Y137.004 E14.59643
G1 X127.619 Y137.272 E14.60419
G1 X118.117 Y127.770 E14.98501
G1 X118.058 Y128.033 E14.99266
G1 X127.565 Y137.541 E15.37368
G1 X127.511 Y137.809 E15.38144
G1 X117.999 Y128.297 E15.76268
G1 X117.940 Y128.560 E15.77032
G1 X127.458 Y138.077 E16.15176
G1 X127.404 Y138.346 E16.15952
G1 X117.881 Y128.823 E16.54117
G1 X117.823 Y129.087 E16.54882
G1 X127.350 Y138.614 E16.93067
G1 X127.297 Y138.883 E16.93843
G1 X117.764 Y129.350 E17.32050
G1 X117.705 Y129.613 E17.32814
G1 X127.243 Y139.151 E17.71042
G1 X127.189 Y139.420 E17.71818
G1 X117.646 Y129.876 E18.10066
G1 X117.587 Y130.140 E18.10830
G1 X127.136 Y139.688 E18.49099
G1 X127.082 Y139.957 E18.49875
G1 X117.528 Y130.403 E18.88165
G1 X117.469 Y130.666 E18.88929
G1 X127.028 Y140.225 E19.27240
G1 X126.975 Y140.494 E19.28016
G1 X117.410 Y130.930 E19.66347
G1 X117.352 Y131.193 E19.67112
G1 X126.921 Y140.762 E20.05464
G1 X126.867 Y141.031 E20.06239
G1 X117.293 Y131.456 E20.44612
G1 X117.234 Y131.720 E20.45377
G1 X126.814 Y141.299 E20.83771
G1 X126.760 Y141.568 E20.84546
G1 X117.175 Y131.983 E21.22961
G1 X117.116 Y132.246 E21.23725
G1 X126.706 Y141.836 E21.62161
G1 X126.653 Y142.105 E21.62937
G1 X117.057 Y132.509 E22.01393
G1 X116.998 Y132.773 E22.02157
G1 X126.599 Y142.373 E22.40634
G1 X126.545 Y142.642 E22.41410
G1 X116.940 Y133.036 E22.79907
G1 X116.881 Y133.299 E22.80672
G1 X126.492 Y142.910 E23.19190
G1 X126.438 Y143.179 E23.19966
G1 X116.822 Y133.563 E23.58505
G1 X116.763 Y133.826 E23.59270
G1 X126.384 Y143.447 E23.97830
G1 X126.331 Y143.716 E23.98606
G1 X116.704 Y134.089 E24.37187
G1 X116.645 Y134.352 E24.37951
G1 X126.277 Y143.984 E24.76553
G1 X126.223 Y144.253 E24.77329
G1 X116.586 Y134.616 E25.15951
G1 X116.527 Y134.879 E25.16716
G1 X126.170 Y144.521 E25.55359
G1 X126.116 Y144.790 E25.56135
G1 X116.469 Y135.142 E25.94798
G1 X116.410 Y135.406 E25.95563
G1 X126.062 Y145.058 E26.34248
G1 X126.008 Y145.327 E26.35024
G1 X116.351 Y135.669 E26.73729
G1 X116.292 Y135.932 E26.74494
G1 X125.955 Y145.595 E27.13220
G1 X125.901 Y145.864 E27.13996
G1 X116.233 Y136.196 E27.52743
G1 X116.174 Y136.459 E27.53508
G1 X125.847 Y146.132 E27.92275
G1 X125.794 Y146.401 E27.93051
G1 X116.115 Y136.722 E28.31840
G1 X116.057 Y136.985 E28.32605
G1 X125.740 Y146.669 E28.71414
G1 X125.686 Y146.938 E28.72190
G1 X115.998 Y137.249 E29.11020
G1 X115.939 Y137.512 E29.11785
G1 X125.633 Y147.206 E29.50636
G1 X125.579 Y147.474 E29.51412
G1 X115.880 Y137.775 E29.90283
G1 X115.821 Y138.039 E29.91048
G1 X125.525 Y147.743 E30.29941
G1 X125.472 Y148.011 E30.30717
G1 X115.762 Y138.302 E30.69630
G1 X115.703 Y138.565 E30.70395
G1 X125.418 Y148.280 E31.09329
G1 X125.364 Y148.548 E31.10105
G1 X115.644 Y138.829 E31.49060
G1 X115.586 Y139.092 E31.49824
G1 X125.311 Y148.817 E31.88800
G1 X125.257 Y149.085 E31.89576
G1 X115.527 Y139.355 E32.28572
G1 X115.468 Y139.618 E32.29337
G1 X125.203 Y149.354 E32.68354
G1 X125.150 Y149.622 E32.69130
G1 X115.409 Y139.882 E33.08168
G1 X115.350 Y140.145 E33.08933
G1 X125.094 Y149.889 E33.47983
G1 X124.917 Y150.034 E33.48632
G1 X115.282 Y140.399 E33.87246
G1 X115.086 Y140.525 E33.87907
G1 X124.720 Y150.160 E34.26522
G1 X124.524 Y150.286 E34.27183
G1 X114.889 Y140.651 E34.65797
G1 X114.693 Y140.777 E34.66458
G1 X124.328 Y150.411 E35.05072
G1 X124.132 Y150.537 E35.05733
G1 X114.497 Y140.902 E35.44347
G1 X114.300 Y141.028 E35.45008
G1 X123.935 Y150.663 E35.83623
G1 X123.739 Y150.789 E35.84283
G1 X114.104 Y141.154 E36.22898
G1 X113.908 Y141.280 E36.23558
G1 X123.543 Y150.915 E36.62173
G1 X123.346 Y151.041 E36.62833
G1 X113.712 Y141.406 E37.01448
G1 X113.515 Y141.532 E37.02108
G1 X123.150 Y151.167 E37.40722
G1 X122.954 Y151.293 E37.41383
G1 X113.319 Y141.658 E37.79997
G1 X113.123 Y141.784 E37.80658
G1 X122.758 Y151.419 E38.19272
G1 X122.561 Y151.544 E38.19933
G1 X112.927 Y141.910 E38.58547
G1 X112.730 Y142.036 E38.59208
G1 X122.365 Y151.670 E38.97821
G1 X122.169 Y151.796 E38.98482
G1 X112.534 Y142.161 E39.37096
G1 X112.338 Y142.287 E39.37757
G1 X121.973 Y151.922 E39.76371
G1 X121.776 Y152.048 E39.77031
G1 X112.142 Y142.413 E40.15645
G1 X111.945 Y142.539 E40.16306
G1 X121.580 Y152.174 E40.54920
G1 X121.384 Y152.300 E40.55580
G1 X111.749 Y142.665 E40.94194
G1 X111.553 Y142.791 E40.94855
G1 X121.187 Y152.426 E41.33468
G1 X120.991 Y152.551 E41.34129
G1 X111.356 Y142.917 E41.72743
G1 X111.160 Y143.043 E41.73403
G1 X120.795 Y152.677 E42.12017
G1 X120.599 Y152.803 E42.12678
G1 X110.964 Y143.169 E42.51291
G1 X110.768 Y143.294 E42.51952
G1 X120.402 Y152.929 E42.90565
G1 X120.206 Y153.055 E42.91226
G1 X110.571 Y143.420 E43.29839
G1 X110.375 Y143.546 E43.30500
G1 X120.010 Y153.181 E43.69113
G1 X119.813 Y153.307 E43.69774
G1 X110.179 Y143.672 E44.08387
G1 X109.983 Y143.798 E44.09048
G1 X119.617 Y153.433 E44.47661
G1 X119.421 Y153.558 E44.48322
G1 X109.786 Y143.924 E44.86935
G1 X109.590 Y144.050 E44.87596
G1 X119.225 Y153.684 E45.26208
G1 X119.028 Y153.810 E45.26869
G1 X109.394 Y144.176 E45.65482
G1 X109.197 Y144.302 E45.66143
G1 X118.832 Y153.936 E46.04756
G1 X118.636 Y154.062 E46.05417
G1 X109.001 Y144.428 E46.44029
G1 X108.805 Y144.553 E46.44690
G1 X118.439 Y154.188 E46.83303
G1 X118.243 Y154.314 E46.83964
G1 X108.609 Y144.679 E47.22576
G1 X108.412 Y144.805 E47.23237
G1 X118.047 Y154.440 E47.61850
G1 X117.851 Y154.566 E47.62511
G1 X108.216 Y144.931 E48.01123
G1 X108.020 Y145.057 E48.01784
G1 X117.654 Y154.691 E48.40397
G1 X117.458 Y154.817 E48.41057
G1 X107.824 Y145.183 E48.79670
G1 X107.627 Y145.309 E48.80331
G1 X117.262 Y154.943 E49.18943
G1 X117.065 Y155.069 E49.19604
G1 X107.431 Y145.435 E49.58216
G1 X107.235 Y145.561 E49.58877
G1 X116.869 Y155.195 E49.97489
G1 X116.673 Y155.321 E49.98150
G1 X107.039 Y145.686 E50.36762
G1 X106.842 Y145.812 E50.37423
G1 X116.477 Y155.447 E50.76035
G1 X116.280 Y155.573 E50.76696
G1 X106.646 Y145.938 E51.15308
G1 X106.450 Y146.064 E51.15969
G1 X116.084 Y155.698 E51.54581
G1 X115.888 Y155.824 E51.55242
G1 X106.189 Y146.126 E51.94111
G1 X105.867 Y146.126 E51.95024
G1 X115.691 Y155.950 E52.34397
G1 X115.495 Y156.076 E52.35058
G1 X105.545 Y146.126 E52.74936
G1 X105.223 Y146.126 E52.75849
G1 X115.299 Y156.202 E53.16232
G1 X115.103 Y156.328 E53.16892
G1 X104.901 Y146.126 E53.57779
G1 X104.579 Y146.126 E53.58692
G1 X114.906 Y156.454 E54.00084
G1 X114.710 Y156.580 E54.00745
G1 X104.256 Y146.126 E54.42641
G1 X103.934 Y146.126 E54.43554
G1 X114.514 Y156.705 E54.85954
G1 X114.317 Y156.831 E54.86615
G1 X103.612 Y146.126 E55.29520
G1 X103.290 Y146.126 E55.30433
G1 X114.121 Y156.957 E55.73842
G1 X113.925 Y157.083 E55.74503
G1 X102.968 Y146.126 E56.18417
G1 X102.646 Y146.126 E56.19330
G1 X113.729 Y157.209 E56.63749
G1 X113.532 Y157.335 E56.64409
G1 X102.323 Y146.126 E57.09332
G1 X102.001 Y146.126 E57.10245
G1 X113.336 Y157.461 E57.55673
G1 X113.140 Y157.587 E57.56334
G1 X101.679 Y146.126 E58.02266
G1 X101.357 Y146.126 E58.03179
G1 X112.944 Y157.713 E58.49615
G1 X112.747 Y157.838 E58.50276
G1 X101.035 Y146.126 E58.97217
G1 X100.713 Y146.126 E58.98130
G1 X112.551 Y157.964 E59.45575
G1 X112.355 Y158.090 E59.46236
G1 X100.390 Y146.126 E59.94186
G1 X100.068 Y146.126 E59.95099
G1 X112.158 Y158.216 E60.43553
G1 X111.962 Y158.342 E60.44214
G1 X99.746 Y146.126 E60.93173
G1 X99.424 Y146.126 E60.94086
G1 X111.766 Y158.468 E61.43550
G1 X111.570 Y158.594 E61.44210
G1 X99.102 Y146.126 E61.94178
G1 X98.780 Y146.126 E61.95091
G1 X111.373 Y158.720 E62.45564
G1 X111.177 Y158.845 E62.46225
G1 X98.457 Y146.126 E62.97202
G1 X98.135 Y146.126 E62.98115
G1 X110.981 Y158.971 E63.49596
G1 X110.784 Y159.097 E63.50257
G1 X97.813 Y146.126 E64.02243
G1 X97.491 Y146.126 E64.03156
G1 X110.588 Y159.223 E64.55646
G1 X110.392 Y159.349 E64.56307
G1 X97.169 Y146.126 E65.09302
G1 X96.847 Y146.126 E65.10215
G1 X110.196 Y159.475 E65.63715
G1 X109.999 Y159.601 E65.64375
G1 X96.524 Y146.126 E66.18379
G1 X96.202 Y146.126 E66.19292
G1 X109.803 Y159.727 E66.73801
G1 X109.607 Y159.853 E66.74462
G1 X95.880 Y146.126 E67.29475
G1 X95.558 Y146.126 E67.30388
G1 X109.410 Y159.978 E67.85905
G1 X109.214 Y160.104 E67.86566
G1 X95.236 Y146.126 E68.42588
G1 X94.914 Y146.126 E68.43501
G1 X109.018 Y160.230 E69.00027
G1 X108.822 Y160.356 E69.00688
G1 X94.591 Y146.126 E69.57719
G1 X94.269 Y146.126 E69.58632
G1 X108.625 Y160.482 E70.16168
G1 X108.429 Y160.608 E70.16828
G1 X93.947 Y146.126 E70.74868
G1 X93.625 Y146.126 E70.75781
G1 X108.225 Y160.726 E71.34295
G1 X107.903 Y160.726 E71.35208
G1 X93.303 Y146.126 E71.93722
G1 X92.981 Y146.126 E71.94635
G1 X107.581 Y160.726 E72.53149
G1 X107.259 Y160.726 E72.54062
G1 X92.658 Y146.126 E73.12576
G1 X92.336 Y146.126 E73.13489
G1 X106.936 Y160.726 E73.72003
G1 X106.614 Y160.726 E73.72916
G1 X92.014 Y146.126 E74.31430
G1 X91.692 Y146.126 E74.32343
G1 X106.292 Y160.726 E74.90857
G1 X105.970 Y160.726 E74.91770
G1 X91.370 Y146.126 E75.50284
G1 X91.048 Y146.126 E75.51197
G1 X105.648 Y160.726 E76.09711
G1 X105.326 Y160.726 E76.10624
G1 X90.725 Y146.126 E76.69138
G1 X90.403 Y146.126 E76.70051
G1 X105.003 Y160.726 E77.28565
G1 X104.681 Y160.726 E77.29478
G1 X90.081 Y146.126 E77.87992
G1 X89.759 Y146.126 E77.88905
G1 X104.359 Y160.726 E78.47419
G1 X104.037 Y160.726 E78.48332
G1 X89.437 Y146.126 E79.06846
G1 X89.115 Y146.126 E79.07759
G1 X103.715 Y160.726 E79.66273
G1 X103.393 Y160.726 E79.67186
G1 X88.793 Y146.126 E80.25700
G1 X88.470 Y146.126 E80.26613
G1 X103.071 Y160.726 E80.85127
G1 X102.748 Y160.726 E80.86040
G1 X88.148 Y146.126 E81.44554
G1 X87.826 Y146.126 E81.45467
G1 X102.426 Y160.726 E82.03981
G1 X102.104 Y160.726 E82.04894
G1 X87.504 Y146.126 E82.63408
G1 X87.309 Y146.253 E82.64068
G1 X101.782 Y160.726 E83.22072
G1 X101.460 Y160.726 E83.22985
G1 X87.242 Y146.508 E83.79967
G1 X87.175 Y146.763 E83.80714
G1 X101.138 Y160.726 E84.36674
G1 X100.815 Y160.726 E84.37587
G1 X87.108 Y147.018 E84.92525
G1 X87.040 Y147.273 E84.93272
G1 X100.493 Y160.726 E85.47188
G1 X100.171 Y160.726 E85.48101
G1 X86.973 Y147.528 E86.00994
G1 X86.922 Y147.800 E86.01776
G1 X99.849 Y160.726 E86.53583
G1 X99.527 Y160.726 E86.54496
G1 X86.922 Y148.122 E87.05011
G1 X86.922 Y148.444 E87.05924
G1 X99.205 Y160.726 E87.55149
G1 X98.882 Y160.726 E87.56062
G1 X86.922 Y148.766 E88.03995
G1 X86.922 Y149.088 E88.04908
G1 X98.560 Y160.726 E88.51550
G1 X98.238 Y160.726 E88.52463
G1 X86.922 Y149.410 E88.97813
G1 X86.922 Y149.733 E88.98726
G1 X97.916 Y160.726 E89.42786
G1 X97.594 Y160.726 E89.43699
G1 X86.922 Y150.055 E89.86467
G1 X86.922 Y150.377 E89.87380
G1 X97.272 Y160.726 E90.28858
G1 X96.949 Y160.726 E90.29771
G1 X86.922 Y150.699 E90.69957
G1 X86.922 Y151.021 E90.70870
G1 X96.627 Y160.726 E91.09765
G1 X96.305 Y160.726 E91.10678
G1 X86.922 Y151.343 E91.48282
G1 X86.922 Y151.666 E91.49194
G1 X95.983 Y160.726 E91.85507
G1 X95.661 Y160.726 E91.86420
G1 X86.922 Y151.988 E92.21442
G1 X86.922 Y152.310 E92.22355
G1 X95.339 Y160.726 E92.56085
G1 X95.016 Y160.726 E92.56998
G1 X86.922 Y152.632 E92.89437
G1 X86.922 Y152.954 E92.90350
G1 X94.694 Y160.726 E93.21498
G1 X94.372 Y160.726 E93.22411
G1 X86.922 Y153.276 E93.52268
G1 X86.922 Y153.598 E93.53181
G1 X94.050 Y160.726 E93.81747
G1 X93.728 Y160.726 E93.82660
G1 X86.922 Y153.921 E94.09934
G1 X86.922 Y154.243 E94.10847
G1 X93.406 Y160.726 E94.36831
G1 X93.083 Y160.726 E94.37744
G1 X86.922 Y154.565 E94.62436
G1 X86.922 Y154.887 E94.63349
G1 X92.761 Y160.726 E94.86750
G1 X92.439 Y160.726 E94.87663
G1 X86.922 Y155.209 E95.09773
G1 X86.922 Y155.531 E95.10686
G1 X92.117 Y160.726 E95.31505
G1 X91.795 Y160.726 E95.32418
G1 X86.922 Y155.854 E95.51946
G1 X86.922 Y156.176 E95.52859
G1 X91.473 Y160.726 E95.71095
G1 X91.150 Y160.726 E95.72008
G1 X86.922 Y156.498 E95.88953
G1 X86.922 Y156.820 E95.89866
G1 X90.828 Y160.726 E96.05520
G1 X90.506 Y160.726 E96.06433
G1 X86.922 Y157.142 E96.20796
