; generated by Slic3r 1.1.7 on 2015-02-25 at 19:43:59

; perimeters extrusion width = 0.40mm
; infill extrusion width = 0.40mm
; solid infill extrusion width = 0.40mm
; top infill extrusion width = 0.40mm

G21 ; set units to millimeters
M107
M190 S60 ; wait for bed temperature to be reached
M104 S190 ; set temperature
G28 ; home all axes
G1 Z5 F5000 ; lift nozzle
M109 S190 ; wait for temperature to be reached
G90 ; use absolute coordinates
G92 E0
M82 ; use absolute distances for extrusion
G1 F1800.000 E-1.00000
G92 E0
G1 Z0.300 F7800.000
G1 X42.786 Y42.818 F7800.000
G1 E1.00000 F1800.000
G1 X44.533 Y41.378 E1.06415 F1080.000
G1 X47.702 Y40.547 E1.15700
G1 X128.298 Y40.547 E3.44103
G1 X130.527 Y40.943 E3.50518
G1 X132.481 Y42.085 E3.56932 F1080.000
G1 X133.921 Y43.832 E3.63347
G1 X134.753 Y47.001 E3.72632
G1 X134.753 Y148.999 E6.61686
G1 X134.356 Y151.227 E6.68101
G1 X133.214 Y153.182 E6.74516
G1 X131.467 Y154.622 E6.80930
G1 X128.298 Y155.453 E6.90216
G1 X47.702 Y155.453 E9.18619
G1 X45.473 Y155.057 E9.25033
G1 X43.519 Y153.915 E9.31448
G1 X42.079 Y152.168 E9.37863
G1 X41.247 Y148.999 E9.47148
G1 X41.247 Y47.001 E12.36202
G1 X41.644 Y44.773 E12.42617
G1 X42.756 Y42.870 E12.48861
G1 X42.990 Y42.940 F7800.000
G1 X43.011 Y42.905 E12.48977 F1080.000
G1 X44.749 Y41.518 E12.55276
G1 X47.702 Y40.774 E12.63907
G1 X128.298 Y40.774 E14.92310
G1 X130.485 Y41.171 E14.98610
G1 X132.394 Y42.310 E15.04910 F1080.000
G1 X133.781 Y44.048 E15.11210
G1 X134.525 Y47.001 E15.19840
G1 X134.525 Y148.999 E18.08895
G1 X134.129 Y151.186 E18.15194
G1 X132.989 Y153.095 E18.21494
G1 X131.251 Y154.482 E18.27794
G1 X128.298 Y155.226 E18.36425
G1 X47.702 Y155.226 E20.64828
G1 X45.515 Y154.829 E20.71128
G1 X43.606 Y153.690 E20.77428
G1 X42.219 Y151.952 E20.83727
G1 X41.475 Y148.999 E20.92358
G1 X41.475 Y47.001 E23.81412
G1 X41.871 Y44.814 E23.87712
G1 X42.960 Y42.992 E23.93727
G1 F1800.000 E22.93727
G92 E0
G1 X109.160 Y134.392 F7800.000
G1 E1.00000 F1800.000
G1 X109.159 Y148.455 E1.39854 F1620.000
G1 X106.246 Y148.455 E1.48109
G1 X106.246 Y101.545 E2.81046
G1 X127.754 Y101.545 E3.41996
G1 X127.754 Y148.455 E4.74933
G1 X124.844 Y148.455 E4.83177
G1 X124.844 Y134.392 E5.23031
G1 X109.220 Y134.392 E5.67310
G1 X109.387 Y134.619 F7800.000
G1 X109.387 Y148.682 E6.07163 F1620.000
G1 X106.019 Y148.682 E6.16707
G1 X106.019 Y101.318 E7.50931
G1 X127.981 Y101.318 E8.13169
G1 X127.981 Y148.682 E9.47394
G1 X124.617 Y148.682 E9.56926
G1 X124.617 Y134.619 E9.96780
G1 X109.447 Y134.619 E10.39771
G1 X109.614 Y134.846 F7800.000
G1 X109.614 Y148.909 E10.79625 F1620.000
G1 X105.792 Y148.909 E10.90456
G1 X105.792 Y101.091 E12.25968
G1 X128.208 Y101.091 E12.89494
G1 X128.208 Y148.909 E14.25006
G1 X124.390 Y148.909 E14.35826
G1 X124.390 Y134.846 E14.75680
G1 X109.674 Y134.846 E15.17384
G1 X109.214 Y134.846 F7800.000
G1 X106.431 Y148.310 F7800.000
G1 X106.391 Y148.270 E15.17544 F1980.000
G1 X106.391 Y147.947 E15.18458
G1 X106.754 Y148.310 E15.19912
G1 X107.076 Y148.310 E15.20826
G1 X106.391 Y147.625 E15.23573
G1 X106.391 Y147.302 E15.24487
G1 X107.399 Y148.310 E15.28527
G1 X107.722 Y148.310 E15.29441
G1 X106.391 Y146.979 E15.34774
G1 X106.391 Y146.657 E15.35688
G1 X108.044 Y148.310 E15.42314
G1 X108.367 Y148.310 E15.43229
G1 X106.391 Y146.334 E15.51148
G1 X106.391 Y146.011 E15.52062
G1 X108.690 Y148.310 E15.61274
G1 X109.012 Y148.310 E15.62189
G1 X106.391 Y145.689 E15.72694
G1 X106.391 Y145.366 E15.73608
G1 X109.015 Y147.990 E15.84124
G1 X109.015 Y147.667 E15.85038
G1 X106.391 Y145.043 E15.95553
G1 X106.391 Y144.721 E15.96468
G1 X109.015 Y147.344 E16.06983
G1 X109.015 Y147.022 E16.07897
G1 X106.391 Y144.398 E16.18413
G1 X106.391 Y144.075 E16.19327
G1 X109.015 Y146.699 E16.29843
G1 X109.015 Y146.376 E16.30757
G1 X106.391 Y143.753 E16.41273
G1 X106.391 Y143.430 E16.42187
G1 X109.015 Y146.054 E16.52702
G1 X109.015 Y145.731 E16.53617
G1 X106.391 Y143.107 E16.64132
G1 X106.391 Y142.785 E16.65047
G1 X109.015 Y145.409 E16.75562
G1 X109.015 Y145.086 E16.76477
G1 X106.391 Y142.462 E16.86992
G1 X106.391 Y142.139 E16.87907
G1 X109.015 Y144.763 E16.98423
G1 X109.015 Y144.441 E16.99337
G1 X106.391 Y141.817 E17.09853
G1 X106.391 Y141.494 E17.10767
G1 X109.015 Y144.118 E17.21283
G1 X109.015 Y143.795 E17.22197
G1 X106.391 Y141.171 E17.32713
G1 X106.391 Y140.849 E17.33627
G1 X109.015 Y143.473 E17.44143
G1 X109.015 Y143.150 E17.45058
G1 X106.391 Y140.526 E17.55574
G1 X106.391 Y140.203 E17.56488
G1 X109.015 Y142.827 E17.67004
G1 X109.015 Y142.505 E17.67918
G1 X106.391 Y139.881 E17.78434
G1 X106.391 Y139.558 E17.79349
G1 X109.015 Y142.182 E17.89865
G1 X109.015 Y141.859 E17.90779
G1 X106.391 Y139.236 E18.01295
G1 X106.391 Y138.913 E18.02209
G1 X109.015 Y141.537 E18.12726
G1 X109.015 Y141.214 E18.13640
G1 X106.391 Y138.590 E18.24156
G1 X106.391 Y138.268 E18.25071
G1 X109.015 Y140.892 E18.35587
G1 X109.015 Y140.569 E18.36501
G1 X106.391 Y137.945 E18.47017
G1 X106.391 Y137.622 E18.47932
G1 X109.015 Y140.246 E18.58448
G1 X109.015 Y139.924 E18.59362
G1 X106.391 Y137.300 E18.69879
G1 X106.391 Y136.977 E18.70793
G1 X109.015 Y139.601 E18.81310
G1 X109.015 Y139.278 E18.82224
G1 X106.391 Y136.654 E18.92740
G1 X106.391 Y136.332 E18.93655
G1 X109.015 Y138.956 E19.04171
G1 X109.015 Y138.633 E19.05086
G1 X106.391 Y136.009 E19.15602
G1 X106.391 Y135.686 E19.16516
G1 X109.015 Y138.310 E19.27033
G1 X109.015 Y137.988 E19.27947
G1 X106.391 Y135.364 E19.38464
G1 X106.391 Y135.041 E19.39378
G1 X109.015 Y137.665 E19.49895
G1 X109.015 Y137.342 E19.50809
G1 X106.391 Y134.718 E19.61326
G1 X106.391 Y134.396 E19.62240
G1 X109.015 Y137.020 E19.72757
G1 X109.015 Y136.697 E19.73672
G1 X106.391 Y134.073 E19.84188
G1 X106.391 Y133.750 E19.85103
G1 X109.015 Y136.374 E19.95619
G1 X109.015 Y136.052 E19.96534
G1 X106.391 Y133.428 E20.07051
G1 X106.391 Y133.105 E20.07965
G1 X109.015 Y135.729 E20.18482
G1 X109.015 Y135.407 E20.19396
G1 X106.391 Y132.782 E20.29913
G1 X106.391 Y132.460 E20.30828
G1 X109.015 Y135.084 E20.41345
G1 X109.015 Y134.761 E20.42259
G1 X106.391 Y132.137 E20.52776
G1 X106.391 Y131.814 E20.53690
G1 X109.015 Y134.439 E20.64208
G1 X109.146 Y134.247 E20.64866
G1 X106.391 Y131.492 E20.75907
G1 X106.391 Y131.169 E20.76821
G1 X109.469 Y134.247 E20.89156
G1 X109.791 Y134.247 E20.90070
G1 X106.391 Y130.846 E21.03698
G1 X106.391 Y130.524 E21.04612
G1 X110.114 Y134.247 E21.19533
G1 X110.437 Y134.247 E21.20448
G1 X106.391 Y130.201 E21.36662
G1 X106.391 Y129.879 E21.37576
G1 X110.759 Y134.247 E21.55083
G1 X111.082 Y134.247 E21.55997
G1 X106.391 Y129.556 E21.74798
G1 X106.391 Y129.233 E21.75712
G1 X111.405 Y134.247 E21.95805
G1 X111.727 Y134.247 E21.96720
G1 X106.391 Y128.911 E22.18106
G1 X106.391 Y128.588 E22.19021
G1 X112.050 Y134.247 E22.41700
G1 X112.373 Y134.247 E22.42615
G1 X106.391 Y128.265 E22.66587
G1 X106.391 Y127.943 E22.67502
G1 X112.695 Y134.247 E22.92768
G1 X113.018 Y134.247 E22.93682
G1 X106.391 Y127.620 E23.20241
G1 X106.391 Y127.297 E23.21155
G1 X113.341 Y134.247 E23.49007
G1 X113.663 Y134.247 E23.49922
G1 X106.391 Y126.975 E23.79067
G1 X106.391 Y126.652 E23.79981
G1 X113.986 Y134.247 E24.10420
G1 X114.309 Y134.247 E24.11334
G1 X106.391 Y126.329 E24.43066
G1 X106.391 Y126.007 E24.43980
G1 X114.631 Y134.247 E24.77005
G1 X114.954 Y134.247 E24.77919
G1 X106.391 Y125.684 E25.12237
G1 X106.391 Y125.361 E25.13151
G1 X115.277 Y134.247 E25.48762
G1 X115.599 Y134.247 E25.49677
G1 X106.391 Y125.039 E25.86581
G1 X106.391 Y124.716 E25.87495
G1 X115.922 Y134.247 E26.25692
G1 X116.244 Y134.247 E26.26606
G1 X106.391 Y124.393 E26.66097
G1 X106.391 Y124.071 E26.67011
G1 X116.567 Y134.247 E27.07795
G1 X116.890 Y134.247 E27.08709
G1 X106.391 Y123.748 E27.50785
G1 X106.391 Y123.425 E27.51700
G1 X117.212 Y134.247 E27.95070
G1 X117.535 Y134.247 E27.95984
G1 X106.391 Y123.103 E28.40647
G1 X106.391 Y122.780 E28.41561
G1 X117.858 Y134.247 E28.87517
G1 X118.180 Y134.247 E28.88431
G1 X106.391 Y122.457 E29.35680
G1 X106.391 Y122.135 E29.36595
G1 X118.503 Y134.247 E29.85137
G1 X118.826 Y134.247 E29.86051
G1 X106.391 Y121.812 E30.35887
G1 X106.391 Y121.489 E30.36801
G1 X119.148 Y134.247 E30.87930
G1 X119.471 Y134.247 E30.88844
G1 X106.391 Y121.167 E31.41265
G1 X106.391 Y120.844 E31.42180
G1 X119.794 Y134.247 E31.95895
G1 X120.116 Y134.247 E31.96809
G1 X106.391 Y120.521 E32.51817
G1 X106.391 Y120.199 E32.52731
G1 X120.439 Y134.247 E33.09032
G1 X120.762 Y134.247 E33.09946
G1 X106.391 Y119.876 E33.67541
G1 X106.391 Y119.554 E33.68455
G1 X121.084 Y134.247 E34.27342
G1 X121.407 Y134.247 E34.28257
G1 X106.391 Y119.231 E34.88437
G1 X106.391 Y118.908 E34.89351
G1 X121.730 Y134.247 E35.50825
G1 X122.052 Y134.247 E35.51739
G1 X106.391 Y118.586 E36.14506
G1 X106.391 Y118.263 E36.15420
G1 X122.375 Y134.247 E36.79480
G1 X122.698 Y134.247 E36.80394
G1 X106.391 Y117.940 E37.45747
G1 X106.391 Y117.618 E37.46661
G1 X123.020 Y134.247 E38.13307
G1 X123.343 Y134.247 E38.14222
G1 X106.391 Y117.295 E38.82161
G1 X106.391 Y116.972 E38.83075
G1 X123.666 Y134.247 E39.52308
G1 X123.988 Y134.247 E39.53222
G1 X106.391 Y116.650 E40.23747
G1 X106.391 Y116.327 E40.24662
G1 X124.311 Y134.247 E40.96480
G1 X124.634 Y134.247 E40.97395
G1 X106.391 Y116.004 E41.70506
G1 X106.391 Y115.682 E41.71421
G1 X127.609 Y136.900 E42.56457
G1 X127.609 Y136.577 E42.57371
G1 X106.391 Y115.359 E43.42408
G1 X106.391 Y115.036 E43.43322
G1 X127.609 Y136.254 E44.28359
G1 X127.609 Y135.932 E44.29273
G1 X106.391 Y114.714 E45.14310
G1 X106.391 Y114.391 E45.15224
G1 X127.609 Y135.609 E46.00260
G1 X127.609 Y135.286 E46.01175
G1 X106.391 Y114.068 E46.86211
G1 X106.391 Y113.746 E46.87126
G1 X127.609 Y134.964 E47.72162
G1 X127.609 Y134.641 E47.73077
G1 X106.391 Y113.423 E48.58113
G1 X106.391 Y113.100 E48.59027
G1 X127.609 Y134.318 E49.44064
G1 X127.609 Y133.996 E49.44978
G1 X106.391 Y112.778 E50.30015
G1 X106.391 Y112.455 E50.30929
G1 X127.609 Y133.673 E51.15966
G1 X127.609 Y133.350 E51.16880
G1 X106.391 Y112.132 E52.01916
G1 X106.391 Y111.810 E52.02831
G1 X127.609 Y133.028 E52.87867
G1 X127.609 Y132.705 E52.88782
G1 X106.391 Y111.487 E53.73818
G1 X106.391 Y111.164 E53.74733
G1 X127.609 Y132.382 E54.59769
G1 X127.609 Y132.060 E54.60683
G1 X106.391 Y110.842 E55.45720
G1 X106.391 Y110.519 E55.46634
G1 X127.609 Y131.737 E56.31671
G1 X127.609 Y131.414 E56.32585
G1 X106.391 Y110.197 E57.17622
G1 X106.391 Y109.874 E57.18536
G1 X127.609 Y131.092 E58.03572
G1 X127.609 Y130.769 E58.04487
G1 X106.391 Y109.551 E58.89523
G1 X106.391 Y109.229 E58.90438
G1 X127.609 Y130.446 E59.75474
G1 X127.609 Y130.124 E59.76389
G1 X106.391 Y108.906 E60.61425
G1 X106.391 Y108.583 E60.62339
G1 X127.609 Y129.801 E61.47376
G1 X127.609 Y129.479 E61.48290
G1 X106.391 Y108.261 E62.33327
G1 X106.391 Y107.938 E62.34241
G1 X127.609 Y129.156 E63.19278
G1 X127.609 Y128.833 E63.20192
G1 X106.391 Y107.615 E64.05228
G1 X106.391 Y107.293 E64.06143
G1 X127.609 Y128.511 E64.91179
G1 X127.609 Y128.188 E64.92094
G1 X106.391 Y106.970 E65.77130
G1 X106.391 Y106.647 E65.78044
G1 X127.609 Y127.865 E66.63081
G1 X127.609 Y127.543 E66.63995
G1 X106.391 Y106.325 E67.49032
G1 X106.391 Y106.002 E67.49946
G1 X127.609 Y127.220 E68.34983
G1 X127.609 Y126.897 E68.35897
G1 X106.391 Y105.679 E69.20934
G1 X106.391 Y105.357 E69.21848
G1 X127.609 Y126.575 E70.06884
G1 X127.609 Y126.252 E70.07799
G1 X106.391 Y105.034 E70.92835
G1 X106.391 Y104.711 E70.93750
G1 X127.609 Y125.929 E71.78786
G1 X127.609 Y125.607 E71.79700
G1 X106.391 Y104.389 E72.64737
G1 X106.391 Y104.066 E72.65651
G1 X127.609 Y125.284 E73.50688
G1 X127.609 Y124.961 E73.51602
G1 X106.391 Y103.743 E74.36639
G1 X106.391 Y103.421 E74.37553
G1 X127.609 Y124.639 E75.22590
G1 X127.609 Y124.316 E75.23504
G1 X106.391 Y103.098 E76.08540
G1 X106.391 Y102.775 E76.09455
G1 X127.609 Y123.993 E76.94491
G1 X127.609 Y123.671 E76.95406
G1 X106.391 Y102.453 E77.80442
G1 X106.391 Y102.130 E77.81356
G1 X127.609 Y123.348 E78.66393
G1 X127.609 Y123.025 E78.67307
G1 X106.391 Y101.807 E79.52344
G1 X106.596 Y101.690 E79.53014
G1 X127.609 Y122.703 E80.37228
G1 X127.609 Y122.380 E80.38142
G1 X106.919 Y101.690 E81.21063
G1 X107.242 Y101.690 E81.21977
G1 X127.609 Y122.057 E82.03604
G1 X127.609 Y121.735 E82.04519
G1 X107.564 Y101.690 E82.84853
G1 X107.887 Y101.690 E82.85767
G1 X127.609 Y121.412 E83.64809
G1 X127.609 Y121.089 E83.65723
G1 X108.210 Y101.690 E84.43471
G1 X108.532 Y101.690 E84.44385
G1 X127.609 Y120.767 E85.20840
G1 X127.609 Y120.444 E85.21755
G1 X108.855 Y101.690 E85.96916
G1 X109.178 Y101.690 E85.97831
G1 X127.609 Y120.121 E86.71699
G1 X127.609 Y119.799 E86.72614
G1 X109.500 Y101.690 E87.45189
G1 X109.823 Y101.690 E87.46104
G1 X127.609 Y119.476 E88.17386
G1 X127.609 Y119.154 E88.18300
G1 X110.146 Y101.690 E88.88290
G1 X110.468 Y101.690 E88.89204
G1 X127.609 Y118.831 E89.57900
G1 X127.609 Y118.508 E89.58815
G1 X110.791 Y101.690 E90.26218
G1 X111.114 Y101.690 E90.27132
G1 X127.609 Y118.186 E90.93242
G1 X127.609 Y117.863 E90.94156
G1 X111.436 Y101.690 E91.58973
G1 X111.759 Y101.690 E91.59887
G1 X127.609 Y117.540 E92.23411
G1 X127.609 Y117.218 E92.24325
G1 X112.081 Y101.690 E92.86556
G1 X112.404 Y101.690 E92.87470
G1 X127.609 Y116.895 E93.48408
G1 X127.609 Y116.572 E93.49322
G1 X112.727 Y101.690 E94.08966
G1 X113.049 Y101.690 E94.09881
G1 X127.609 Y116.250 E94.68232
G1 X127.609 Y115.927 E94.69146
G1 X113.372 Y101.690 E95.26204
G1 X113.695 Y101.690 E95.27118
G1 X127.609 Y115.604 E95.82883
G1 X127.609 Y115.282 E95.83798
G1 X114.017 Y101.690 E96.38269
G1 X114.340 Y101.690 E96.39184
G1 X127.609 Y114.959 E96.92362
G1 X127.609 Y114.636 E96.93277
G1 X114.663 Y101.690 E97.45162
G1 X114.985 Y101.690 E97.46077
G1 X127.609 Y114.314 E97.96669
G1 X127.609 Y113.991 E97.97583
G1 X115.308 Y101.690 E98.46882
G1 X115.631 Y101.690 E98.47797
G1 X127.609 Y113.668 E98.95803
G1 X127.609 Y113.346 E98.96717
G1 X115.953 Y101.690 E99.43430
G1 X116.276 Y101.690 E99.44345
G1 X127.609 Y113.023 E99.89764
G1 X127.609 Y112.700 E99.90679
G1 X116.599 Y101.690 E100.34806
G1 X116.921 Y101.690 E100.35720
G1 X127.609 Y112.378 E100.78553
G1 X127.609 Y112.055 E100.79468
G1 X117.244 Y101.690 E101.21008
G1 X117.567 Y101.690 E101.21923
G1 X127.609 Y111.732 E101.62170
G1 X127.609 Y111.410 E101.63084
G1 X117.889 Y101.690 E102.02039
G1 X118.212 Y101.690 E102.02953
G1 X127.609 Y111.087 E102.40614
G1 X127.609 Y110.764 E102.41528
G1 X118.535 Y101.690 E102.77896
G1 X118.857 Y101.690 E102.78811
G1 X127.609 Y110.442 E103.13885
G1 X127.609 Y110.119 E103.14800
G1 X119.180 Y101.690 E103.48581
G1 X119.503 Y101.690 E103.49496
G1 X127.609 Y109.797 E103.81984
G1 X127.609 Y109.474 E103.82899
G1 X119.825 Y101.690 E104.14094
G1 X120.148 Y101.690 E104.15009
G1 X127.609 Y109.151 E104.44911
G1 X127.609 Y108.829 E104.45825
G1 X120.471 Y101.690 E104.74434
G1 X120.793 Y101.690 E104.75349
G1 X127.609 Y108.506 E105.02665
G1 X127.609 Y108.183 E105.03579
G1 X121.116 Y101.690 E105.29602
G1 X121.439 Y101.690 E105.30516
G1 X127.609 Y107.861 E105.55246
G1 X127.609 Y107.538 E105.56160
G1 X121.761 Y101.690 E105.79597
G1 X122.084 Y101.690 E105.80511
G1 X127.609 Y107.215 E106.02655
G1 X127.609 Y106.893 E106.03569
G1 X122.406 Y101.690 E106.24420
G1 X122.729 Y101.690 E106.25334
G1 X127.609 Y106.570 E106.44891
G1 X127.609 Y106.247 E106.45806
G1 X123.052 Y101.690 E106.64070
G1 X123.374 Y101.690 E106.64984
G1 X127.609 Y105.925 E106.81955
G1 X127.609 Y105.602 E106.82870
G1 X123.697 Y101.690 E106.98547
G1 X124.020 Y101.690 E106.99462
G1 X127.609 Y105.279 E107.13847
G1 X127.609 Y104.957 E107.14761
G1 X124.342 Y101.690 E107.27853
G1 X124.665 Y101.690 E107.28767
G1 X127.609 Y104.634 E107.40565
G1 X127.609 Y104.311 E107.41480
G1 X124.988 Y101.690 E107.51985
G1 X125.310 Y101.690 E107.52900
G1 X127.609 Y103.989 E107.62112
G1 X127.609 Y103.666 E107.63026
G1 X125.633 Y101.690 E107.70945
G1 X125.956 Y101.690 E107.71860
G1 X127.609 Y103.343 E107.78486
G1 X127.609 Y103.021 E107.79400
G1 X126.278 Y101.690 E107.84733
G1 X126.601 Y101.690 E107.85647
G1 X127.609 Y102.698 E107.89687
G1 X127.609 Y102.375 E107.90601
G1 X126.924 Y101.690 E107.93348
G1 X127.246 Y101.690 E107.94262
G1 X127.609 Y102.053 E107.95716
G1 X127.609 Y101.730 E107.96630
G1 X127.569 Y101.690 E107.96790
