; generated by Slic3r 1.1.7 on 2015-02-25 at 12:43:24

; perimeters extrusion width = 0.40mm
; infill extrusion width = 0.40mm
; solid infill extrusion width = 0.40mm
; top infill extrusion width = 0.40mm

G21 ; set units to millimeters
M107
M190 S60 ; wait for bed temperature to be reached
M104 S190 ; set temperature
G28 ; home all axes
G1 Z5 F5000 ; lift nozzle
M109 S190 ; wait for temperature to be reached
G90 ; use absolute coordinates
G92 E0
M82 ; use absolute distances for extrusion
G1 F1800.000 E-1.00000
G92 E0
G1 Z0.300 F7800.000
G1 X47.439 Y47.858 F7800.000
G1 E1.00000 F1800.000
G1 X49.186 Y46.419 E1.06415 F1080.000
G1 X52.354 Y45.588 E1.15697
G1 X115.634 Y45.588 E2.95027
G1 X117.862 Y45.985 E3.01442
G1 X119.817 Y47.126 E3.07856 F1080.000
G1 X121.257 Y48.873 E3.14271
G1 X122.088 Y52.039 E3.23549
G1 X122.108 Y125.940 E5.32977
G1 X121.711 Y128.168 E5.39392
G1 X120.163 Y130.558 E5.47459
G1 X107.858 Y142.571 E5.96194
G1 X105.986 Y143.843 E6.02608
G1 X103.350 Y144.406 E6.10249
G1 X64.646 Y144.406 E7.19931
G1 X62.418 Y144.009 E7.26346
G1 X60.137 Y142.570 E7.33989
G1 X47.836 Y130.558 E7.82713
G1 X46.520 Y128.717 E7.89128
G1 X45.892 Y125.940 E7.97195
G1 X45.900 Y52.041 E10.06619
G1 X46.297 Y49.813 E10.13034
G1 X47.409 Y47.910 E10.19278
G1 X47.643 Y47.980 F7800.000
G1 X47.664 Y47.945 E10.19394 F1080.000
G1 X49.402 Y46.559 E10.25693
G1 X52.354 Y45.815 E10.34321
G1 X115.634 Y45.815 E12.13651
G1 X117.821 Y46.212 E12.19951
G1 X119.730 Y47.351 E12.26251 F1080.000
G1 X121.116 Y49.089 E12.32551
G1 X121.861 Y52.039 E12.41174
G1 X121.881 Y125.940 E14.50603
G1 X121.484 Y128.127 E14.56902
G1 X120.005 Y130.395 E14.64576
G1 X107.700 Y142.408 E15.13310
G1 X105.857 Y143.652 E15.19610
G1 X103.350 Y144.179 E15.26871
G1 X64.646 Y144.179 E16.36554
G1 X62.459 Y143.782 E16.42853
G1 X60.296 Y142.408 E16.50117
G1 X47.995 Y130.395 E16.98841
G1 X46.708 Y128.583 E17.05141
G1 X46.119 Y125.940 E17.12814
G1 X46.127 Y52.041 E19.22238
G1 X46.524 Y49.854 E19.28538
G1 X47.612 Y48.032 E19.34552
G1 F1800.000 E18.34552
G92 E0
G1 X114.671 Y99.727 F7800.000
G1 E1.00000 F1800.000
G1 X112.971 Y99.727 E1.04818 F1620.000
G1 X112.971 Y98.361 E1.08688
G1 X115.337 Y98.361 E1.15391
G1 X115.337 Y125.806 E1.93169
G1 X103.255 Y137.601 E2.41019
G1 X64.741 Y137.601 E3.50163
G1 X52.663 Y125.806 E3.98004
G1 X52.663 Y98.361 E4.75782
G1 X55.029 Y98.361 E4.82486
G1 X55.029 Y99.727 E4.86356
G1 X53.329 Y99.727 E4.91173
G1 X53.329 Y102.261 E4.98356
G1 X55.029 Y102.261 E5.03173
G1 X55.025 Y126.992 E5.73257
G1 X64.483 Y136.228 E6.10721
G1 X103.513 Y136.228 E7.21330
G1 X112.971 Y126.992 E7.58793
G1 X112.971 Y102.261 E8.28877
G1 X114.671 Y102.261 E8.33694
G1 X114.671 Y99.787 E8.40707
G1 X114.444 Y99.954 F7800.000
G1 X112.744 Y99.954 E8.45524 F1620.000
G1 X112.744 Y98.134 E8.50682
G1 X115.564 Y98.134 E8.58674
G1 X115.564 Y125.902 E9.37366
G1 X103.347 Y137.829 E9.85750
G1 X64.649 Y137.829 E10.95418
G1 X52.436 Y125.902 E11.43793
G1 X52.436 Y98.134 E12.22486
G1 X55.256 Y98.134 E12.30478
G1 X55.256 Y99.954 E12.35635
G1 X53.556 Y99.954 E12.40453
G1 X53.556 Y102.034 E12.46348
G1 X55.256 Y102.034 E12.51165
G1 X55.252 Y126.896 E13.21622
G1 X64.575 Y136.001 E13.58552
G1 X103.421 Y136.001 E14.68636
G1 X112.744 Y126.896 E15.05566
G1 X112.744 Y102.034 E15.76023
G1 X114.444 Y102.034 E15.80840
G1 X114.444 Y100.014 E15.86565
G1 X114.444 Y99.554 F7800.000
G1 X114.617 Y99.582 F7800.000
G1 X113.541 Y98.506 E15.90878 F1980.000
G1 X113.219 Y98.506 E15.91791
G1 X114.295 Y99.582 E15.96104
G1 X113.973 Y99.582 E15.97017
G1 X113.116 Y98.725 E16.00453
G1 X113.116 Y99.047 E16.01366
G1 X113.651 Y99.582 E16.03511
G1 X113.329 Y99.582 E16.04424
G1 X113.116 Y99.369 E16.05277
G1 X114.816 Y99.781 F7800.000
G1 X115.192 Y100.157 E16.06784 F1980.000
G1 X115.192 Y99.834 E16.07697
G1 X113.863 Y98.506 E16.13022
G1 X114.185 Y98.506 E16.13935
G1 X115.192 Y99.512 E16.17968
G1 X115.192 Y99.190 E16.18881
G1 X114.508 Y98.506 E16.21624
G1 X114.830 Y98.506 E16.22537
G1 X115.192 Y98.868 E16.23988
G1 X115.192 Y98.546 E16.24901
G1 X115.152 Y98.506 E16.25061
G1 X114.816 Y100.103 F7800.000
G1 X115.192 Y100.479 E16.26568 F1980.000
G1 X115.192 Y100.801 E16.27481
G1 X114.816 Y100.425 E16.28988
G1 X114.816 Y100.747 E16.29901
G1 X115.192 Y101.123 E16.31408
G1 X115.192 Y101.445 E16.32321
G1 X114.816 Y101.069 E16.33829
G1 X114.816 Y101.391 E16.34741
G1 X115.192 Y101.767 E16.36249
G1 X115.192 Y102.089 E16.37162
G1 X114.816 Y101.713 E16.38669
G1 X114.816 Y102.036 E16.39582
G1 X115.192 Y102.412 E16.41089
G1 X115.192 Y102.734 E16.42002
G1 X114.816 Y102.358 E16.43509
G1 X114.542 Y102.406 E16.44297
G1 X115.192 Y103.056 E16.46902
G1 X115.192 Y103.378 E16.47815
G1 X114.220 Y102.406 E16.51710
G1 X113.898 Y102.406 E16.52623
G1 X115.192 Y103.700 E16.57810
G1 X115.192 Y104.022 E16.58723
G1 X113.575 Y102.406 E16.65201
G1 X113.253 Y102.406 E16.66114
G1 X115.192 Y104.344 E16.73883
G1 X115.192 Y104.667 E16.74796
G1 X113.116 Y102.590 E16.83116
G1 X113.116 Y102.913 E16.84029
G1 X115.192 Y104.989 E16.92350
G1 X115.192 Y105.311 E16.93263
G1 X113.116 Y103.235 E17.01583
G1 X113.116 Y103.557 E17.02496
G1 X115.192 Y105.633 E17.10817
G1 X115.192 Y105.955 E17.11730
G1 X113.116 Y103.879 E17.20050
G1 X113.116 Y104.201 E17.20963
G1 X115.192 Y106.277 E17.29284
G1 X115.192 Y106.599 E17.30197
G1 X113.116 Y104.523 E17.38517
G1 X113.116 Y104.845 E17.39430
G1 X115.192 Y106.922 E17.47751
G1 X115.192 Y107.244 E17.48664
G1 X113.116 Y105.168 E17.56984
G1 X113.116 Y105.490 E17.57897
G1 X115.192 Y107.566 E17.66218
G1 X115.192 Y107.888 E17.67131
G1 X113.116 Y105.812 E17.75451
G1 X113.116 Y106.134 E17.76364
G1 X115.192 Y108.210 E17.84685
G1 X115.192 Y108.532 E17.85597
G1 X113.116 Y106.456 E17.93918
G1 X113.116 Y106.778 E17.94831
G1 X115.192 Y108.854 E18.03152
G1 X115.192 Y109.177 E18.04064
G1 X113.116 Y107.100 E18.12385
G1 X113.116 Y107.423 E18.13298
G1 X115.192 Y109.499 E18.21619
G1 X115.192 Y109.821 E18.22531
G1 X113.116 Y107.745 E18.30852
G1 X113.116 Y108.067 E18.31765
G1 X115.192 Y110.143 E18.40085
G1 X115.192 Y110.465 E18.40998
G1 X113.116 Y108.389 E18.49319
G1 X113.116 Y108.711 E18.50232
G1 X115.192 Y110.787 E18.58552
G1 X115.192 Y111.109 E18.59465
G1 X113.116 Y109.033 E18.67786
G1 X113.116 Y109.355 E18.68699
G1 X115.192 Y111.431 E18.77019
G1 X115.192 Y111.754 E18.77932
G1 X113.116 Y109.678 E18.86253
G1 X113.116 Y110.000 E18.87166
G1 X115.192 Y112.076 E18.95486
G1 X115.192 Y112.398 E18.96399
G1 X113.116 Y110.322 E19.04720
G1 X113.116 Y110.644 E19.05633
G1 X115.192 Y112.720 E19.13953
G1 X115.192 Y113.042 E19.14866
G1 X113.116 Y110.966 E19.23187
G1 X113.116 Y111.288 E19.24100
G1 X115.192 Y113.364 E19.32420
G1 X115.192 Y113.686 E19.33333
G1 X113.116 Y111.610 E19.41654
G1 X113.116 Y111.932 E19.42567
G1 X115.192 Y114.009 E19.50887
G1 X115.192 Y114.331 E19.51800
G1 X113.116 Y112.255 E19.60121
G1 X113.116 Y112.577 E19.61034
G1 X115.192 Y114.653 E19.69354
G1 X115.192 Y114.975 E19.70267
G1 X113.116 Y112.899 E19.78588
G1 X113.116 Y113.221 E19.79501
G1 X115.192 Y115.297 E19.87821
G1 X115.192 Y115.619 E19.88734
G1 X113.116 Y113.543 E19.97055
G1 X113.116 Y113.865 E19.97968
G1 X115.192 Y115.941 E20.06288
G1 X115.192 Y116.264 E20.07201
G1 X113.116 Y114.187 E20.15522
G1 X113.116 Y114.510 E20.16435
G1 X115.192 Y116.586 E20.24755
G1 X115.192 Y116.908 E20.25668
G1 X113.116 Y114.832 E20.33989
G1 X113.116 Y115.154 E20.34902
G1 X115.192 Y117.230 E20.43222
G1 X115.192 Y117.552 E20.44135
G1 X113.116 Y115.476 E20.52456
G1 X113.116 Y115.798 E20.53369
G1 X115.192 Y117.874 E20.61689
G1 X115.192 Y118.196 E20.62602
G1 X113.116 Y116.120 E20.70923
G1 X113.116 Y116.442 E20.71835
G1 X115.192 Y118.519 E20.80156
G1 X115.192 Y118.841 E20.81069
G1 X113.116 Y116.765 E20.89390
G1 X113.116 Y117.087 E20.90302
G1 X115.192 Y119.163 E20.98623
G1 X115.192 Y119.485 E20.99536
G1 X113.116 Y117.409 E21.07856
G1 X113.116 Y117.731 E21.08769
G1 X115.192 Y119.807 E21.17090
G1 X115.192 Y120.129 E21.18003
G1 X113.116 Y118.053 E21.26323
G1 X113.116 Y118.375 E21.27236
G1 X115.192 Y120.451 E21.35557
G1 X115.192 Y120.774 E21.36470
G1 X113.116 Y118.697 E21.44790
G1 X113.116 Y119.020 E21.45703
G1 X115.192 Y121.096 E21.54024
G1 X115.192 Y121.418 E21.54937
G1 X113.116 Y119.342 E21.63257
G1 X113.116 Y119.664 E21.64170
G1 X115.192 Y121.740 E21.72491
G1 X115.192 Y122.062 E21.73404
G1 X113.116 Y119.986 E21.81724
G1 X113.116 Y120.308 E21.82637
G1 X115.192 Y122.384 E21.90958
G1 X115.192 Y122.706 E21.91871
G1 X113.116 Y120.630 E22.00191
G1 X113.116 Y120.952 E22.01104
G1 X115.192 Y123.029 E22.09425
G1 X115.192 Y123.351 E22.10338
G1 X113.116 Y121.275 E22.18658
G1 X113.116 Y121.597 E22.19571
G1 X115.192 Y123.673 E22.27892
G1 X115.192 Y123.995 E22.28805
G1 X113.116 Y121.919 E22.37125
G1 X113.116 Y122.241 E22.38038
G1 X115.192 Y124.317 E22.46359
G1 X115.192 Y124.639 E22.47272
G1 X113.116 Y122.563 E22.55592
G1 X113.116 Y122.885 E22.56505
G1 X115.192 Y124.961 E22.64826
G1 X115.192 Y125.284 E22.65739
G1 X113.116 Y123.207 E22.74059
G1 X113.116 Y123.530 E22.74972
G1 X115.192 Y125.606 E22.83293
G1 X115.086 Y125.822 E22.83976
G1 X113.116 Y123.852 E22.91874
G1 X113.116 Y124.174 E22.92787
G1 X114.925 Y125.983 E23.00039
G1 X114.764 Y126.145 E23.00685
G1 X113.116 Y124.496 E23.07292
G1 X113.116 Y124.818 E23.08205
G1 X114.603 Y126.306 E23.14167
G1 X114.442 Y126.467 E23.14812
G1 X113.116 Y125.140 E23.20128
G1 X113.116 Y125.462 E23.21041
G1 X114.281 Y126.628 E23.25712
G1 X114.120 Y126.789 E23.26357
G1 X113.116 Y125.785 E23.30382
G1 X113.116 Y126.107 E23.31295
G1 X113.959 Y126.949 E23.34673
G1 X113.796 Y127.109 E23.35318
G1 X113.116 Y126.429 E23.38043
G1 X113.116 Y126.751 E23.38956
G1 X113.633 Y127.268 E23.41027
G1 X113.470 Y127.427 E23.41673
G1 X113.105 Y127.063 E23.43132
G1 X112.942 Y127.222 E23.43778
G1 X113.307 Y127.586 E23.45238
G1 X113.144 Y127.745 E23.45883
G1 X112.779 Y127.381 E23.47343
G1 X112.616 Y127.540 E23.47988
G1 X112.981 Y127.904 E23.49448
G1 X112.818 Y128.063 E23.50093
G1 X112.453 Y127.699 E23.51553
G1 X112.290 Y127.858 E23.52198
G1 X112.655 Y128.223 E23.53657
G1 X112.492 Y128.382 E23.54303
G1 X112.127 Y128.018 E23.55762
G1 X111.964 Y128.177 E23.56408
G1 X112.328 Y128.541 E23.57867
G1 X112.165 Y128.700 E23.58512
G1 X111.801 Y128.336 E23.59971
G1 X111.638 Y128.495 E23.60617
G1 X112.002 Y128.859 E23.62076
G1 X111.839 Y129.018 E23.62721
G1 X111.476 Y128.654 E23.64180
G1 X111.313 Y128.813 E23.64825
G1 X111.676 Y129.177 E23.66284
G1 X111.513 Y129.336 E23.66930
G1 X111.150 Y128.973 E23.68388
G1 X110.987 Y129.132 E23.69034
G1 X111.350 Y129.496 E23.70492
G1 X111.187 Y129.655 E23.71138
G1 X110.824 Y129.291 E23.72596
G1 X110.661 Y129.450 E23.73241
G1 X111.024 Y129.814 E23.74700
G1 X110.861 Y129.973 E23.75345
G1 X110.498 Y129.609 E23.76803
G1 X110.335 Y129.768 E23.77449
G1 X110.698 Y130.132 E23.78907
G1 X110.535 Y130.291 E23.79552
G1 X110.172 Y129.928 E23.81010
G1 X110.009 Y130.087 E23.81656
G1 X110.372 Y130.450 E23.83114
G1 X110.209 Y130.610 E23.83759
G1 X109.846 Y130.246 E23.85217
G1 X109.683 Y130.405 E23.85862
G1 X110.046 Y130.769 E23.87320
G1 X109.883 Y130.928 E23.87965
G1 X109.520 Y130.564 E23.89423
G1 X109.357 Y130.723 E23.90068
G1 X109.720 Y131.087 E23.91526
G1 X109.557 Y131.246 E23.92171
G1 X109.194 Y130.883 E23.93629
G1 X109.031 Y131.042 E23.94274
G1 X109.394 Y131.405 E23.95731
G1 X109.231 Y131.564 E23.96377
G1 X108.868 Y131.201 E23.97834
G1 X108.705 Y131.360 E23.98479
G1 X109.068 Y131.724 E23.99936
G1 X108.905 Y131.883 E24.00582
G1 X108.542 Y131.519 E24.02039
G1 X108.379 Y131.678 E24.02684
G1 X108.742 Y132.042 E24.04141
G1 X108.579 Y132.201 E24.04787
G1 X108.216 Y131.837 E24.06243
G1 X108.053 Y131.997 E24.06889
G1 X108.416 Y132.360 E24.08345
G1 X108.253 Y132.519 E24.08991
G1 X107.890 Y132.156 E24.10447
G1 X107.727 Y132.315 E24.11093
G1 X108.090 Y132.678 E24.12549
G1 X107.927 Y132.837 E24.13195
G1 X107.564 Y132.474 E24.14651
G1 X107.401 Y132.633 E24.15296
G1 X107.764 Y132.997 E24.16752
G1 X107.601 Y133.156 E24.17398
G1 X107.238 Y132.792 E24.18854
G1 X107.075 Y132.952 E24.19499
G1 X107.438 Y133.315 E24.20955
G1 X107.275 Y133.474 E24.21601
G1 X106.912 Y133.111 E24.23057
G1 X106.749 Y133.270 E24.23702
G1 X107.112 Y133.633 E24.25158
G1 X106.949 Y133.792 E24.25803
G1 X106.586 Y133.429 E24.27259
G1 X106.423 Y133.588 E24.27905
G1 X106.786 Y133.951 E24.29360
G1 X106.623 Y134.111 E24.30006
G1 X106.260 Y133.747 E24.31461
G1 X106.097 Y133.907 E24.32106
G1 X106.460 Y134.270 E24.33562
G1 X106.297 Y134.429 E24.34207
G1 X105.934 Y134.066 E24.35662
G1 X105.771 Y134.225 E24.36308
G1 X106.134 Y134.588 E24.37763
G1 X105.971 Y134.747 E24.38409
G1 X105.608 Y134.384 E24.39863
G1 X105.445 Y134.543 E24.40509
G1 X105.808 Y134.906 E24.41964
G1 X105.645 Y135.065 E24.42609
G1 X105.282 Y134.702 E24.44064
G1 X105.119 Y134.862 E24.44710
G1 X105.482 Y135.224 E24.46164
G1 X105.319 Y135.384 E24.46810
G1 X104.956 Y135.021 E24.48264
G1 X104.793 Y135.180 E24.48910
G1 X105.156 Y135.543 E24.50364
G1 X104.993 Y135.702 E24.51010
G1 X104.630 Y135.339 E24.52464
G1 X104.467 Y135.498 E24.53110
G1 X104.830 Y135.861 E24.54564
G1 X104.667 Y136.020 E24.55209
G1 X104.304 Y135.657 E24.56663
G1 X104.141 Y135.817 E24.57309
G1 X104.504 Y136.179 E24.58763
G1 X104.341 Y136.338 E24.59409
G1 X103.979 Y135.976 E24.60862
G1 X103.816 Y136.135 E24.61508
G1 X104.178 Y136.498 E24.62962
G1 X104.015 Y136.657 E24.63607
G1 X103.653 Y136.294 E24.65061
G1 X103.409 Y136.372 E24.65786
G1 X103.852 Y136.816 E24.67563
G1 X103.689 Y136.975 E24.68209
G1 X103.087 Y136.372 E24.70623
G1 X102.765 Y136.372 E24.71536
G1 X103.526 Y137.134 E24.74589
G1 X103.363 Y137.293 E24.75234
G1 X102.442 Y136.372 E24.78924
G1 X102.120 Y136.372 E24.79837
G1 X103.200 Y137.452 E24.84165
G1 X102.882 Y137.457 E24.85066
G1 X101.798 Y136.372 E24.89411
G1 X101.476 Y136.372 E24.90324
G1 X102.560 Y137.457 E24.94669
G1 X102.238 Y137.457 E24.95582
G1 X101.154 Y136.372 E24.99927
G1 X100.832 Y136.372 E25.00840
G1 X101.916 Y137.457 E25.05185
G1 X101.594 Y137.457 E25.06098
G1 X100.510 Y136.372 E25.10443
G1 X100.188 Y136.372 E25.11356
G1 X101.272 Y137.457 E25.15701
G1 X100.950 Y137.457 E25.16614
G1 X99.865 Y136.372 E25.20959
G1 X99.543 Y136.372 E25.21872
G1 X100.627 Y137.457 E25.26217
G1 X100.305 Y137.457 E25.27130
G1 X99.221 Y136.372 E25.31475
G1 X98.899 Y136.373 E25.32388
G1 X99.983 Y137.457 E25.36733
G1 X99.661 Y137.457 E25.37646
G1 X98.577 Y136.373 E25.41991
G1 X98.255 Y136.373 E25.42904
G1 X99.339 Y137.457 E25.47249
G1 X99.017 Y137.457 E25.48162
G1 X97.933 Y136.373 E25.52507
G1 X97.610 Y136.373 E25.53420
G1 X98.695 Y137.457 E25.57765
G1 X98.372 Y137.457 E25.58678
G1 X97.288 Y136.373 E25.63023
G1 X96.966 Y136.373 E25.63936
G1 X98.050 Y137.457 E25.68281
G1 X97.728 Y137.457 E25.69194
G1 X96.644 Y136.373 E25.73539
G1 X96.322 Y136.373 E25.74452
G1 X97.406 Y137.457 E25.78797
G1 X97.084 Y137.457 E25.79710
G1 X96.000 Y136.373 E25.84055
G1 X95.678 Y136.373 E25.84968
G1 X96.762 Y137.457 E25.89313
G1 X96.440 Y137.457 E25.90226
G1 X95.355 Y136.373 E25.94571
G1 X95.033 Y136.373 E25.95484
G1 X96.117 Y137.457 E25.99829
G1 X95.795 Y137.457 E26.00742
G1 X94.711 Y136.373 E26.05087
G1 X94.389 Y136.373 E26.06000
G1 X95.473 Y137.457 E26.10345
G1 X95.151 Y137.457 E26.11258
G1 X94.067 Y136.373 E26.15603
G1 X93.745 Y136.373 E26.16516
G1 X94.829 Y137.457 E26.20861
G1 X94.507 Y137.457 E26.21774
G1 X93.423 Y136.373 E26.26119
G1 X93.100 Y136.373 E26.27032
G1 X94.185 Y137.457 E26.31377
G1 X93.862 Y137.457 E26.32290
G1 X92.778 Y136.373 E26.36635
G1 X92.456 Y136.373 E26.37548
G1 X93.540 Y137.457 E26.41893
G1 X93.218 Y137.457 E26.42806
G1 X92.134 Y136.373 E26.47151
G1 X91.812 Y136.373 E26.48064
G1 X92.896 Y137.457 E26.52409
G1 X92.574 Y137.457 E26.53322
G1 X91.490 Y136.373 E26.57667
G1 X91.168 Y136.373 E26.58580
G1 X92.252 Y137.457 E26.62925
G1 X91.930 Y137.457 E26.63838
G1 X90.845 Y136.373 E26.68183
G1 X90.523 Y136.373 E26.69096
G1 X91.607 Y137.457 E26.73441
G1 X91.285 Y137.457 E26.74354
G1 X90.201 Y136.373 E26.78699
G1 X89.879 Y136.373 E26.79612
G1 X90.963 Y137.457 E26.83957
G1 X90.641 Y137.457 E26.84870
G1 X89.557 Y136.373 E26.89215
G1 X89.235 Y136.373 E26.90128
G1 X90.319 Y137.457 E26.94473
G1 X89.997 Y137.457 E26.95386
G1 X88.913 Y136.373 E26.99731
