; generated by Slic3r 1.1.7 on 2015-02-25 at 12:31:42

; perimeters extrusion width = 0.40mm
; infill extrusion width = 0.40mm
; solid infill extrusion width = 0.40mm
; top infill extrusion width = 0.40mm

G21 ; set units to millimeters
M107
M190 S60 ; wait for bed temperature to be reached
M104 S190 ; set temperature
G28 ; home all axes
G1 Z5 F5000 ; lift nozzle
M109 S190 ; wait for temperature to be reached
G90 ; use absolute coordinates
G92 E0
M82 ; use absolute distances for extrusion
G1 F1800.000 E-1.00000
G92 E0
G1 Z0.300 F7800.000
G1 X20.734 Y59.986 F7800.000
G1 E1.00000 F1800.000
G1 X22.470 Y59.732 E1.04972 F1080.000
G1 X23.701 Y59.721 E1.08462
G1 X176.352 Y59.721 E5.41062
G1 X177.566 Y59.732 E5.44503 F1080.000
G1 X179.788 Y60.161 E5.50917
G1 X181.726 Y61.331 E5.57332
G1 X183.141 Y63.098 E5.63746
G1 X183.756 Y64.708 E5.68632
G1 X183.954 Y65.682 E5.71447
G1 X184.055 Y66.622 E5.74127
G1 X184.077 Y67.261 E5.75939
G1 X184.071 Y133.024 E7.62307
G1 X184.004 Y133.950 E7.64937
G1 X183.952 Y134.335 E7.66037
G1 X183.756 Y135.292 E7.68807
G1 X182.859 Y137.371 E7.75221
G1 X181.300 Y139.012 E7.81636
G1 X179.270 Y140.013 E7.88051
G1 X177.532 Y140.268 E7.93029
G1 X176.297 Y140.279 E7.96530
G1 X23.647 Y140.279 E12.29126
G1 X22.425 Y140.268 E12.32591
G1 X20.203 Y139.835 E12.39006
G1 X18.267 Y138.662 E12.45421
G1 X16.856 Y136.892 E12.51835
G1 X16.247 Y135.295 E12.56679
G1 X16.048 Y134.320 E12.59500
G1 X15.947 Y133.378 E12.62183
G1 X15.925 Y132.739 E12.63996
G1 X15.931 Y66.975 E14.50366
G1 X16.003 Y66.013 E14.53100
G1 X16.162 Y65.065 E14.55824
G1 X16.247 Y64.706 E14.56870
G1 X17.144 Y62.628 E14.63285
G1 X18.704 Y60.987 E14.69699
G1 X20.680 Y60.013 E14.75944
G1 X20.838 Y60.207 F7800.000
G1 X20.912 Y60.172 E14.76175 F1080.000
G1 X22.472 Y59.959 E14.80636
G1 X23.701 Y59.948 E14.84120
G1 X176.350 Y59.948 E19.16715
G1 X177.563 Y59.959 E19.20151 F1080.000
G1 X179.744 Y60.387 E19.26451
G1 X181.636 Y61.555 E19.32751
G1 X182.997 Y63.312 E19.39051
G1 X183.535 Y64.760 E19.43429
G1 X183.729 Y65.712 E19.46182
G1 X183.828 Y66.632 E19.48804
G1 X183.850 Y67.261 E19.50587
G1 X183.844 Y133.014 E21.36927
G1 X183.778 Y133.920 E21.39499
G1 X183.727 Y134.303 E21.40595
G1 X183.535 Y135.240 E21.43306
G1 X182.648 Y137.279 E21.49606
G1 X181.101 Y138.875 E21.55906
G1 X179.092 Y139.827 E21.62206
G1 X177.530 Y140.041 E21.66674
G1 X176.297 Y140.052 E21.70168
G1 X23.649 Y140.052 E26.02760
G1 X22.428 Y140.041 E26.06220
G1 X20.248 Y139.609 E26.12520
G1 X18.358 Y138.438 E26.18819
G1 X17.000 Y136.678 E26.25119
G1 X16.468 Y135.243 E26.29457
G1 X16.273 Y134.289 E26.32215
G1 X16.174 Y133.368 E26.34840
G1 X16.152 Y132.739 E26.36625
G1 X16.158 Y66.985 E28.22966
G1 X16.229 Y66.043 E28.25643
G1 X16.383 Y65.117 E28.28303
G1 X16.468 Y64.758 E28.29350
G1 X17.356 Y62.720 E28.35650
G1 X18.903 Y61.123 E28.41949
G1 X20.784 Y60.233 E28.47849
G1 F1800.000 E27.47849
G92 E0
G1 X62.692 Y119.714 F7800.000
G1 E1.00000 F1800.000
G1 X62.692 Y77.682 E2.19116 F1620.000
G1 X161.474 Y77.682 E4.99058
G1 X161.474 Y119.714 E6.18174
G1 X62.752 Y119.714 E8.97946
G1 X62.919 Y119.487 F7800.000
G1 X62.919 Y77.909 E10.15774 F1620.000
G1 X161.247 Y77.909 E12.94428
G1 X161.247 Y119.487 E14.12256
G1 X62.979 Y119.487 E16.90740
G1 X62.519 Y119.487 F7800.000
G1 X40.293 Y89.076 F7800.000
G1 X40.013 Y89.279 E16.91721 F1620.000
G1 X39.629 Y89.500 E16.92976
G1 X39.277 Y89.657 E16.94067
G1 X38.945 Y89.768 E16.95061
G1 X38.611 Y89.847 E16.96032
G1 X38.253 Y89.899 E16.97058
G1 X37.862 Y89.916 E16.98165
G1 X37.539 Y89.901 E16.99083
G1 X37.210 Y89.855 E17.00025
G1 X36.844 Y89.772 E17.01089
G1 X36.482 Y89.651 E17.02170
G1 X36.095 Y89.474 E17.03373
G1 X35.736 Y89.260 E17.04560
G1 X35.442 Y89.042 E17.05598
G1 X35.166 Y88.793 E17.06650
G1 X34.878 Y88.475 E17.07867
G1 X34.634 Y88.138 E17.09045
G1 X34.448 Y87.814 E17.10104
G1 X34.278 Y87.433 E17.11286
G1 X34.168 Y87.098 E17.12285
G1 X34.078 Y86.711 E17.13410
G1 X34.037 Y86.399 E17.14303
G1 X34.021 Y86.049 E17.15296
G1 X34.039 Y85.682 E17.16338
G1 X34.092 Y85.312 E17.17395
G1 X34.173 Y84.981 E17.18361
G1 X34.284 Y84.646 E17.19364
G1 X34.447 Y84.286 E17.20482
G1 X34.666 Y83.912 E17.21713
G1 X34.882 Y83.617 E17.22747
G1 X35.174 Y83.296 E17.23977
G1 X35.463 Y83.037 E17.25078
G1 X35.736 Y82.836 E17.26037
G1 X36.092 Y82.624 E17.27211
G1 X36.471 Y82.449 E17.28394
G1 X36.834 Y82.327 E17.29479
G1 X37.199 Y82.243 E17.30541
G1 X37.521 Y82.197 E17.31464
G1 X37.915 Y82.180 E17.32582
G1 X38.237 Y82.195 E17.33496 F1620.000
G1 X38.565 Y82.241 E17.34434
G1 X38.967 Y82.334 E17.35602
G1 X39.325 Y82.458 E17.36676
G1 X39.649 Y82.605 E17.37685
G1 X40.016 Y82.819 E17.38889
G1 X40.395 Y83.107 E17.40236
G1 X40.635 Y83.327 E17.41160
G1 X40.883 Y83.601 E17.42209
G1 X41.147 Y83.967 E17.43486
G1 X41.328 Y84.282 E17.44515
G1 X41.497 Y84.659 E17.45687
G1 X41.609 Y84.996 E17.46691
G1 X41.686 Y85.320 E17.47635
G1 X41.742 Y85.719 E17.48779
G1 X41.756 Y86.041 E17.49691
G1 X41.741 Y86.395 E17.50697
G1 X41.689 Y86.762 E17.51746
G1 X41.612 Y87.091 E17.52704
G1 X41.478 Y87.488 E17.53890
G1 X41.331 Y87.808 E17.54890
G1 X41.137 Y88.148 E17.55997
G1 X40.885 Y88.493 E17.57211
G1 X40.611 Y88.794 E17.58362
G1 X40.340 Y89.038 E17.59398
G1 X40.156 Y88.895 F7800.000
G1 X39.889 Y89.089 E17.60334 F1620.000
G1 X39.534 Y89.294 E17.61495
G1 X39.202 Y89.442 E17.62526
G1 X38.884 Y89.549 E17.63476
G1 X38.565 Y89.625 E17.64407
G1 X38.202 Y89.676 E17.65445
G1 X37.895 Y89.689 E17.66317
G1 X37.584 Y89.676 E17.67198
G1 X37.221 Y89.626 E17.68236
G1 X36.901 Y89.552 E17.69168
G1 X36.517 Y89.419 E17.70317
G1 X36.205 Y89.276 E17.71291
G1 X35.908 Y89.102 E17.72265
G1 X35.589 Y88.868 E17.73387
G1 X35.323 Y88.628 E17.74403
G1 X35.055 Y88.333 E17.75533
G1 X34.825 Y88.015 E17.76646
G1 X34.651 Y87.712 E17.77636
G1 X34.492 Y87.357 E17.78738
G1 X34.387 Y87.038 E17.79688
G1 X34.303 Y86.678 E17.80737
G1 X34.264 Y86.380 E17.81588
G1 X34.249 Y86.049 E17.82527
G1 X34.264 Y85.708 E17.83493
G1 X34.313 Y85.363 E17.84483
G1 X34.391 Y85.045 E17.85411
G1 X34.498 Y84.723 E17.86371
G1 X34.650 Y84.387 E17.87418
G1 X34.853 Y84.042 E17.88551
G1 X35.060 Y83.758 E17.89548
G1 X35.330 Y83.461 E17.90683
G1 X35.604 Y83.215 E17.91728
G1 X35.867 Y83.021 E17.92656
G1 X36.202 Y82.823 E17.93757
G1 X36.553 Y82.661 E17.94852
G1 X36.892 Y82.547 E17.95868
G1 X37.235 Y82.467 E17.96865
G1 X37.573 Y82.421 E17.97832
G1 X37.860 Y82.408 E17.98644
G1 X38.240 Y82.424 E17.99723 F1620.000
G1 X38.555 Y82.470 E18.00625
G1 X38.899 Y82.551 E18.01628
G1 X39.238 Y82.667 E18.02643
G1 X39.549 Y82.809 E18.03612
G1 X39.888 Y83.007 E18.04724
G1 X40.243 Y83.276 E18.05985
G1 X40.472 Y83.485 E18.06865
G1 X40.708 Y83.746 E18.07863
G1 X40.952 Y84.084 E18.09043
G1 X41.124 Y84.384 E18.10023
G1 X41.275 Y84.713 E18.11047
G1 X41.389 Y85.054 E18.12069
G1 X41.464 Y85.369 E18.12985
G1 X41.515 Y85.734 E18.14030
G1 X41.529 Y86.043 E18.14907
G1 X41.514 Y86.375 E18.15850
G1 X41.466 Y86.717 E18.16828
G1 X41.392 Y87.035 E18.17753
G1 X41.268 Y87.399 E18.18841
G1 X41.127 Y87.709 E18.19807
G1 X40.944 Y88.028 E18.20851
G1 X40.711 Y88.347 E18.21969
G1 X40.453 Y88.631 E18.23056
G1 X40.203 Y88.857 E18.24012
G1 F1800.000 E17.24012
G92 E0
G1 X37.820 Y82.029 F7800.000
G1 X38.791 Y97.863 F7800.000
G1 E1.00000 F1800.000
G1 X39.286 Y97.976 E1.01438 F1620.000
G1 X39.743 Y98.130 E1.02807
G1 X40.195 Y98.333 E1.04209
G1 X40.626 Y98.585 E1.05624
G1 X41.035 Y98.882 E1.07058
G1 X41.415 Y99.224 E1.08505
G1 X41.756 Y99.602 E1.09949
G1 X42.035 Y99.980 E1.11279
G1 X42.309 Y100.443 E1.12804
G1 X42.513 Y100.891 E1.14200
G1 X42.672 Y101.347 E1.15569
G1 X42.781 Y101.809 E1.16913
G1 X42.845 Y102.259 E1.18202
G1 X42.865 Y102.705 E1.19467
G1 X42.844 Y103.160 E1.20757
G1 X42.788 Y103.584 E1.21969
G1 X42.678 Y104.049 E1.23324
G1 X42.522 Y104.517 E1.24722
G1 X42.317 Y104.969 E1.26129
G1 X42.086 Y105.368 E1.27435
G1 X41.744 Y105.839 E1.29086
G1 X41.434 Y106.180 E1.30391
G1 X41.035 Y106.544 E1.31920
G1 X40.633 Y106.837 E1.33332
G1 X40.202 Y107.088 E1.34746
G1 X39.755 Y107.290 E1.36134
G1 X39.297 Y107.448 E1.37508
G1 X38.835 Y107.555 E1.38853
G1 X38.413 Y107.615 E1.40059
G1 X37.961 Y107.636 E1.41341
G1 X37.507 Y107.619 E1.42631
G1 X37.045 Y107.556 E1.43951
G1 X36.580 Y107.446 E1.45304
G1 X36.121 Y107.290 E1.46680
G1 X35.672 Y107.085 E1.48077
G1 X35.244 Y106.832 E1.49487
G1 X34.840 Y106.541 E1.50898
G1 X34.469 Y106.206 E1.52315
G1 X34.130 Y105.832 E1.53744
G1 X33.834 Y105.432 E1.55155
G1 X33.562 Y104.965 E1.56686
G1 X33.359 Y104.520 E1.58072
G1 X33.216 Y104.103 E1.59322
G1 X33.098 Y103.612 E1.60754
G1 X33.037 Y103.163 E1.62037
G1 X33.016 Y102.723 E1.63285
G1 X33.033 Y102.315 E1.64443
G1 X33.094 Y101.829 E1.65832
G1 X33.202 Y101.368 E1.67173
G1 X33.356 Y100.911 E1.68539
G1 X33.545 Y100.495 E1.69834
G1 X33.813 Y100.028 E1.71361
G1 X34.086 Y99.649 E1.72685
G1 X34.478 Y99.212 E1.74347
G1 X34.829 Y98.897 E1.75686
G1 X35.236 Y98.596 E1.77119
G1 X35.669 Y98.343 E1.78539
G1 X36.119 Y98.138 E1.79941
G1 X36.575 Y97.982 E1.81307
G1 X37.035 Y97.873 E1.82647
G1 X37.485 Y97.811 E1.83934
G1 X37.967 Y97.789 E1.85301
G1 X38.370 Y97.809 E1.86445 F1620.000
G1 X38.731 Y97.855 E1.87478
G1 X38.758 Y98.088 F7800.000
G1 X39.224 Y98.194 E1.88831 F1620.000
G1 X39.660 Y98.341 E1.90136
G1 X40.090 Y98.535 E1.91473
G1 X40.502 Y98.775 E1.92825
G1 X40.892 Y99.059 E1.94190
G1 X41.254 Y99.385 E1.95573
G1 X41.581 Y99.746 E1.96951
G1 X41.849 Y100.111 E1.98235
G1 X42.107 Y100.548 E1.99672
G1 X42.303 Y100.976 E2.01006
G1 X42.453 Y101.410 E2.02309
G1 X42.557 Y101.850 E2.03592
G1 X42.619 Y102.280 E2.04822
G1 X42.637 Y102.705 E2.06027
G1 X42.618 Y103.136 E2.07250
G1 X42.564 Y103.547 E2.08424
G1 X42.459 Y103.990 E2.09714
G1 X42.311 Y104.434 E2.11040
G1 X42.116 Y104.864 E2.12379
G1 X41.891 Y105.252 E2.13649
G1 X41.574 Y105.688 E2.15178
G1 X41.271 Y106.023 E2.16457
G1 X40.896 Y106.364 E2.17894
G1 X40.511 Y106.645 E2.19246
G1 X40.099 Y106.885 E2.20595
G1 X39.672 Y107.078 E2.21923
G1 X39.236 Y107.229 E2.23231
G1 X38.796 Y107.331 E2.24511
G1 X38.387 Y107.389 E2.25682
G1 X37.957 Y107.409 E2.26901
G1 X37.527 Y107.393 E2.28123
G1 X37.088 Y107.332 E2.29377
G1 X36.646 Y107.229 E2.30664
G1 X36.208 Y107.080 E2.31974
G1 X35.808 Y106.899 E2.33220
G1 X35.370 Y106.644 E2.34655
G1 X35.006 Y106.382 E2.35926
G1 X34.609 Y106.024 E2.37440
G1 X34.305 Y105.687 E2.38728
G1 X34.021 Y105.303 E2.40082
G1 X33.766 Y104.866 E2.41515
G1 X33.582 Y104.467 E2.42760
G1 X33.424 Y104.008 E2.44135
G1 X33.322 Y103.572 E2.45404
G1 X33.263 Y103.143 E2.46632
G1 X33.243 Y102.697 E2.47897
G1 X33.261 Y102.301 E2.49020
G1 X33.318 Y101.868 E2.50258
G1 X33.420 Y101.430 E2.51531
G1 X33.567 Y100.994 E2.52835
G1 X33.763 Y100.566 E2.54170
G1 X34.004 Y100.152 E2.55527
G1 X34.287 Y99.761 E2.56896
G1 X34.611 Y99.400 E2.58271
G1 X34.972 Y99.073 E2.59651
G1 X35.361 Y98.786 E2.61021
G1 X35.773 Y98.545 E2.62374
G1 X36.202 Y98.349 E2.63709
G1 X36.638 Y98.201 E2.65015
G1 X37.076 Y98.096 E2.66292
G1 X37.506 Y98.037 E2.67522
G1 X37.904 Y98.016 E2.68650
G1 X38.351 Y98.035 E2.69917 F1620.000
G1 X38.699 Y98.080 E2.70911
G1 X37.719 Y97.661 F7800.000
G1 F1800.000 E1.70911
G92 E0
G1 X37.669 Y122.992 F7800.000
G1 E1.00000 F1800.000
G1 X36.891 Y122.409 E1.02755 F1620.000
G1 X36.677 Y122.175 E1.03655
G1 X36.513 Y121.898 E1.04567
G1 X36.410 Y121.592 E1.05480
G1 X36.370 Y121.278 E1.06378
G1 X36.395 Y120.974 E1.07242
G1 X36.470 Y120.696 E1.08059
G1 X36.594 Y120.438 E1.08869
G1 X36.774 Y120.196 E1.09723
G1 X37.007 Y119.981 E1.10623
G1 X37.287 Y119.817 E1.11542
G1 X37.592 Y119.714 E1.12453
G1 X37.906 Y119.674 E1.13351
G1 X38.210 Y119.699 E1.14217
G1 X38.486 Y119.774 E1.15026
G1 X38.745 Y119.898 E1.15840
G1 X38.989 Y120.078 E1.16699
G1 X39.202 Y120.312 E1.17596
G1 X39.365 Y120.592 E1.18514
G1 X39.470 Y120.895 E1.19423
G1 X39.508 Y121.210 E1.20321
G1 X39.485 Y121.512 E1.21178
G1 X39.412 Y121.790 E1.21993
G1 X39.285 Y122.050 E1.22814
G1 X39.105 Y122.293 E1.23672
G1 X38.870 Y122.506 E1.24570
G1 X38.595 Y122.668 E1.25476
G1 X38.288 Y122.774 E1.26394
G1 X37.974 Y122.812 E1.27291
G1 X37.669 Y122.789 E1.28159
G1 X37.669 Y122.932 E1.28565
G1 X37.710 Y122.564 F7800.000
G1 X37.442 Y122.493 E1.29352 F1620.000
G1 X37.442 Y122.538 E1.29478
G1 X37.044 Y122.240 E1.30886
G1 X36.860 Y122.039 E1.31658
G1 X36.721 Y121.803 E1.32436
G1 X36.633 Y121.541 E1.33217
G1 X36.599 Y121.273 E1.33983
G1 X36.620 Y121.013 E1.34722
G1 X36.684 Y120.776 E1.35420
G1 X36.790 Y120.556 E1.36109
G1 X36.944 Y120.349 E1.36842
G1 X37.143 Y120.164 E1.37612
G1 X37.382 Y120.025 E1.38395
G1 X37.684 Y119.932 E1.39293
G1 X37.911 Y119.903 E1.39940 F1620.000
G1 X38.171 Y119.924 E1.40678
G1 X38.406 Y119.988 E1.41371
G1 X38.628 Y120.094 E1.42065
G1 X38.836 Y120.248 E1.42799
G1 X39.018 Y120.447 E1.43565
G1 X39.157 Y120.687 E1.44351
G1 X39.247 Y120.947 E1.45129
G1 X39.279 Y121.215 E1.45895
G1 X39.260 Y121.474 E1.46631
G1 X39.198 Y121.710 E1.47324
G1 X39.090 Y121.932 E1.48022
G1 X38.936 Y122.140 E1.48755
G1 X38.735 Y122.322 E1.49525
G1 X38.499 Y122.461 E1.50300
G1 X38.237 Y122.551 E1.51085
G1 X37.969 Y122.583 E1.51850
G1 X37.770 Y122.569 E1.52416
G1 F1800.000 E0.52416
G92 E0
G1 X37.657 Y119.705 F7800.000
G1 X22.781 Y133.500 F7800.000
G1 E1.00000 F1800.000
G1 X22.711 Y133.061 E1.01261 F1620.000
G1 X22.697 Y132.731 E1.02195
G1 X22.697 Y67.268 E2.87713
G1 X22.716 Y66.908 E2.88734
G1 X22.781 Y66.501 E2.89904
G1 X176.296 Y66.492 E7.24952
G1 X177.221 Y66.500 E7.27575
G1 X177.291 Y66.939 E7.28835
G1 X177.305 Y67.269 E7.29769
G1 X177.305 Y132.732 E9.15287
G1 X177.291 Y133.061 E9.16222
G1 X177.221 Y133.499 E9.17478
G1 X22.841 Y133.501 E13.54979
G1 X22.601 Y133.726 F7800.000
G1 X22.533 Y133.438 E13.55816 F1620.000
G1 X22.485 Y133.082 E13.56835
G1 X22.469 Y132.737 E13.57814
G1 X22.469 Y67.263 E15.43361
G1 X22.490 Y66.882 E15.44442
G1 X22.533 Y66.562 E15.45359
G1 X22.600 Y66.275 E15.46193
G1 X176.297 Y66.265 E19.81755
G1 X177.401 Y66.274 E19.84886
G1 X177.469 Y66.562 E19.85723
G1 X177.517 Y66.918 E19.86742
G1 X177.532 Y67.263 E19.87721
G1 X177.532 Y132.737 E21.73268
G1 X177.517 Y133.082 E21.74247
G1 X177.469 Y133.438 E21.75266
G1 X177.402 Y133.725 E21.76100
G1 X22.661 Y133.726 E26.14623
G1 X22.707 Y133.450 F7800.000
G1 X22.942 Y133.355 F7800.000
G1 X22.898 Y133.311 E26.14800 F1980.000
G1 X22.851 Y132.943 E26.15851
G1 X23.263 Y133.355 E26.17504
G1 X23.585 Y133.355 E26.18415
G1 X22.841 Y132.612 E26.21393
G1 X22.841 Y132.291 E26.22304
G1 X23.906 Y133.355 E26.26572
G1 X24.227 Y133.355 E26.27483
G1 X22.841 Y131.969 E26.33038
G1 X22.841 Y131.648 E26.33949
G1 X24.549 Y133.355 E26.40793
G1 X24.870 Y133.355 E26.41704
G1 X22.841 Y131.326 E26.49836
G1 X22.841 Y131.005 E26.50747
G1 X25.192 Y133.355 E26.60167
G1 X25.513 Y133.355 E26.61078
G1 X22.841 Y130.683 E26.71786
G1 X22.841 Y130.362 E26.72697
G1 X25.835 Y133.355 E26.84694
G1 X26.156 Y133.355 E26.85605
G1 X22.841 Y130.041 E26.98890
G1 X22.841 Y129.719 E26.99801
G1 X26.477 Y133.355 E27.14374
G1 X26.799 Y133.355 E27.15285
G1 X22.841 Y129.398 E27.31146
G1 X22.841 Y129.076 E27.32057
G1 X27.120 Y133.355 E27.49207
G1 X27.442 Y133.355 E27.50118
G1 X22.841 Y128.755 E27.68556
G1 X22.841 Y128.433 E27.69467
G1 X27.763 Y133.355 E27.89193
G1 X28.085 Y133.355 E27.90104
G1 X22.841 Y128.112 E28.11119
G1 X22.841 Y127.791 E28.12030
G1 X28.406 Y133.355 E28.34332
G1 X28.728 Y133.355 E28.35243
G1 X22.841 Y127.469 E28.58834
G1 X22.841 Y127.148 E28.59745
G1 X29.049 Y133.355 E28.84624
G1 X29.370 Y133.355 E28.85535
G1 X22.841 Y126.826 E29.11703
G1 X22.841 Y126.505 E29.12614
G1 X29.692 Y133.355 E29.40070
G1 X30.013 Y133.355 E29.40981
G1 X22.841 Y126.183 E29.69725
G1 X22.841 Y125.862 E29.70636
G1 X30.335 Y133.355 E30.00668
G1 X30.656 Y133.355 E30.01579
G1 X22.841 Y125.540 E30.32899
G1 X22.841 Y125.219 E30.33810
G1 X30.978 Y133.355 E30.66419
G1 X31.299 Y133.355 E30.67330
G1 X22.841 Y124.898 E31.01227
G1 X22.841 Y124.576 E31.02138
G1 X31.620 Y133.355 E31.37323
G1 X31.942 Y133.355 E31.38234
G1 X22.841 Y124.255 E31.74708
G1 X22.841 Y123.933 E31.75619
G1 X32.263 Y133.355 E32.13381
G1 X32.585 Y133.355 E32.14292
G1 X22.841 Y123.612 E32.53342
G1 X22.841 Y123.290 E32.54253
G1 X32.906 Y133.355 E32.94591
G1 X33.228 Y133.355 E32.95502
G1 X22.841 Y122.969 E33.37128
G1 X22.841 Y122.647 E33.38039
