; generated by Slic3r 1.1.7 on 2015-02-27 at 11:46:50

; perimeters extrusion width = 0.40mm
; infill extrusion width = 0.40mm
; solid infill extrusion width = 0.40mm
; top infill extrusion width = 0.40mm

G21 ; set units to millimeters
M107
M190 S60 ; wait for bed temperature to be reached
M104 S190 ; set temperature
G28 ; home all axes
G1 Z5 F5000 ; lift nozzle
M109 S190 ; wait for temperature to be reached
G90 ; use absolute coordinates
G92 E0
M82 ; use absolute distances for extrusion
G1 F1800.000 E-1.00000
G92 E0
G1 Z0.300 F7800.000
G1 X19.815 Y57.404 F7800.000
G1 E1.00000 F1800.000
G1 X22.528 Y56.806 E1.07874 F1080.000
G1 X177.470 Y56.806 E5.46967
G1 X179.698 Y57.202 E5.53382
G1 X182.034 Y58.696 E5.61238 F1080.000
G1 X183.036 Y59.698 E5.65254
G1 X184.331 Y61.554 E5.71668
G1 X184.926 Y64.262 E5.79525
G1 X184.926 Y135.738 E7.82082
G1 X184.530 Y137.966 E7.88497
G1 X183.036 Y140.302 E7.96353
G1 X182.034 Y141.304 E8.00369
G1 X180.178 Y142.599 E8.06783
G1 X177.470 Y143.194 E8.14640
G1 X22.528 Y143.194 E12.53733
G1 X20.300 Y142.798 E12.60147
G1 X17.959 Y141.299 E12.68021
G1 X16.959 Y140.297 E12.72033
G1 X15.666 Y138.440 E12.78448
G1 X15.074 Y135.738 E12.86286
G1 X15.074 Y64.262 E14.88843
G1 X15.470 Y62.034 E14.95258
G1 X16.959 Y59.703 E15.03096
G1 X17.960 Y58.701 E15.07108
G1 X19.765 Y57.438 E15.13353
G1 X19.946 Y57.593 F7800.000
G1 X22.528 Y57.033 E15.20840 F1080.000
G1 X177.470 Y57.033 E19.59933
G1 X179.657 Y57.430 E19.66233
G1 X181.873 Y58.857 E19.73702 F1080.000
G1 X182.875 Y59.859 E19.77718
G1 X184.141 Y61.686 E19.84018
G1 X184.699 Y64.262 E19.91487
G1 X184.699 Y135.738 E21.94044
G1 X184.302 Y137.925 E22.00344
G1 X182.875 Y140.141 E22.07814
G1 X181.873 Y141.143 E22.11830
G1 X180.046 Y142.409 E22.18129
G1 X177.470 Y142.967 E22.25599
G1 X22.528 Y142.967 E26.64692
G1 X20.341 Y142.570 E26.70992
G1 X18.120 Y141.139 E26.78479
G1 X17.120 Y140.137 E26.82490
G1 X15.856 Y138.308 E26.88790
G1 X15.301 Y135.738 E26.96243
G1 X15.301 Y64.262 E28.98800
G1 X15.698 Y62.075 E29.05100
G1 X17.120 Y59.863 E29.12552
G1 X18.120 Y58.861 E29.16564
G1 X19.897 Y57.627 E29.22694
G1 F1800.000 E28.22694
G92 E0
G1 X169.397 Y120.491 F7800.000
G1 E1.00000 F1800.000
G1 X169.408 Y120.205 E1.00811 F1620.000
G1 X169.449 Y119.894 E1.01700
G1 X169.521 Y119.585 E1.02598
G1 X169.622 Y119.282 E1.03506
G1 X169.757 Y118.982 E1.04438
G1 X169.929 Y118.683 E1.05414
G1 X170.337 Y118.169 E1.07274
G1 X170.590 Y117.936 E1.08250
G1 X170.863 Y117.733 E1.09212
G1 X171.154 Y117.558 E1.10176
G1 X171.449 Y117.418 E1.11102
G1 X171.767 Y117.307 E1.12056
G1 X172.079 Y117.231 E1.12964
G1 X172.394 Y117.184 E1.13868
G1 X172.748 Y117.169 E1.14871
G1 X173.304 Y117.221 E1.16454 F1620.000
G1 X173.650 Y117.305 E1.17463
G1 X174.069 Y117.458 E1.18727
G1 X174.504 Y117.693 E1.20130
G1 X174.816 Y117.921 E1.21224
G1 X175.038 Y118.119 E1.22065
G1 X175.264 Y118.362 E1.23006
G1 X175.490 Y118.670 E1.24090
G1 X175.642 Y118.926 E1.24934
G1 X175.782 Y119.221 E1.25860
G1 X175.903 Y119.577 E1.26925
G1 X175.969 Y119.851 E1.27722
G1 X176.016 Y120.163 E1.28617
G1 X176.022 Y120.727 E1.30216
G1 X175.969 Y121.117 E1.31330
G1 X175.817 Y121.656 E1.32917
G1 X175.670 Y121.991 E1.33955
G1 X175.505 Y122.279 E1.34896
G1 X175.334 Y122.520 E1.35732
G1 X175.079 Y122.812 E1.36832
G1 X174.839 Y123.033 E1.37756
G1 X174.600 Y123.214 E1.38606
G1 X174.273 Y123.414 E1.39693
G1 X173.978 Y123.552 E1.40616
G1 X173.705 Y123.652 E1.41438
G1 X173.384 Y123.734 E1.42378
G1 X173.034 Y123.788 E1.43382
G1 X172.719 Y123.803 E1.44275
G1 X172.433 Y123.792 E1.45086
G1 X172.079 Y123.742 E1.46100
G1 X171.814 Y123.679 E1.46871
G1 X171.510 Y123.578 E1.47780
G1 X171.170 Y123.422 E1.48840
G1 X170.921 Y123.277 E1.49656
G1 X170.647 Y123.081 E1.50611
G1 X170.388 Y122.853 E1.51587
G1 X170.167 Y122.610 E1.52520
G1 X169.961 Y122.337 E1.53488
G1 X169.786 Y122.045 E1.54454
G1 X169.648 Y121.750 E1.55378
G1 X169.534 Y121.437 E1.56321
G1 X169.452 Y121.081 E1.57355
G1 X169.412 Y120.806 E1.58144
G1 X169.400 Y120.551 E1.58867
G1 X169.624 Y120.487 F7800.000
G1 X169.634 Y120.227 E1.59605 F1620.000
G1 X169.673 Y119.933 E1.60447
G1 X169.739 Y119.647 E1.61277
G1 X169.834 Y119.364 E1.62125
G1 X169.960 Y119.085 E1.62991
G1 X170.116 Y118.813 E1.63880
G1 X170.504 Y118.325 E1.65648
G1 X170.765 Y118.088 E1.66647
G1 X170.990 Y117.921 E1.67439
G1 X171.259 Y117.760 E1.68328
G1 X171.539 Y117.627 E1.69206
G1 X171.831 Y117.526 E1.70083
G1 X172.123 Y117.454 E1.70934
G1 X172.414 Y117.410 E1.71769
G1 X172.943 Y117.405 E1.73269 F1620.000
G1 X173.267 Y117.445 E1.74193
G1 X173.807 Y117.597 E1.75782
G1 X174.116 Y117.732 E1.76739
G1 X174.514 Y117.975 E1.78061
G1 X174.877 Y118.280 E1.79405
G1 X175.112 Y118.537 E1.80392
G1 X175.279 Y118.762 E1.81184
G1 X175.440 Y119.031 E1.82073
G1 X175.585 Y119.344 E1.83051
G1 X175.674 Y119.603 E1.83827
G1 X175.746 Y119.895 E1.84679
G1 X175.792 Y120.218 E1.85606
G1 X175.794 Y120.745 E1.87098
G1 X175.753 Y121.038 E1.87937
G1 X175.687 Y121.324 E1.88770
G1 X175.592 Y121.609 E1.89620
G1 X175.482 Y121.858 E1.90389
G1 X175.295 Y122.185 E1.91458
G1 X175.131 Y122.412 E1.92252
G1 X174.944 Y122.624 E1.93054
G1 X174.663 Y122.882 E1.94134
G1 X174.438 Y123.051 E1.94930
G1 X174.169 Y123.212 E1.95820
G1 X173.889 Y123.343 E1.96696
G1 X173.630 Y123.437 E1.97477
G1 X173.334 Y123.512 E1.98341
G1 X173.014 Y123.562 E1.99260
G1 X172.455 Y123.566 E2.00843
G1 X172.128 Y123.520 E2.01779
G1 X171.876 Y123.461 E2.02514
G1 X171.592 Y123.366 E2.03363
G1 X171.282 Y123.224 E2.04329
G1 X171.043 Y123.086 E2.05109
G1 X170.788 Y122.903 E2.06000
G1 X170.550 Y122.693 E2.06898
G1 X170.340 Y122.462 E2.07784
G1 X170.149 Y122.210 E2.08679
G1 X169.988 Y121.941 E2.09568
G1 X169.857 Y121.661 E2.10444
G1 X169.752 Y121.370 E2.11321
G1 X169.676 Y121.046 E2.12265
G1 X169.627 Y120.547 E2.13684
G1 F1800.000 E1.13684
G92 E0
G1 X172.497 Y117.019 F7800.000
G1 X172.436 Y73.800 F7800.000
G1 E1.00000 F1800.000
G1 X172.122 Y73.759 E1.00897 F1620.000
G1 X171.814 Y73.687 E1.01793
G1 X171.510 Y73.586 E1.02702
G1 X171.207 Y73.450 E1.03643
G1 X170.921 Y73.285 E1.04578
G1 X170.647 Y73.089 E1.05533
G1 X170.388 Y72.861 E1.06509
G1 X170.167 Y72.618 E1.07442
G1 X169.961 Y72.345 E1.08410
G1 X169.786 Y72.055 E1.09370
G1 X169.647 Y71.757 E1.10301
G1 X169.534 Y71.442 E1.11251
G1 X169.458 Y71.128 E1.12167
G1 X169.412 Y70.814 E1.13066
G1 X169.406 Y70.253 E1.14656
G1 X169.449 Y69.899 E1.15666
G1 X169.521 Y69.592 E1.16561
G1 X169.622 Y69.290 E1.17464
G1 X169.757 Y68.990 E1.18393
G1 X169.923 Y68.700 E1.19342
G1 X170.120 Y68.426 E1.20298
G1 X170.346 Y68.172 E1.21261
G1 X170.591 Y67.943 E1.22211
G1 X170.863 Y67.741 E1.23171
G1 X171.113 Y67.590 E1.24000
G1 X171.494 Y67.409 E1.25195
G1 X171.765 Y67.316 E1.26008
G1 X172.081 Y67.236 E1.26930
G1 X172.394 Y67.192 E1.27827
G1 X172.749 Y67.177 E1.28833
G1 X172.997 Y67.190 E1.29538 F1620.000
G1 X173.347 Y67.239 E1.30539
G1 X173.615 Y67.303 E1.31319
G1 X173.956 Y67.420 E1.32341
G1 X174.218 Y67.537 E1.33156
G1 X174.507 Y67.703 E1.34099
G1 X174.782 Y67.900 E1.35058
G1 X175.038 Y68.125 E1.36024
G1 X175.264 Y68.370 E1.36969
G1 X175.467 Y68.643 E1.37931
G1 X175.642 Y68.932 E1.38889
G1 X175.782 Y69.229 E1.39820
G1 X175.893 Y69.549 E1.40779
G1 X175.969 Y69.860 E1.41688
G1 X176.016 Y70.171 E1.42579
G1 X176.031 Y70.528 E1.43590
G1 X176.020 Y70.776 E1.44294
G1 X175.977 Y71.085 E1.45180
G1 X175.915 Y71.359 E1.45974
G1 X175.817 Y71.664 E1.46882
G1 X175.671 Y72.000 E1.47920
G1 X175.505 Y72.288 E1.48864
G1 X175.309 Y72.561 E1.49815
G1 X175.078 Y72.818 E1.50795
G1 X174.839 Y73.040 E1.51719
G1 X174.564 Y73.248 E1.52696
G1 X174.274 Y73.420 E1.53652
G1 X173.979 Y73.560 E1.54578
G1 X173.665 Y73.674 E1.55525
G1 X173.347 Y73.749 E1.56449
G1 X173.032 Y73.796 E1.57353
G1 X172.496 Y73.803 E1.58873
G1 X172.456 Y73.574 F7800.000
G1 X172.161 Y73.535 E1.59717 F1620.000
G1 X171.876 Y73.469 E1.60546
G1 X171.592 Y73.374 E1.61394
G1 X171.341 Y73.262 E1.62172
G1 X171.015 Y73.075 E1.63238
G1 X170.788 Y72.911 E1.64031
G1 X170.550 Y72.701 E1.64929
G1 X170.340 Y72.470 E1.65815
G1 X170.149 Y72.218 E1.66710
G1 X169.988 Y71.951 E1.67594
G1 X169.857 Y71.669 E1.68476
G1 X169.752 Y71.376 E1.69358
G1 X169.682 Y71.085 E1.70207
G1 X169.638 Y70.794 E1.71041
G1 X169.624 Y70.495 E1.71887
G1 X169.634 Y70.235 E1.72625
G1 X169.673 Y69.938 E1.73474
G1 X169.739 Y69.653 E1.74303
G1 X169.834 Y69.372 E1.75146
G1 X169.960 Y69.093 E1.76011
G1 X170.114 Y68.823 E1.76893
G1 X170.298 Y68.568 E1.77784
G1 X170.483 Y68.358 E1.78576
G1 X170.766 Y68.096 E1.79670
G1 X170.990 Y67.929 E1.80461
G1 X171.258 Y67.768 E1.81348
G1 X171.539 Y67.635 E1.82228
G1 X171.830 Y67.534 E1.83103
G1 X172.123 Y67.460 E1.83959
G1 X172.414 Y67.418 E1.84792
G1 X172.742 Y67.404 E1.85721 F1620.000
G1 X173.267 Y67.455 E1.87216
G1 X173.553 Y67.521 E1.88048
G1 X173.806 Y67.605 E1.88803
G1 X174.115 Y67.740 E1.89759
G1 X174.385 Y67.894 E1.90639
G1 X174.640 Y68.078 E1.91531
G1 X174.851 Y68.262 E1.92325
G1 X175.091 Y68.518 E1.93318
G1 X175.279 Y68.770 E1.94209
G1 X175.440 Y69.036 E1.95092
G1 X175.573 Y69.319 E1.95976
G1 X175.675 Y69.611 E1.96854
G1 X175.746 Y69.904 E1.97710
G1 X175.790 Y70.193 E1.98537
G1 X175.804 Y70.493 E1.99389
G1 X175.794 Y70.753 E2.00125
G1 X175.753 Y71.049 E2.00971
G1 X175.687 Y71.332 E2.01796
G1 X175.592 Y71.617 E2.02647
G1 X175.468 Y71.897 E2.03513
G1 X175.314 Y72.165 E2.04390
G1 X175.131 Y72.420 E2.05280
G1 X174.919 Y72.656 E2.06179
G1 X174.691 Y72.868 E2.07061
G1 X174.438 Y73.059 E2.07959
G1 X174.169 Y73.218 E2.08844
G1 X173.889 Y73.351 E2.09722
G1 X173.598 Y73.456 E2.10599
G1 X173.273 Y73.532 E2.11546
G1 X173.013 Y73.570 E2.12290
G1 X172.516 Y73.576 E2.13699
G1 F1800.000 E1.13699
G92 E0
G1 X172.394 Y67.091 F7800.000
G1 X169.127 Y75.547 F7800.000
G1 E1.00000 F1800.000
G1 X169.457 Y76.144 E1.01933 F1620.000
G1 X169.596 Y76.464 E1.02922
G1 X169.807 Y77.122 E1.04880
G1 X169.884 Y77.460 E1.05861
G1 X169.971 Y78.149 E1.07829
G1 X169.971 Y78.841 E1.09792
G1 X169.939 Y79.186 E1.10773
G1 X169.807 Y79.868 E1.12740
G1 X169.595 Y80.524 E1.14695
G1 X169.457 Y80.844 E1.15682
G1 X169.298 Y81.154 E1.16669
G1 X168.929 Y81.739 E1.18630
G1 X168.487 Y82.272 E1.20591
G1 X167.981 Y82.744 E1.22553
G1 X167.707 Y82.958 E1.23538
G1 X167.120 Y83.331 E1.25509
G1 X166.496 Y83.625 E1.27465
G1 X166.169 Y83.742 E1.28447
G1 X165.498 Y83.914 E1.30410
G1 X165.156 Y83.969 E1.31393
G1 X164.809 Y84.001 E1.32379
G1 X164.119 Y84.001 E1.34337
G1 X163.428 Y83.914 E1.36311
G1 X162.761 Y83.742 E1.38262
G1 X162.433 Y83.625 E1.39249
G1 X161.806 Y83.331 E1.41211
G1 X161.508 Y83.154 E1.42194
G1 X160.945 Y82.744 E1.44165
G1 X160.686 Y82.515 E1.45145
G1 X160.212 Y82.010 E1.47109
G1 X160.001 Y81.738 E1.48085
G1 X159.630 Y81.153 E1.50049
G1 X159.335 Y80.526 E1.52012
G1 X159.118 Y79.867 E1.53978
G1 X159.044 Y79.526 E1.54966
G1 X158.957 Y78.842 E1.56919
G1 X158.957 Y78.148 E1.58888
G1 X159.044 Y77.462 E1.60848
G1 X159.119 Y77.123 E1.61830
G1 X159.216 Y76.789 E1.62816
G1 X159.473 Y76.145 E1.64781
G1 X159.806 Y75.538 E1.66745
G1 X160.211 Y74.976 E1.68707
G1 X160.443 Y74.716 E1.69695
G1 X160.946 Y74.241 E1.71654
G1 X161.222 Y74.031 E1.72639
G1 X161.805 Y73.658 E1.74600
G1 X162.433 Y73.365 E1.76561
G1 X162.760 Y73.246 E1.77549
G1 X163.428 Y73.074 E1.79502
G1 X163.772 Y73.019 E1.80491
G1 X164.119 Y72.987 E1.81477
G1 X164.786 Y72.987 E1.83368
G1 X165.156 Y73.019 E1.84421 F1620.000
G1 X165.498 Y73.074 E1.85403
G1 X166.170 Y73.246 E1.87369
G1 X166.496 Y73.365 E1.88351
G1 X167.121 Y73.658 E1.90307
G1 X167.706 Y74.031 E1.92274
G1 X167.981 Y74.242 E1.93254
G1 X168.239 Y74.472 E1.94237
G1 X168.487 Y74.716 E1.95221
G1 X168.715 Y74.976 E1.96201
G1 X169.094 Y75.497 E1.98028
G1 X168.932 Y75.663 F7800.000
G1 X169.251 Y76.242 E1.99901 F1620.000
G1 X169.384 Y76.547 E2.00845
G1 X169.587 Y77.179 E2.02727
G1 X169.660 Y77.503 E2.03667
G1 X169.744 Y78.162 E2.05551
G1 X169.744 Y78.828 E2.07436
G1 X169.713 Y79.157 E2.08374
G1 X169.587 Y79.811 E2.10260
G1 X169.384 Y80.441 E2.12137
G1 X169.251 Y80.746 E2.13081
G1 X169.099 Y81.044 E2.14027
G1 X168.745 Y81.605 E2.15908
G1 X168.322 Y82.116 E2.17788
G1 X167.836 Y82.569 E2.19671
G1 X167.573 Y82.775 E2.20616
G1 X167.011 Y83.131 E2.22502
G1 X166.411 Y83.414 E2.24381
G1 X166.100 Y83.526 E2.25320
G1 X165.455 Y83.690 E2.27205
G1 X165.127 Y83.743 E2.28146
G1 X164.796 Y83.774 E2.29090
G1 X164.132 Y83.774 E2.30969
G1 X163.471 Y83.690 E2.32859
G1 X162.830 Y83.526 E2.34733
G1 X162.517 Y83.414 E2.35677
G1 X161.915 Y83.131 E2.37561
G1 X161.630 Y82.962 E2.38501
G1 X161.091 Y82.569 E2.40391
G1 X160.842 Y82.350 E2.41331
G1 X160.387 Y81.865 E2.43215
G1 X160.185 Y81.605 E2.44148
G1 X159.829 Y81.043 E2.46032
G1 X159.546 Y80.441 E2.47917
G1 X159.339 Y79.810 E2.49800
G1 X159.267 Y79.485 E2.50745
G1 X159.184 Y78.828 E2.52621
G1 X159.184 Y78.162 E2.54507
G1 X159.267 Y77.503 E2.56389
G1 X159.339 Y77.180 E2.57328
G1 X159.432 Y76.860 E2.58273
G1 X159.678 Y76.242 E2.60158
G1 X159.998 Y75.660 E2.62040
G1 X160.387 Y75.121 E2.63923
G1 X160.842 Y74.639 E2.65803
G1 X161.091 Y74.417 E2.66747
G1 X161.629 Y74.028 E2.68629
G1 X161.915 Y73.857 E2.69572
G1 X162.517 Y73.576 E2.71454
G1 X162.830 Y73.462 E2.72400
G1 X163.471 Y73.298 E2.74274
G1 X163.801 Y73.245 E2.75221
G1 X164.447 Y73.204 E2.77057
G1 X165.127 Y73.245 E2.78987 F1620.000
G1 X165.780 Y73.371 E2.80872
G1 X166.411 Y73.576 E2.82753
G1 X167.011 Y73.857 E2.84630
G1 X167.573 Y74.215 E2.86517
G1 X168.084 Y74.638 E2.88397
G1 X168.539 Y75.121 E2.90278
G1 X168.898 Y75.613 E2.92005
G1 F1800.000 E1.92005
G92 E0
G1 X164.314 Y72.827 F7800.000
G1 X130.545 Y88.891 F7800.000
G1 E1.00000 F1800.000
G1 X130.545 Y100.025 E1.31554 F1620.000
G1 X84.681 Y100.025 E2.61530
G1 X84.681 Y88.891 E2.93084
G1 X130.485 Y88.891 E4.22890
G1 X130.318 Y89.118 F7800.000
G1 X130.318 Y99.798 E4.53156 F1620.000
G1 X84.908 Y99.798 E5.81845
G1 X84.908 Y89.118 E6.12111
G1 X130.258 Y89.118 E7.40629
G1 X130.718 Y89.118 F7800.000
G1 X30.387 Y71.112 F7800.000
G1 X30.315 Y71.422 E7.41529 F1620.000
G1 X30.227 Y71.690 E7.42328
G1 X30.079 Y72.029 E7.43377
G1 X29.911 Y72.315 E7.44318
G1 X29.742 Y72.555 E7.45149
G1 X29.518 Y72.814 E7.46120
G1 X29.247 Y73.068 E7.47173
G1 X28.938 Y73.296 E7.48262
G1 X28.682 Y73.448 E7.49105
G1 X28.387 Y73.588 E7.50031
G1 X28.030 Y73.713 E7.51103
G1 X27.486 Y73.819 E7.52673
G1 X27.124 Y73.839 E7.53698
G1 X26.846 Y73.828 E7.54489
G1 X26.530 Y73.787 E7.55391
G1 X26.222 Y73.715 E7.56288
G1 X25.918 Y73.612 E7.57199
G1 X25.655 Y73.497 E7.58012
G1 X25.329 Y73.313 E7.59072
G1 X25.056 Y73.116 E7.60026
G1 X24.834 Y72.924 E7.60859
G1 X24.575 Y72.646 E7.61935
G1 X24.368 Y72.373 E7.62906
G1 X24.194 Y72.082 E7.63866
G1 X23.842 Y71.329 E7.66223
G1 X23.908 Y71.329 E7.66409
G1 X23.825 Y70.886 E7.67686
G1 X23.805 Y70.527 E7.68704
G1 X23.816 Y70.241 E7.69514
G1 X23.857 Y69.929 E7.70406
G1 X23.929 Y69.620 E7.71307
G1 X24.016 Y69.354 E7.72098
G1 X24.165 Y69.016 E7.73145
G1 X24.333 Y68.728 E7.74092
G1 X24.502 Y68.489 E7.74919
G1 X24.724 Y68.232 E7.75884
G1 X24.998 Y67.972 E7.76952
G1 X25.308 Y67.745 E7.78041
G1 X25.561 Y67.595 E7.78875
G1 X25.857 Y67.454 E7.79806
G1 X26.173 Y67.344 E7.80754
G1 X26.489 Y67.264 E7.81676
G1 X26.759 Y67.225 E7.82451
G1 X27.157 Y67.205 E7.83579
G1 X27.710 Y67.259 E7.85152 F1620.000
G1 X27.987 Y67.321 E7.85959
G1 X28.292 Y67.419 E7.86865
G1 X28.589 Y67.547 E7.87784
G1 X28.914 Y67.730 E7.88838
G1 X29.189 Y67.927 E7.89798
G1 X29.447 Y68.154 E7.90770
G1 X29.668 Y68.397 E7.91703
G1 X29.876 Y68.672 E7.92678
G1 X30.050 Y68.961 E7.93635
G1 X30.188 Y69.258 E7.94564
G1 X30.311 Y69.612 E7.95625
G1 X30.378 Y69.891 E7.96439
G1 X30.427 Y70.241 E7.97442
G1 X30.439 Y70.556 E7.98333
G1 X30.395 Y71.053 E7.99748
G1 X30.163 Y71.075 F7800.000
G1 X30.097 Y71.360 E8.00578 F1620.000
G1 X30.013 Y71.615 E8.01337
G1 X29.876 Y71.925 E8.02298
G1 X29.559 Y72.421 E8.03966
G1 X29.351 Y72.659 E8.04862
G1 X29.099 Y72.896 E8.05843
G1 X28.818 Y73.103 E8.06832
G1 X28.577 Y73.246 E8.07625
G1 X28.297 Y73.379 E8.08503
G1 X28.006 Y73.484 E8.09380
G1 X27.454 Y73.594 E8.10975
G1 X27.123 Y73.612 E8.11916
G1 X26.569 Y73.563 E8.13492
G1 X26.314 Y73.504 E8.14233
G1 X26.000 Y73.400 E8.15172
G1 X25.692 Y73.260 E8.16130
G1 X25.423 Y73.102 E8.17013
G1 X25.198 Y72.938 E8.17802
