; generated by Slic3r 1.1.7 on 2015-02-25 at 19:03:38

; perimeters extrusion width = 0.40mm
; infill extrusion width = 0.40mm
; solid infill extrusion width = 0.40mm
; top infill extrusion width = 0.40mm

G21 ; set units to millimeters
M107
M190 S60 ; wait for bed temperature to be reached
M104 S190 ; set temperature
G28 ; home all axes
G1 Z5 F5000 ; lift nozzle
M109 S190 ; wait for temperature to be reached
G90 ; use absolute coordinates
G92 E0
M82 ; use absolute distances for extrusion
G1 F1800.000 E-1.00000
G92 E0
G1 Z0.300 F7800.000
G1 X67.786 Y67.818 F7800.000
G1 E1.00000 F1800.000
G1 X69.533 Y66.378 E1.06415 F1080.000
G1 X72.702 Y65.547 E1.15700
G1 X95.298 Y65.547 E1.79736
G1 X97.527 Y65.943 E1.86150
G1 X99.481 Y67.085 E1.92565 F1080.000
G1 X100.921 Y68.832 E1.98980
G1 X101.753 Y72.001 E2.08265
G1 X101.753 Y119.999 E3.44287
G1 X101.356 Y122.227 E3.50702
G1 X100.214 Y124.182 E3.57117
G1 X98.467 Y125.622 E3.63531
G1 X95.298 Y126.453 E3.72817
G1 X72.702 Y126.453 E4.36852
G1 X70.473 Y126.057 E4.43267
G1 X68.519 Y124.915 E4.49682
G1 X67.079 Y123.168 E4.56096
G1 X66.247 Y119.999 E4.65382
G1 X66.247 Y72.001 E6.01404
G1 X66.644 Y69.773 E6.07819
G1 X67.756 Y67.870 E6.14063
G1 X67.990 Y67.940 F7800.000
G1 X68.011 Y67.905 E6.14179 F1080.000
G1 X69.749 Y66.518 E6.20479
G1 X72.702 Y65.774 E6.29109
G1 X95.298 Y65.774 E6.93145
G1 X97.485 Y66.171 E6.99445
G1 X99.394 Y67.310 E7.05745 F1080.000
G1 X100.781 Y69.048 E7.12045
G1 X101.525 Y72.001 E7.20675
G1 X101.525 Y119.999 E8.56698
G1 X101.129 Y122.186 E8.62998
G1 X99.989 Y124.095 E8.69298
G1 X98.251 Y125.482 E8.75598
G1 X95.298 Y126.226 E8.84228
G1 X72.702 Y126.226 E9.48264
G1 X70.515 Y125.829 E9.54564
G1 X68.606 Y124.690 E9.60864
G1 X67.219 Y122.952 E9.67164
G1 X66.475 Y119.999 E9.75794
G1 X66.475 Y72.001 E11.11817
G1 X66.871 Y69.814 E11.18117
G1 X67.960 Y67.992 E11.24131
G1 F1800.000 E10.24131
G92 E0
G1 X91.844 Y105.392 F7800.000
G1 E1.00000 F1800.000
G1 X76.160 Y105.392 E1.44449 F1620.000
G1 X76.159 Y119.455 E1.84302
G1 X73.246 Y119.455 E1.92558
G1 X73.246 Y72.545 E3.25495
G1 X94.754 Y72.545 E3.86445
G1 X94.754 Y119.455 E5.19382
G1 X91.844 Y119.455 E5.27626
G1 X91.844 Y105.452 E5.67310
G1 X91.617 Y105.619 F7800.000
G1 X76.387 Y105.619 E6.10471 F1620.000
G1 X76.387 Y119.682 E6.50325
G1 X73.019 Y119.682 E6.59868
G1 X73.019 Y72.318 E7.94093
G1 X94.981 Y72.318 E8.56330
G1 X94.981 Y119.682 E9.90555
G1 X91.617 Y119.682 E10.00087
G1 X91.617 Y105.679 E10.39771
G1 X91.390 Y105.846 F7800.000
G1 X76.614 Y105.846 E10.81645 F1620.000
G1 X76.614 Y119.909 E11.21498
G1 X72.792 Y119.909 E11.32329
G1 X72.792 Y72.091 E12.67842
G1 X95.208 Y72.091 E13.31368
G1 X95.208 Y119.909 E14.66880
G1 X91.390 Y119.909 E14.77700
G1 X91.390 Y105.906 E15.17384
G1 X91.390 Y105.446 F7800.000
G1 X94.609 Y108.222 F7800.000
G1 X91.989 Y105.602 E15.27883 F1980.000
G1 X91.989 Y105.925 E15.28797
G1 X94.609 Y108.545 E15.39297
G1 X94.609 Y108.868 E15.40211
G1 X91.989 Y106.248 E15.50711
G1 X91.989 Y106.570 E15.51625
G1 X94.609 Y109.190 E15.62125
G1 X94.609 Y109.513 E15.63039
G1 X91.989 Y106.893 E15.73539
G1 X91.989 Y107.216 E15.74453
G1 X94.609 Y109.836 E15.84952
G1 X94.609 Y110.158 E15.85867
G1 X91.989 Y107.538 E15.96366
G1 X91.989 Y107.861 E15.97281
G1 X94.609 Y110.481 E16.07780
G1 X94.609 Y110.803 E16.08694
G1 X91.989 Y108.184 E16.19194
G1 X91.989 Y108.506 E16.20108
G1 X94.609 Y111.126 E16.30608
G1 X94.609 Y111.449 E16.31522
G1 X91.989 Y108.829 E16.42022
G1 X91.989 Y109.152 E16.42936
G1 X94.609 Y111.771 E16.53436
G1 X94.609 Y112.094 E16.54350
G1 X91.989 Y109.474 E16.64849
G1 X91.989 Y109.797 E16.65764
G1 X94.609 Y112.417 E16.76263
G1 X94.609 Y112.739 E16.77178
G1 X91.989 Y110.120 E16.87677
G1 X91.989 Y110.442 E16.88591
G1 X94.609 Y113.062 E16.99091
G1 X94.609 Y113.385 E17.00005
G1 X91.989 Y110.765 E17.10505
G1 X91.989 Y111.088 E17.11419
G1 X94.609 Y113.707 E17.21919
G1 X94.609 Y114.030 E17.22833
G1 X91.989 Y111.410 E17.33333
G1 X91.989 Y111.733 E17.34247
G1 X94.609 Y114.353 E17.44746
G1 X94.609 Y114.675 E17.45661
G1 X91.989 Y112.056 E17.56160
G1 X91.989 Y112.378 E17.57075
G1 X94.609 Y114.998 E17.67574
G1 X94.609 Y115.321 E17.68488
G1 X91.989 Y112.701 E17.78988
G1 X91.989 Y113.024 E17.79902
G1 X94.609 Y115.643 E17.90402
G1 X94.609 Y115.966 E17.91316
G1 X91.989 Y113.346 E18.01816
G1 X91.989 Y113.669 E18.02730
G1 X94.609 Y116.289 E18.13230
G1 X94.609 Y116.611 E18.14144
G1 X91.989 Y113.992 E18.24643
G1 X91.989 Y114.314 E18.25558
G1 X94.609 Y116.934 E18.36057
G1 X94.609 Y117.257 E18.36972
G1 X91.989 Y114.637 E18.47471
G1 X91.989 Y114.959 E18.48385
G1 X94.609 Y117.579 E18.58885
G1 X94.609 Y117.902 E18.59799
G1 X91.989 Y115.282 E18.70299
G1 X91.989 Y115.605 E18.71213
G1 X94.609 Y118.225 E18.81713
G1 X94.609 Y118.547 E18.82627
G1 X91.989 Y115.927 E18.93127
G1 X91.989 Y116.250 E18.94041
G1 X94.609 Y118.870 E19.04540
G1 X94.609 Y119.193 E19.05455
G1 X91.989 Y116.573 E19.15954
G1 X91.989 Y116.895 E19.16869
G1 X94.404 Y119.310 E19.26545
G1 X94.081 Y119.310 E19.27460
G1 X91.989 Y117.218 E19.35843
G1 X91.989 Y117.541 E19.36758
G1 X93.758 Y119.310 E19.43848
G1 X93.436 Y119.310 E19.44762
G1 X91.989 Y117.863 E19.50560
G1 X91.989 Y118.186 E19.51474
G1 X93.113 Y119.310 E19.55978
G1 X92.790 Y119.310 E19.56893
G1 X91.989 Y118.509 E19.60104
G1 X91.989 Y118.831 E19.61018
G1 X92.468 Y119.310 E19.62936
G1 X92.145 Y119.310 E19.63850
G1 X91.989 Y119.154 E19.64475
G1 F1800.000 E18.64475
G92 E0
G1 X73.431 Y119.310 F7800.000
G1 E1.00000 F1800.000
G1 X73.391 Y119.270 E1.00160 F1980.000
G1 X73.391 Y118.947 E1.01075
G1 X73.754 Y119.310 E1.02528
G1 X74.076 Y119.310 E1.03443
G1 X73.391 Y118.625 E1.06189
G1 X73.391 Y118.302 E1.07103
G1 X74.399 Y119.310 E1.11143
G1 X74.722 Y119.310 E1.12058
G1 X73.391 Y117.979 E1.17390
G1 X73.391 Y117.657 E1.18305
G1 X75.044 Y119.310 E1.24931
G1 X75.367 Y119.310 E1.25845
G1 X73.391 Y117.334 E1.33764
G1 X73.391 Y117.011 E1.34679
G1 X75.690 Y119.310 E1.43891
G1 X76.012 Y119.310 E1.44805
G1 X73.391 Y116.689 E1.55310
G1 X73.391 Y116.366 E1.56225
G1 X76.015 Y118.990 E1.66740
G1 X76.015 Y118.667 E1.67654
G1 X73.391 Y116.043 E1.78170
G1 X73.391 Y115.721 E1.79084
G1 X76.015 Y118.344 E1.89600
G1 X76.015 Y118.022 E1.90514
G1 X73.391 Y115.398 E2.01029
G1 X73.391 Y115.075 E2.01944
G1 X76.015 Y117.699 E2.12459
G1 X76.015 Y117.376 E2.13373
G1 X73.391 Y114.753 E2.23889
G1 X73.391 Y114.430 E2.24803
G1 X76.015 Y117.054 E2.35319
G1 X76.015 Y116.731 E2.36233
G1 X73.391 Y114.107 E2.46749
G1 X73.391 Y113.785 E2.47663
G1 X76.015 Y116.409 E2.58179
G1 X76.015 Y116.086 E2.59093
G1 X73.391 Y113.462 E2.69609
G1 X73.391 Y113.139 E2.70523
G1 X76.015 Y115.763 E2.81039
G1 X76.015 Y115.441 E2.81953
G1 X73.391 Y112.817 E2.92469
G1 X73.391 Y112.494 E2.93383
G1 X76.015 Y115.118 E3.03899
G1 X76.015 Y114.795 E3.04814
G1 X73.391 Y112.171 E3.15329
G1 X73.391 Y111.849 E3.16244
G1 X76.015 Y114.473 E3.26760
G1 X76.015 Y114.150 E3.27674
G1 X73.391 Y111.526 E3.38190
G1 X73.391 Y111.203 E3.39104
G1 X76.015 Y113.827 E3.49620
G1 X76.015 Y113.505 E3.50535
G1 X73.391 Y110.881 E3.61051
G1 X73.391 Y110.558 E3.61965
G1 X76.015 Y113.182 E3.72481
G1 X76.015 Y112.859 E3.73395
G1 X73.391 Y110.236 E3.83912
G1 X73.391 Y109.913 E3.84826
G1 X76.015 Y112.537 E3.95342
G1 X76.015 Y112.214 E3.96256
G1 X73.391 Y109.590 E4.06773
G1 X73.391 Y109.268 E4.07687
G1 X76.015 Y111.892 E4.18203
G1 X76.015 Y111.569 E4.19118
G1 X73.391 Y108.945 E4.29634
G1 X73.391 Y108.622 E4.30548
G1 X76.015 Y111.246 E4.41065
G1 X76.015 Y110.924 E4.41979
G1 X73.391 Y108.300 E4.52495
G1 X73.391 Y107.977 E4.53410
G1 X76.015 Y110.601 E4.63926
G1 X76.015 Y110.278 E4.64840
G1 X73.391 Y107.654 E4.75357
G1 X73.391 Y107.332 E4.76271
G1 X76.015 Y109.956 E4.86788
G1 X76.015 Y109.633 E4.87702
G1 X73.391 Y107.009 E4.98219
G1 X73.391 Y106.686 E4.99133
G1 X76.015 Y109.310 E5.09650
G1 X76.015 Y108.988 E5.10564
G1 X73.391 Y106.364 E5.21080
G1 X73.391 Y106.041 E5.21995
G1 X76.015 Y108.665 E5.32512
G1 X76.015 Y108.342 E5.33426
G1 X73.391 Y105.718 E5.43943
G1 X73.391 Y105.396 E5.44857
G1 X76.015 Y108.020 E5.55374
G1 X76.015 Y107.697 E5.56288
G1 X73.391 Y105.073 E5.66805
G1 X73.391 Y104.750 E5.67719
G1 X76.015 Y107.374 E5.78236
G1 X76.015 Y107.052 E5.79150
G1 X73.391 Y104.428 E5.89667
G1 X73.391 Y104.105 E5.90582
G1 X76.015 Y106.729 E6.01099
G1 X76.015 Y106.407 E6.02013
G1 X73.391 Y103.782 E6.12530
G1 X73.391 Y103.460 E6.13444
G1 X76.015 Y106.084 E6.23961
G1 X76.015 Y105.761 E6.24876
G1 X73.391 Y103.137 E6.35393
G1 X73.391 Y102.814 E6.36307
G1 X76.015 Y105.439 E6.46824
G1 X76.146 Y105.247 E6.47482
G1 X73.391 Y102.492 E6.58524
G1 X73.391 Y102.169 E6.59438
G1 X76.469 Y105.247 E6.71773
G1 X76.791 Y105.247 E6.72687
G1 X73.391 Y101.846 E6.86315
G1 X73.391 Y101.524 E6.87229
G1 X77.114 Y105.247 E7.02150
G1 X77.437 Y105.247 E7.03064
G1 X73.391 Y101.201 E7.19278
G1 X73.391 Y100.879 E7.20193
G1 X77.759 Y105.247 E7.37700
G1 X78.082 Y105.247 E7.38614
G1 X73.391 Y100.556 E7.57414
G1 X73.391 Y100.233 E7.58329
G1 X78.405 Y105.247 E7.78422
G1 X78.727 Y105.247 E7.79336
G1 X73.391 Y99.911 E8.00723
G1 X73.391 Y99.588 E8.01637
G1 X79.050 Y105.247 E8.24317
G1 X79.373 Y105.247 E8.25231
G1 X73.391 Y99.265 E8.49204
G1 X73.391 Y98.943 E8.50118
G1 X79.695 Y105.247 E8.75384
G1 X80.018 Y105.247 E8.76299
G1 X73.391 Y98.620 E9.02858
G1 X73.391 Y98.297 E9.03772
G1 X80.341 Y105.247 E9.31624
G1 X80.663 Y105.247 E9.32538
G1 X73.391 Y97.975 E9.61684
G1 X73.391 Y97.652 E9.62598
G1 X80.986 Y105.247 E9.93036
G1 X81.309 Y105.247 E9.93951
G1 X73.391 Y97.329 E10.25682
G1 X73.391 Y97.007 E10.26597
G1 X81.631 Y105.247 E10.59621
G1 X81.954 Y105.247 E10.60536
G1 X73.391 Y96.684 E10.94854
G1 X73.391 Y96.361 E10.95768
G1 X82.277 Y105.247 E11.31379
G1 X82.599 Y105.247 E11.32293
G1 X73.391 Y96.039 E11.69197
G1 X73.391 Y95.716 E11.70112
G1 X82.922 Y105.247 E12.08309
G1 X83.244 Y105.247 E12.09223
G1 X73.391 Y95.393 E12.48713
G1 X73.391 Y95.071 E12.49628
G1 X83.567 Y105.247 E12.90411
G1 X83.890 Y105.247 E12.91326
G1 X73.391 Y94.748 E13.33402
G1 X73.391 Y94.425 E13.34316
G1 X84.212 Y105.247 E13.77686
G1 X84.535 Y105.247 E13.78600
G1 X73.391 Y94.103 E14.23263
G1 X73.391 Y93.780 E14.24178
G1 X84.858 Y105.247 E14.70134
G1 X85.180 Y105.247 E14.71048
G1 X73.391 Y93.457 E15.18297
G1 X73.391 Y93.135 E15.19211
G1 X85.503 Y105.247 E15.67754
G1 X85.826 Y105.247 E15.68668
G1 X73.391 Y92.812 E16.18503
G1 X73.391 Y92.489 E16.19418
G1 X86.148 Y105.247 E16.70546
G1 X86.471 Y105.247 E16.71460
G1 X73.391 Y92.167 E17.23882
G1 X73.391 Y91.844 E17.24796
G1 X86.794 Y105.247 E17.78511
G1 X87.116 Y105.247 E17.79426
G1 X73.391 Y91.521 E18.34433
G1 X73.391 Y91.199 E18.35348
G1 X87.439 Y105.247 E18.91649
G1 X87.762 Y105.247 E18.92563
G1 X73.391 Y90.876 E19.50157
G1 X73.391 Y90.554 E19.51072
G1 X88.084 Y105.247 E20.09959
G1 X88.407 Y105.247 E20.10873
G1 X73.391 Y90.231 E20.71053
G1 X73.391 Y89.908 E20.71968
G1 X88.730 Y105.247 E21.33441
G1 X89.052 Y105.247 E21.34356
G1 X73.391 Y89.586 E21.97122
G1 X73.391 Y89.263 E21.98037
G1 X89.375 Y105.247 E22.62096
G1 X89.698 Y105.247 E22.63011
G1 X73.391 Y88.940 E23.28364
G1 X73.391 Y88.618 E23.29278
G1 X90.020 Y105.247 E23.95924
G1 X90.343 Y105.247 E23.96838
G1 X73.391 Y88.295 E24.64777
G1 X73.391 Y87.972 E24.65692
G1 X90.666 Y105.247 E25.34924
G1 X90.988 Y105.247 E25.35838
G1 X73.391 Y87.650 E26.06364
G1 X73.391 Y87.327 E26.07278
G1 X91.311 Y105.247 E26.79097
G1 X91.634 Y105.247 E26.80011
G1 X73.391 Y87.004 E27.53123
G1 X73.391 Y86.682 E27.54037
G1 X94.609 Y107.900 E28.39074
G1 X94.609 Y107.577 E28.39988
G1 X73.391 Y86.359 E29.25024
G1 X73.391 Y86.036 E29.25939
G1 X94.609 Y107.254 E30.10975
G1 X94.609 Y106.932 E30.11890
G1 X73.391 Y85.714 E30.96926
G1 X73.391 Y85.391 E30.97841
G1 X94.609 Y106.609 E31.82877
G1 X94.609 Y106.286 E31.83791
G1 X73.391 Y85.068 E32.68828
G1 X73.391 Y84.746 E32.69742
G1 X94.609 Y105.964 E33.54779
G1 X94.609 Y105.641 E33.55693
G1 X73.391 Y84.423 E34.40730
G1 X73.391 Y84.100 E34.41644
G1 X94.609 Y105.318 E35.26680
G1 X94.609 Y104.996 E35.27595
G1 X73.391 Y83.778 E36.12631
G1 X73.391 Y83.455 E36.13546
G1 X94.609 Y104.673 E36.98582
G1 X94.609 Y104.350 E36.99496
G1 X73.391 Y83.132 E37.84533
G1 X73.391 Y82.810 E37.85447
G1 X94.609 Y104.028 E38.70484
G1 X94.609 Y103.705 E38.71398
G1 X73.391 Y82.487 E39.56435
G1 X73.391 Y82.164 E39.57349
G1 X94.609 Y103.382 E40.42386
G1 X94.609 Y103.060 E40.43300
G1 X73.391 Y81.842 E41.28336
G1 X73.391 Y81.519 E41.29251
G1 X94.609 Y102.737 E42.14287
G1 X94.609 Y102.414 E42.15202
G1 X73.391 Y81.197 E43.00238
G1 X73.391 Y80.874 E43.01152
G1 X94.609 Y102.092 E43.86189
G1 X94.609 Y101.769 E43.87103
G1 X73.391 Y80.551 E44.72140
G1 X73.391 Y80.229 E44.73054
G1 X94.609 Y101.446 E45.58091
G1 X94.609 Y101.124 E45.59005
G1 X73.391 Y79.906 E46.44042
G1 X73.391 Y79.583 E46.44956
G1 X94.609 Y100.801 E47.29992
G1 X94.609 Y100.479 E47.30907
G1 X73.391 Y79.261 E48.15943
G1 X73.391 Y78.938 E48.16858
G1 X94.609 Y100.156 E49.01894
G1 X94.609 Y99.833 E49.02808
G1 X73.391 Y78.615 E49.87845
G1 X73.391 Y78.293 E49.88759
G1 X94.609 Y99.511 E50.73796
G1 X94.609 Y99.188 E50.74710
G1 X73.391 Y77.970 E51.59747
G1 X73.391 Y77.647 E51.60661
G1 X94.609 Y98.865 E52.45698
G1 X94.609 Y98.543 E52.46612
G1 X73.391 Y77.325 E53.31648
G1 X73.391 Y77.002 E53.32563
G1 X94.609 Y98.220 E54.17599
G1 X94.609 Y97.897 E54.18514
G1 X73.391 Y76.679 E55.03550
G1 X73.391 Y76.357 E55.04464
G1 X94.609 Y97.575 E55.89501
G1 X94.609 Y97.252 E55.90415
G1 X73.391 Y76.034 E56.75452
G1 X73.391 Y75.711 E56.76366
G1 X94.609 Y96.929 E57.61403
G1 X94.609 Y96.607 E57.62317
G1 X73.391 Y75.389 E58.47354
G1 X73.391 Y75.066 E58.48268
G1 X94.609 Y96.284 E59.33304
G1 X94.609 Y95.961 E59.34219
G1 X73.391 Y74.743 E60.19255
G1 X73.391 Y74.421 E60.20170
G1 X94.609 Y95.639 E61.05206
G1 X94.609 Y95.316 E61.06120
G1 X73.391 Y74.098 E61.91157
G1 X73.391 Y73.775 E61.92071
G1 X94.609 Y94.993 E62.77108
G1 X94.609 Y94.671 E62.78022
G1 X73.391 Y73.453 E63.63059
G1 X73.391 Y73.130 E63.63973
G1 X94.609 Y94.348 E64.49010
G1 X94.609 Y94.025 E64.49924
G1 X73.391 Y72.807 E65.34960
G1 X73.596 Y72.690 E65.35631
G1 X94.609 Y93.703 E66.19844
G1 X94.609 Y93.380 E66.20759
G1 X73.919 Y72.690 E67.03679
G1 X74.242 Y72.690 E67.04594
G1 X94.609 Y93.057 E67.86221
G1 X94.609 Y92.735 E67.87135
G1 X74.564 Y72.690 E68.67470
G1 X74.887 Y72.690 E68.68384
G1 X94.609 Y92.412 E69.47425
G1 X94.609 Y92.089 E69.48340
G1 X75.210 Y72.690 E70.26088
G1 X75.532 Y72.690 E70.27002
G1 X94.609 Y91.767 E71.03457
G1 X94.609 Y91.444 E71.04371
G1 X75.855 Y72.690 E71.79533
G1 X76.178 Y72.690 E71.80447
G1 X94.609 Y91.121 E72.54316
G1 X94.609 Y90.799 E72.55230
G1 X76.500 Y72.690 E73.27806
G1 X76.823 Y72.690 E73.28720
G1 X94.609 Y90.476 E74.00003
G1 X94.609 Y90.154 E74.00917
G1 X77.146 Y72.690 E74.70906
G1 X77.468 Y72.690 E74.71821
G1 X94.609 Y89.831 E75.40517
G1 X94.609 Y89.508 E75.41431
G1 X77.791 Y72.690 E76.08834
G1 X78.114 Y72.690 E76.09749
G1 X94.609 Y89.186 E76.75859
G1 X94.609 Y88.863 E76.76773
G1 X78.436 Y72.690 E77.41590
G1 X78.759 Y72.690 E77.42504
G1 X94.609 Y88.540 E78.06028
G1 X94.609 Y88.218 E78.06942
G1 X79.081 Y72.690 E78.69173
G1 X79.404 Y72.690 E78.70087
G1 X94.609 Y87.895 E79.31024
G1 X94.609 Y87.572 E79.31939
G1 X79.727 Y72.690 E79.91583
G1 X80.049 Y72.690 E79.92497
G1 X94.609 Y87.250 E80.50848
G1 X94.609 Y86.927 E80.51763
G1 X80.372 Y72.690 E81.08821
G1 X80.695 Y72.690 E81.09735
G1 X94.609 Y86.604 E81.65500
G1 X94.609 Y86.282 E81.66414
G1 X81.017 Y72.690 E82.20886
G1 X81.340 Y72.690 E82.21801
G1 X94.609 Y85.959 E82.74979
G1 X94.609 Y85.636 E82.75894
G1 X81.663 Y72.690 E83.27779
G1 X81.985 Y72.690 E83.28693
G1 X94.609 Y85.314 E83.79286
G1 X94.609 Y84.991 E83.80200
G1 X82.308 Y72.690 E84.29499
G1 X82.631 Y72.690 E84.30414
G1 X94.609 Y84.668 E84.78420
G1 X94.609 Y84.346 E84.79334
G1 X82.953 Y72.690 E85.26047
G1 X83.276 Y72.690 E85.26961
G1 X94.609 Y84.023 E85.72381
G1 X94.609 Y83.700 E85.73296
G1 X83.599 Y72.690 E86.17422
G1 X83.921 Y72.690 E86.18337
G1 X94.609 Y83.378 E86.61170
G1 X94.609 Y83.055 E86.62085
G1 X84.244 Y72.690 E87.03625
G1 X84.567 Y72.690 E87.04539
G1 X94.609 Y82.732 E87.44787
G1 X94.609 Y82.410 E87.45701
G1 X84.889 Y72.690 E87.84655
G1 X85.212 Y72.690 E87.85570
